%
(Header)
(Generated by gcodetools from Inkscape.)
(Using default header. To add your own header create file "header" in the output dir.)
M3 S2000
(Header end.)
G21 (All units in mm)

(Start cutting path id: path1)
(Change tool to Default tool)

G00 Z5.000000
G00 X41.136156 Y3.656180

G01 Z-0.125000 F100.0(Penetrate)
G02 X40.590874 Y3.744581 Z-0.125000 I0.204711 J2.988652 F400.000000
G02 X40.453321 Y3.832610 Z-0.125000 I0.065735 J0.254200
G03 X40.310136 Y3.907436 Z-0.125000 I-0.159081 J-0.130003
G03 X37.084599 Y4.094050 Z-0.125000 I-6.358017 J-81.926035
G02 X27.995388 Y4.476603 Z-0.125000 I44.125717 J1156.566315
G02 X25.423908 Y4.630760 Z-0.125000 I4.265843 J92.682616
G02 X20.822883 Y5.159181 Z-0.125000 I4.205552 J56.913273
G02 X19.435984 Y5.566010 Z-0.125000 I0.857654 J5.491202
G02 X18.038213 Y6.351533 Z-0.125000 I3.368271 J7.629923
G02 X17.124492 Y7.175600 Z-0.125000 I2.806745 J4.030700
G02 X16.601465 Y8.059287 Z-0.125000 I2.209462 J1.904337
G02 X16.329723 Y9.303350 Z-0.125000 I4.202068 J1.569573
G03 X16.053496 Y11.143863 Z-0.125000 I-12.169394 J-0.885414
G03 X15.710639 Y12.004410 Z-0.125000 I-2.946356 J-0.675308
G02 X15.525862 Y12.359107 Z-0.125000 I3.269404 J1.928654
G02 X15.218165 Y13.085190 Z-0.125000 I13.428200 J6.118791
G02 X15.040038 Y13.842257 Z-0.125000 I2.539549 J0.997010
G02 X14.888509 Y16.818990 Z-0.125000 I39.914660 J3.524052
G02 X15.039094 Y20.556685 Z-0.125000 I34.696286 J0.474027
G02 X15.337857 Y21.575360 Z-0.125000 I2.782276 J-0.262853
G02 X16.168577 Y22.849536 Z-0.125000 I6.677842 J-3.445840
G02 X16.960772 Y23.585820 Z-0.125000 I2.956160 J-2.386323
G02 X17.379411 Y23.800196 Z-0.125000 I1.012139 J-1.460581
G02 X18.028169 Y23.964020 Z-0.125000 I1.200863 J-3.389037
G03 X18.690823 Y24.103107 Z-0.125000 I-0.988139 J6.355899
G03 X19.177151 Y24.269150 Z-0.125000 I-0.950063 J3.577896
G02 X20.235986 Y24.545356 Z-0.125000 I1.486502 J-3.530883
G02 X26.737048 Y25.118370 Z-0.125000 I15.210543 J-135.404297
G03 X32.665561 Y25.596478 Z-0.125000 I-11.514684 J179.777284
G03 X33.137370 Y25.741020 Z-0.125000 I-0.120074 J1.234239
G03 X33.785623 Y26.426084 Z-0.125000 I-0.725536 J1.335791
G03 X34.290215 Y28.174860 Z-0.125000 I-5.116232 J2.423425
G03 X34.392583 Y29.750683 Z-0.125000 I-14.367986 J1.724608
G03 X34.524995 Y51.008709 Z-0.125000 I-2622.444558 J26.964055
G01 X34.538935 Y57.416837 Z-0.125000
G01 X33.576313 Y57.408837 Z-0.125000
G03 X32.632104 Y57.356623 Z-0.125000 I0.083755 J-10.078038
G03 X32.513384 Y57.300167 Z-0.125000 I0.020007 J-0.195125
G03 X32.446834 Y57.183119 Z-0.125000 I0.179428 J-0.179460
G03 X32.325568 Y56.559976 Z-0.125000 I5.469086 J-1.387677
G02 X32.164483 Y55.951444 Z-0.125000 I-2.544699 J0.348022
G02 X31.894904 Y55.486816 Z-0.125000 I-1.735713 J0.696549
G01 X31.551750 Y55.053558 Z-0.125000
G01 X28.493575 Y55.053558 Z-0.125000
G01 X25.435401 Y55.053558 Z-0.125000
G01 X25.147254 Y54.777495 Z-0.125000
G02 X24.771835 Y54.516207 Z-0.125000 I-1.018584 J1.063159
G02 X22.885206 Y53.679025 Z-0.125000 I-13.096410 J26.968977
G02 X18.987658 Y52.503433 Z-0.125000 I-8.442719 J20.942168
G02 X17.007056 Y52.471079 Z-0.125000 I-1.076106 J5.236558
G03 X14.078738 Y52.688388 Z-0.125000 I-2.593198 J-15.105544
G03 X11.716528 Y52.355369 Z-0.125000 I0.221186 J-10.113399
G02 X9.768960 Y52.014428 Z-0.125000 I-2.975948 J11.266548
G02 X8.819301 Y52.098683 Z-0.125000 I-0.239114 J2.698920
G02 X8.412305 Y52.256803 Z-0.125000 I0.544741 J2.005008
G02 X7.821314 Y52.612942 Z-0.125000 I2.377864 J4.614347
G01 X7.250032 Y53.011234 Z-0.125000
G01 X7.164562 Y53.796040 Z-0.125000
G03 X7.071236 Y54.579639 Z-0.125000 I-38.993637 J-4.246729
G03 X7.033848 Y54.806840 Z-0.125000 I-3.310338 J-0.428071
G03 X6.893023 Y55.025435 Z-0.125000 I-0.348312 J-0.069733
G03 X5.546933 Y55.876853 Z-0.125000 I-7.784663 J-10.817746
G02 X5.154229 Y56.379722 Z-0.125000 I0.392427 J0.711228
G02 X4.967583 Y58.059940 Z-0.125000 I5.511952 J1.462769
G01 X5.021749 Y59.479408 Z-0.125000
G01 X4.564513 Y59.945301 Z-0.125000
G03 X4.090411 Y60.371011 Z-0.125000 I-3.605509 J-3.538514
G03 X3.974717 Y60.411193 Z-0.125000 I-0.115694 J-0.146464
G02 X3.863079 Y60.452671 Z-0.125000 I0.000000 J0.170974
G02 X3.609153 Y60.726347 Z-0.125000 I1.096912 J1.272390
G03 X3.353263 Y60.996110 Z-0.125000 I-1.224850 J-0.905614
G03 X3.226848 Y61.041500 Z-0.125000 I-0.126416 J-0.153346
G02 X2.654824 Y61.652756 Z-0.125000 I-0.000000 J0.573282
G02 X3.339359 Y62.736321 Z-0.125000 I1.340757 J-0.089007
G03 X3.460957 Y62.872897 Z-0.125000 I-0.136364 J0.243829
G03 X3.521361 Y63.174005 Z-0.125000 I-0.727870 J0.302629
G02 X3.564276 Y63.499313 Z-0.125000 I1.270326 J-0.002096
G02 X3.695015 Y63.825355 Z-0.125000 I1.409611 J-0.376004
G03 X3.800961 Y64.159160 Z-0.125000 I-0.793343 J0.435513
G03 X3.944519 Y66.031438 Z-0.125000 I-25.853523 J2.923983
G02 X4.070543 Y67.910071 Z-0.125000 I35.429873 J-1.433198
G02 X4.146536 Y68.184985 Z-0.125000 I0.810230 J-0.076007
G02 X4.320235 Y68.403941 Z-0.125000 I0.565644 J-0.270353
G02 X5.097359 Y68.946606 Z-0.125000 I4.507635 J-5.627386
G02 X5.954090 Y69.332713 Z-0.125000 I2.024107 J-3.347729
G02 X6.691401 Y69.444981 Z-0.125000 I0.735321 J-2.351911
G02 X7.874335 Y69.363011 Z-0.125000 I-0.007010 J-8.677775
G02 X11.280995 Y68.809624 Z-0.125000 I-10.080175 J-72.816188
G03 X13.002070 Y68.524554 Z-0.125000 I7.858002 J42.103755
G03 X13.276970 Y68.520653 Z-0.125000 I0.152416 J1.052766
G03 X13.446017 Y68.825341 Z-0.125000 I-0.024684 J0.212935
G03 X11.733795 Y71.778952 Z-0.125000 I-18.598125 J-8.808324
G02 X9.883828 Y74.496123 Z-0.125000 I126.565673 J88.159726
G02 X9.707073 Y74.825009 Z-0.125000 I1.656750 J1.102334
G02 X9.376416 Y76.447588 Z-0.125000 I3.874986 J1.634644
G02 X9.697933 Y78.007279 Z-0.125000 I3.889685 J0.011159
G02 X10.380556 Y78.756108 Z-0.125000 I1.435423 J-0.622963
G02 X11.992209 Y79.266313 Z-0.125000 I2.095327 J-3.818216
G02 X13.284351 Y79.194491 Z-0.125000 I0.432788 J-3.873029
G02 X14.384927 Y78.725380 Z-0.125000 I-0.734426 J-3.248612
G02 X16.226465 Y77.298057 Z-0.125000 I-8.469818 J-12.829436
G02 X17.256228 Y76.128752 Z-0.125000 I-4.611275 J-5.099066
G03 X17.559817 Y75.736873 Z-0.125000 I4.016695 J2.798198
G03 X18.203896 Y75.025713 Z-0.125000 I13.908828 J11.949627
G02 X18.847122 Y74.313097 Z-0.125000 I-12.473791 J-11.905780
G02 X19.466877 Y73.545652 Z-0.125000 I-13.849457 J-11.818178
G03 X20.518431 Y72.401441 Z-0.125000 I6.796088 J5.190444
G03 X21.763803 Y71.462702 Z-0.125000 I5.785442 J6.379765
G02 X22.781944 Y70.798911 Z-0.125000 I-14.236920 J-22.949713
G02 X23.480454 Y70.287626 Z-0.125000 I-7.737778 J-11.304020
G03 X24.170420 Y69.763792 Z-0.125000 I18.941265 J24.232093
G03 X24.561034 Y69.490969 Z-0.125000 I5.520897 J7.488504
G02 X25.147300 Y68.903416 Z-0.125000 I-1.138280 J-1.722055
G02 X25.438993 Y68.156395 Z-0.125000 I-1.609912 J-1.059090
G03 X25.537952 Y67.782837 Z-0.125000 I1.983255 J0.325494
G03 X25.610405 Y67.694376 Z-0.125000 I0.164938 J0.061190
G03 X25.725723 Y67.658555 Z-0.125000 I0.127146 J0.205789
G03 X28.511781 Y67.552362 Z-0.125000 I6.301633 J128.727529
G02 X31.292329 Y67.409127 Z-0.125000 I-1.570068 J-57.539041
G02 X31.700716 Y67.310644 Z-0.125000 I-0.099051 J-1.306736
G02 X32.085939 Y67.136579 Z-0.125000 I-3.057560 J-7.279983
G01 X32.107478 Y67.113570 Z-0.125000
G02 X32.114731 Y67.080763 Z-0.125000 I-0.094817 J-0.038167
G02 X32.186258 Y65.611225 Z-0.125000 I-191.996624 J-10.081618
G01 X32.252228 Y64.140509 Z-0.125000
G01 X33.355266 Y64.140509 Z-0.125000
G01 X34.458306 Y64.140509 Z-0.125000
G01 X34.485656 Y71.126422 Z-0.125000
G01 X34.513006 Y78.112332 Z-0.125000
G01 X34.183800 Y78.781868 Z-0.125000
G03 X33.811315 Y79.419887 Z-0.125000 I-4.669487 J-2.298375
G03 X33.449475 Y79.856135 Z-0.125000 I-2.520481 J-1.722393
G03 X32.565454 Y80.507238 Z-0.125000 I-2.587688 J-2.587693
G03 X30.256256 Y81.535829 Z-0.125000 I-9.031825 J-17.170169
G01 X29.310798 Y81.885079 Z-0.125000
G01 X25.417994 Y81.941959 Z-0.125000
G01 X21.525193 Y81.998839 Z-0.125000
G01 X20.718184 Y82.397907 Z-0.125000
G02 X18.240395 Y84.383757 Z-0.125000 I3.277901 J6.628631
G02 X16.548936 Y87.566557 Z-0.125000 I7.415765 J5.981868
G02 X16.398569 Y88.314376 Z-0.125000 I3.660586 J1.125076
G02 X16.261683 Y90.468305 Z-0.125000 I30.510213 J3.020293
G01 X16.200443 Y92.634693 Z-0.125000
G01 X16.692913 Y93.560437 Z-0.125000
G02 X18.317376 Y96.063990 Z-0.125000 I15.217189 J-8.095066
G02 X20.870314 Y98.917953 Z-0.125000 I22.377056 J-17.448000
G02 X24.004430 Y101.584975 Z-0.125000 I21.021791 J-21.528459
G02 X26.804117 Y103.304803 Z-0.125000 I11.402930 J-15.423993
G02 X31.212277 Y105.308483 Z-0.125000 I28.222855 J-56.240301
G02 X34.958190 Y106.638827 Z-0.125000 I16.049848 J-39.253372
G03 X38.178263 Y107.691420 Z-0.125000 I-22.784929 J75.154902
G03 X38.402914 Y107.847696 Z-0.125000 I-0.169694 J0.483549
G03 X38.468630 Y108.045425 Z-0.125000 I-0.220640 J0.183116
G03 X38.281277 Y110.231374 Z-0.125000 I-31.749250 J-1.620163
G03 X38.089052 Y111.297473 Z-0.125000 I-9.216035 J-1.111333
G03 X38.008785 Y111.360676 Z-0.125000 I-0.080267 J-0.019368
G02 X37.937810 Y111.426007 Z-0.125000 I0.000000 J0.071219
G02 X37.872479 Y113.003724 Z-0.125000 I19.017934 J1.577717
G02 X37.949604 Y114.629994 Z-0.125000 I17.184484 J0.000000
G02 X38.069710 Y115.078489 Z-0.125000 I1.391313 J-0.132262
G03 X38.246461 Y115.517770 Z-0.125000 I-4.682364 J2.139219
G03 X38.478007 Y116.245560 Z-0.125000 I-12.642902 J4.423056
G02 X40.062168 Y120.050302 Z-0.125000 I17.257712 J-4.953342
G02 X41.718057 Y122.043983 Z-0.125000 I6.197878 J-3.463257
G03 X42.193316 Y122.449213 Z-0.125000 I-16.811317 J20.197874
G03 X43.423223 Y123.533244 Z-0.125000 I-119.152125 J136.425838
G02 X45.811985 Y125.281851 Z-0.125000 I10.362310 J-11.649947
G02 X48.062457 Y126.294080 Z-0.125000 I5.540217 J-9.309645
G02 X49.182892 Y126.533769 Z-0.125000 I1.781842 J-5.590689
G02 X51.161465 Y126.645636 Z-0.125000 I1.978573 J-17.441363
G01 X53.157446 Y126.645636 Z-0.125000
G01 X53.840278 Y126.290846 Z-0.125000
G02 X54.512359 Y125.917988 Z-0.125000 I-6.488641 J-12.488010
G02 X55.100892 Y125.545750 Z-0.125000 I-5.877525 J-9.944122
G03 X55.681481 Y125.159819 Z-0.125000 I26.162704 J38.729074
G03 X55.960837 Y124.983324 Z-0.125000 I5.749245 J8.790584
G02 X56.209166 Y124.775177 Z-0.125000 I-0.564967 J-0.926239
G02 X56.740660 Y124.100126 Z-0.125000 I-5.719150 J-5.049669
G03 X57.242570 Y123.392357 Z-0.125000 I57.179132 J40.016357
G03 X57.318512 Y123.295897 Z-0.125000 I1.136085 J0.816308
G03 X57.412551 Y123.270908 Z-0.125000 I0.065266 J0.056170
G03 X58.272042 Y123.633963 Z-0.125000 I-2.645114 J7.460899
G02 X59.937785 Y124.195653 Z-0.125000 I2.925333 J-5.924543
G02 X62.349429 Y124.425770 Z-0.125000 I2.392258 J-12.318884
G02 X64.172402 Y124.327128 Z-0.125000 I-0.027381 J-17.400180
G02 X65.061045 Y124.135717 Z-0.125000 I-0.458497 J-4.287131
G02 X65.710721 Y123.733817 Z-0.125000 I-0.509954 J-1.550401
G02 X65.684700 Y123.506020 Z-0.125000 I-0.104455 J-0.103453
G02 X65.503117 Y123.461303 Z-0.125000 I-0.157972 J0.250439
G02 X64.798027 Y123.576960 Z-0.125000 I0.344629 J4.308050
G03 X63.240244 Y123.884836 Z-0.125000 I-3.842353 J-15.346466
G03 X62.132010 Y123.966033 Z-0.125000 I-1.118744 J-7.665863
G03 X61.585543 Y123.881878 Z-0.125000 I-0.002412 J-1.800683
G03 X61.323367 Y123.709730 Z-0.125000 I0.175061 J-0.552328
G02 X61.068142 Y123.504448 Z-0.125000 I-0.699126 J0.607916
G02 X60.647851 Y123.340987 Z-0.125000 I-0.841452 J1.541486
G03 X60.202852 Y123.207542 Z-0.125000 I1.132604 J-4.585570
G03 X59.040309 Y122.771371 Z-0.125000 I11.275707 J-31.820969
G02 X56.923279 Y122.041120 Z-0.125000 I-9.137216 J23.055392
G02 X56.732820 Y122.090329 Z-0.125000 I-0.054168 J0.183530
G02 X56.699181 Y122.131608 Z-0.125000 I0.201126 J0.198247
G02 X56.055353 Y123.103569 Z-0.125000 I112.449975 J75.186198
G03 X55.382215 Y124.036515 Z-0.125000 I-10.865229 J-7.130146
G03 X55.231900 Y124.144444 Z-0.125000 I-0.263687 J-0.208606
G02 X55.057744 Y124.228100 Z-0.125000 I0.314306 J0.877432
G02 X54.575636 Y124.548290 Z-0.125000 I4.382187 J7.121283
G03 X53.460143 Y125.205561 Z-0.125000 I-4.265064 J-5.963272
G03 X52.341681 Y125.611037 Z-0.125000 I-2.659148 J-5.589651
G03 X50.713764 Y125.818748 Z-0.125000 I-1.642876 J-6.392706
G03 X49.743275 Y125.616937 Z-0.125000 I-0.005458 J-2.408152
G01 X49.750260 Y125.547779 Z-0.125000
G03 X50.225494 Y125.513634 Z-0.125000 I0.359374 J1.677567
G02 X53.379959 Y124.888765 Z-0.125000 I0.417447 J-6.167263
G02 X55.733611 Y122.793544 Z-0.125000 I-2.628112 J-5.321862
G02 X56.078352 Y122.179545 Z-0.125000 I-4.682640 J-3.032934
G02 X56.257359 Y121.705016 Z-0.125000 I-2.608012 J-1.254850
G01 X56.395390 Y121.212000 Z-0.125000
G01 X56.853559 Y121.263640 Z-0.125000
G02 X57.179899 Y121.244096 Z-0.125000 I0.106935 J-0.948791
G01 X57.200806 Y121.181650 Z-0.125000
G02 X57.073234 Y121.070593 Z-0.125000 I-0.404216 J0.335527
G02 X56.773480 Y120.916946 Z-0.125000 I-1.096807 J1.770564
G02 X56.478407 Y120.884083 Z-0.125000 I-0.204298 J0.493224
G02 X56.250956 Y121.007106 Z-0.125000 I0.068862 J0.399087
G03 X55.888613 Y121.165108 Z-0.125000 I-0.363158 J-0.338347
G03 X55.731198 Y121.007951 Z-0.125000 I-0.000258 J-0.157157
G01 X55.764130 Y120.967019 Z-0.125000
G03 X55.850660 Y120.981771 Z-0.125000 I0.025043 J0.114261
G02 X55.957693 Y120.986614 Z-0.125000 I0.057862 J-0.093625
G02 X56.139555 Y120.837518 Z-0.125000 I-0.236926 J-0.474456
G03 X56.346048 Y120.716726 Z-0.125000 I0.254008 J0.197329
G03 X56.886761 Y120.725915 Z-0.125000 I0.242807 J1.625639
G03 X57.447539 Y120.880224 Z-0.125000 I-0.611536 J3.318523
G03 X58.072634 Y121.165260 Z-0.125000 I-1.635998 J4.415752
G01 X58.680727 Y121.498137 Z-0.125000
G01 X58.230211 Y121.609632 Z-0.125000
G01 X57.779696 Y121.721129 Z-0.125000
G01 X58.567579 Y122.161806 Z-0.125000
G02 X61.703042 Y123.118205 Z-0.125000 I3.769093 J-6.738755
G02 X64.846499 Y122.678820 Z-0.125000 I0.594037 J-7.214312
G02 X66.310329 Y121.924469 Z-0.125000 I-2.507341 J-6.663001
G02 X68.005837 Y120.555437 Z-0.125000 I-6.954047 J-10.346829
G02 X69.519275 Y118.881608 Z-0.125000 I-11.370524 J-11.802094
G02 X70.246115 Y117.705626 Z-0.125000 I-4.835706 J-3.801417
G02 X70.869015 Y116.081925 Z-0.125000 I-10.542298 J-4.975672
G02 X71.388642 Y113.899924 Z-0.125000 I-18.572662 J-5.575811
G01 X71.525485 Y113.130044 Z-0.125000
G01 X71.899203 Y113.200144 Z-0.125000
G03 X72.265455 Y113.291411 Z-0.125000 I-0.592501 J3.158185
G03 X72.482784 Y113.382576 Z-0.125000 I-0.373807 J1.195756
G03 X72.545167 Y113.485617 Z-0.125000 I-0.055740 J0.104151
G03 X72.484584 Y113.574580 Z-0.125000 I-0.094309 J0.000886
G03 X72.275620 Y113.651319 Z-0.125000 I-2.837466 J-7.403630
G03 X72.092801 Y113.712263 Z-0.125000 I-1.979201 J-5.632544
G02 X71.986556 Y113.827159 Z-0.125000 I0.047482 J0.150478
G02 X71.908957 Y114.506524 Z-0.125000 I2.935073 J0.679365
G03 X71.544213 Y116.343833 Z-0.125000 I-4.809865 J0.000000
G03 X70.494802 Y117.927867 Z-0.125000 I-4.573874 J-1.890527
G02 X70.110690 Y118.436962 Z-0.125000 I1.726538 J1.702123
G02 X69.917668 Y118.948894 Z-0.125000 I1.553473 J0.878088
G03 X69.751506 Y119.480915 Z-0.125000 I-2.840428 J-0.595171
G03 X69.489660 Y119.964431 Z-0.125000 I-2.604411 J-1.097748
G02 X69.248506 Y120.503490 Z-0.125000 I1.421055 J0.959196
G02 X69.327702 Y120.605194 Z-0.125000 I0.079196 J0.020017
G02 X69.660171 Y120.457430 Z-0.125000 I-0.000000 J-0.447910
G02 X69.807935 Y120.073245 Z-0.125000 I-0.425558 J-0.384185
G03 X69.861686 Y119.895674 Z-0.125000 I0.320183 J0.000000
G03 X70.135503 Y119.581753 Z-0.125000 I1.343153 J0.895182
G02 X70.426042 Y119.261662 Z-0.125000 I-1.308695 J-1.479773
G02 X70.944103 Y118.466660 Z-0.125000 I-7.704578 J-5.586969
G03 X71.600946 Y117.663993 Z-0.125000 I2.844943 J1.658000
G03 X71.851572 Y117.659716 Z-0.125000 I0.127802 J0.143722
G02 X71.950999 Y117.648917 Z-0.125000 I0.044479 J-0.053590
G02 X72.067394 Y117.382578 Z-0.125000 I-0.464099 J-0.361423
G03 X72.139714 Y116.982151 Z-0.125000 I12.284213 J2.011873
G03 X72.333490 Y116.035463 Z-0.125000 I68.962103 J13.622564
G02 X72.497496 Y115.087369 Z-0.125000 I-12.564559 J-2.661709
G02 X72.510257 Y114.722322 Z-0.125000 I-1.833521 J-0.246842
G01 X72.486757 Y114.354643 Z-0.125000
G01 X75.900928 Y114.301723 Z-0.125000
G02 X79.604268 Y113.889737 Z-0.125000 I-0.303450 J-19.578373
G02 X80.584714 Y113.322568 Z-0.125000 I-0.370241 J-1.771039
G02 X81.985968 Y111.359093 Z-0.125000 I-8.342744 J-7.435630
G02 X81.891893 Y110.994883 Z-0.125000 I-0.236928 J-0.133057
G03 X81.729627 Y110.672314 Z-0.125000 I0.181260 J-0.293280
G03 X82.049461 Y109.146739 Z-0.125000 I6.401800 J0.545813
G02 X82.574141 Y107.016448 Z-0.125000 I-11.983076 J-4.081129
G02 X82.760973 Y104.584871 Z-0.125000 I-15.454294 J-2.410409
G02 X82.684316 Y102.913983 Z-0.125000 I-18.780454 J0.024403
G02 X82.533161 Y102.070286 Z-0.125000 I-4.918566 J0.445813
G03 X82.378710 Y101.264629 Z-0.125000 I5.299483 J-1.433586
G03 X82.428562 Y101.161773 Z-0.125000 I0.105883 J-0.012191
G02 X82.484761 Y100.922427 Z-0.125000 I-0.091294 J-0.147707
G02 X81.717263 Y100.016924 Z-0.125000 I-3.438199 J2.136178
G02 X78.227956 Y97.712811 Z-0.125000 I-10.106086 J11.510342
G02 X76.554913 Y97.544289 Z-0.125000 I-1.070036 J2.234011
G03 X76.113683 Y97.493402 Z-0.125000 I-0.153165 J-0.610282
G03 X75.421281 Y96.960514 Z-0.125000 I1.114710 J-2.164663
G02 X75.195925 Y96.765387 Z-0.125000 I-0.903476 J0.815746
G02 X74.774870 Y96.526875 Z-0.125000 I-1.787445 J2.664537
G03 X74.158233 Y96.021926 Z-0.125000 I0.696267 J-1.479262
G03 X73.473800 Y94.773636 Z-0.125000 I4.188581 J-3.108365
G03 X73.251592 Y93.711515 Z-0.125000 I3.213061 J-1.226515
G03 X73.071278 Y86.362449 Z-0.125000 I157.670505 J-7.545286
G01 X73.064178 Y80.956285 Z-0.125000
G01 X73.477855 Y80.532103 Z-0.125000
G02 X74.266998 Y79.250665 Z-0.125000 I-2.458853 J-2.397933
G02 X74.557321 Y77.391859 Z-0.125000 I-5.076084 J-1.744898
G03 X74.594827 Y76.782275 Z-0.125000 I3.707714 J-0.077821
G03 X74.801007 Y75.711037 Z-0.125000 I11.673579 J1.691341
G02 X75.325425 Y73.177784 Z-0.125000 I-38.965880 J-9.387385
G02 X75.642382 Y70.863408 Z-0.125000 I-32.198024 J-5.588449
G03 X75.926075 Y69.989128 Z-0.125000 I2.159198 J0.217465
G03 X76.340831 Y69.663568 Z-0.125000 I0.617132 J0.359237
G02 X78.160706 Y68.749829 Z-0.125000 I-1.629960 J-5.515529
G02 X80.037672 Y66.892164 Z-0.125000 I-5.801901 J-7.739249
G01 X80.619940 Y66.131958 Z-0.125000
G01 X80.520720 Y65.188564 Z-0.125000
G03 X80.493374 Y62.354784 Z-0.125000 I14.834158 J-1.560171
G03 X80.988680 Y59.727971 Z-0.125000 I13.222960 J1.133188
G02 X81.391591 Y57.556896 Z-0.125000 I-10.223342 J-3.020184
G02 X81.368933 Y54.969286 Z-0.125000 I-14.593503 J-1.166120
G02 X80.804585 Y51.766543 Z-0.125000 I-20.992023 J2.047865
G02 X80.190899 Y50.386056 Z-0.125000 I-4.408581 J1.133155
G02 X79.322834 Y49.461263 Z-0.125000 I-3.148035 J2.085126
G02 X78.032403 Y48.751006 Z-0.125000 I-3.075117 J4.059637
G02 X76.475049 Y48.383011 Z-0.125000 I-2.231485 J5.964275
G02 X75.109789 Y48.439878 Z-0.125000 I-0.491508 J4.616849
G03 X74.480158 Y48.544148 Z-0.125000 I-2.374414 J-12.384673
G03 X73.879265 Y48.611866 Z-0.125000 I-1.573717 J-11.264473
G03 X73.346332 Y48.551864 Z-0.125000 I-0.116735 J-1.359904
G03 X73.170165 Y48.384879 Z-0.125000 I0.085297 J-0.266406
G03 X72.549685 Y45.012947 Z-0.125000 I8.883584 J-3.377752
G03 X73.159255 Y30.974710 Z-0.125000 I159.700833 J-0.097800
G03 X73.318532 Y30.088614 Z-0.125000 I4.964731 J0.435055
G03 X73.523343 Y29.650330 Z-0.125000 I1.387901 J0.381572
G03 X74.234448 Y28.948603 Z-0.125000 I2.220011 J1.538511
G03 X75.593717 Y28.255850 Z-0.125000 I3.518496 J5.223831
G03 X77.451830 Y27.764123 Z-0.125000 I3.616658 J9.909914
G03 X82.361206 Y27.111720 Z-0.125000 I11.674622 J69.054375
G02 X88.894384 Y25.853996 Z-0.125000 I-3.443929 J-35.486269
G02 X91.046016 Y24.580240 Z-0.125000 I-1.409211 J-4.834594
G02 X91.943854 Y23.366117 Z-0.125000 I-3.604787 J-3.604755
G02 X92.357807 Y22.109530 Z-0.125000 I-3.456205 J-1.835044
G03 X92.466038 Y21.726530 Z-0.125000 I1.552619 J0.231960
G03 X92.590195 Y21.563620 Z-0.125000 I0.382824 J0.162990
G02 X92.680175 Y21.388665 Z-0.125000 I-0.148318 J-0.186897
G02 X92.761286 Y18.149450 Z-0.125000 I-64.639559 J-3.239215
G02 X92.539304 Y14.122834 Z-0.125000 I-36.631105 J0.000000
G02 X92.067599 Y11.877110 Z-0.125000 I-11.788609 J1.303745
G02 X91.289721 Y10.140818 Z-0.125000 I-7.757649 J2.433118
G02 X90.710572 Y9.605380 Z-0.125000 I-1.199583 J0.716578
G02 X89.826378 Y9.272929 Z-0.125000 I-2.090943 J4.219085
G02 X85.593794 Y8.248730 Z-0.125000 I-25.655937 J96.767332
G03 X85.395859 Y8.142114 Z-0.125000 I0.087651 J-0.399768
G03 X84.922623 Y7.594830 Z-0.125000 I2.955874 J-3.034188
G02 X83.866766 Y6.297226 Z-0.125000 I-12.196349 J8.845761
G02 X83.656574 Y6.204340 Z-0.125000 I-0.210192 J0.191379
G03 X83.582283 Y6.184487 Z-0.125000 I0.000000 J-0.148926
G03 X82.923850 Y5.782580 Z-0.125000 I7.468349 J-12.975489
G02 X81.753086 Y5.235804 Z-0.125000 I-2.570400 J3.976958
G02 X79.507435 Y4.725550 Z-0.125000 I-4.445568 J14.368419
G02 X75.946547 Y4.366370 Z-0.125000 I-5.659228 J38.274430
G02 X68.621642 Y4.134290 Z-0.125000 I-8.798951 J162.002007
G02 X60.976955 Y4.206437 Z-0.125000 I-1.875720 J206.298667
G02 X60.642261 Y4.357370 Z-0.125000 I0.013318 J0.476093
G03 X60.508447 Y4.414670 Z-0.125000 I-0.131959 J-0.123267
G03 X60.253378 Y4.353370 Z-0.125000 I0.006024 J-0.586385
G02 X59.355274 Y4.105991 Z-0.125000 I-1.083209 J2.178603
G02 X51.476128 Y3.683640 Z-0.125000 I-13.281607 J174.068581
G02 X44.072364 Y3.559217 Z-0.125000 I-8.098904 J261.580802
G02 X41.135657 Y3.656140 Z-0.125000 I-0.109491 J41.220998
G01 X41.136156 Y3.656180 Z-0.125000
G00 Z5.000000

(End cutting path id: path1)


(Start cutting path id: path1)
(Change tool to Default tool)

G00 Z5.000000
G00 X37.137127 Y6.730960

G01 Z-0.125000 F100.0(Penetrate)
G03 X43.796344 Y7.223807 Z-0.125000 I-4.620462 J107.665727 F400.000000
G03 X45.086951 Y7.567650 Z-0.125000 I-0.451301 J4.287996
G03 X45.990539 Y8.145495 Z-0.125000 I-1.420946 J3.217364
G03 X46.684613 Y8.974670 Z-0.125000 I-2.362560 J2.682699
G03 X47.227251 Y10.662808 Z-0.125000 I-3.267995 J1.981751
G03 X47.017902 Y13.300210 Z-0.125000 I-8.483200 J0.653641
G03 X45.604719 Y16.664032 Z-0.125000 I-10.971929 J-2.630682
G03 X43.171213 Y19.434060 Z-0.125000 I-9.761481 J-6.121644
G03 X39.293438 Y21.381737 Z-0.125000 I-6.216709 J-7.543196
G03 X33.992532 Y21.696040 Z-0.125000 I-3.502442 J-14.212129
G03 X26.852699 Y19.857119 Z-0.125000 I3.523394 J-28.460091
G03 X22.245086 Y16.990550 Z-0.125000 I5.776497 J-14.421256
G02 X21.576688 Y16.412691 Z-0.125000 I-15.375111 J17.108602
G02 X21.010083 Y15.963630 Z-0.125000 I-9.840356 J11.834124
G03 X19.614852 Y14.345058 Z-0.125000 I3.050254 J-4.040001
G03 X18.750886 Y11.815980 Z-0.125000 I6.953438 J-3.787494
G03 X19.052385 Y9.395992 Z-0.125000 I4.302988 J-0.692679
G03 X20.421012 Y7.946970 Z-0.125000 I2.673012 J1.153850
G03 X22.235514 Y7.400109 Z-0.125000 I2.482866 J4.954510
G03 X30.361318 Y6.739300 Z-0.125000 I12.369719 J101.816435
G03 X33.908425 Y6.663774 Z-0.125000 I3.652296 J88.198492
G03 X37.137127 Y6.731300 Z-0.125000 I0.087060 J73.060351
G01 X37.137127 Y6.730960 Z-0.125000
G00 Z5.000000

(End cutting path id: path1)


(Start cutting path id: path1)
(Change tool to Default tool)

G00 Z5.000000
G00 X32.112572 Y12.404240

G01 Z-0.125000 F100.0(Penetrate)
G03 X40.347498 Y13.903666 Z-0.125000 I-2.441932 J36.774246 F400.000000
G03 X42.241075 Y15.469900 Z-0.125000 I-0.920246 J3.040363
G03 X42.328632 Y16.554412 Z-0.125000 I-1.231588 J0.645222
G03 X41.339177 Y18.178200 Z-0.125000 I-4.028955 J-1.341688
G03 X40.262680 Y18.978782 Z-0.125000 I-3.046298 J-2.972143
G03 X38.082586 Y19.878510 Z-0.125000 I-6.087551 J-11.659376
G03 X37.283391 Y20.046920 Z-0.125000 I-1.293400 J-4.157362
G03 X36.034088 Y20.112540 Z-0.125000 I-1.159423 J-10.148412
G03 X34.786086 Y20.013466 Z-0.125000 I0.080163 J-8.919651
G03 X33.429173 Y19.720140 Z-0.125000 I1.630179 J-10.826312
G03 X28.435957 Y17.926099 Z-0.125000 I10.571111 J-37.267390
G03 X24.688548 Y15.885080 Z-0.125000 I10.067164 J-22.944521
G03 X22.641916 Y14.296228 Z-0.125000 I9.388134 J-14.205622
G03 X22.560999 Y13.956840 Z-0.125000 I0.207342 J-0.228775
G03 X22.866854 Y13.628177 Z-0.125000 I0.560718 J0.215160
G03 X24.743493 Y12.934010 Z-0.125000 I5.062390 J10.802087
G03 X26.015193 Y12.664982 Z-0.125000 I2.807677 J10.131760
G03 X28.575446 Y12.368120 Z-0.125000 I6.038374 J40.888511
G03 X29.893453 Y12.319311 Z-0.125000 I1.175748 J13.929421
G03 X32.112572 Y12.404220 Z-0.125000 I-0.402659 J39.564673
G01 X32.112572 Y12.404240 Z-0.125000
G00 Z5.000000

(End cutting path id: path1)


(Start cutting path id: path1)
(Change tool to Default tool)

G00 Z5.000000
G00 X27.416449 Y11.252350

G01 Z-0.125000 F100.0(Penetrate)
G02 X22.632280 Y12.270557 Z-0.125000 I2.099678 J21.614188 F400.000000
G02 X21.377152 Y13.270900 Z-0.125000 I0.741165 J2.217512
G02 X21.161365 Y13.985061 Z-0.125000 I1.266955 J0.772497
G02 X21.320852 Y14.701790 Z-0.125000 I1.436279 J0.056508
G02 X22.290450 Y15.840397 Z-0.125000 I2.936619 J-1.518581
G02 X26.001682 Y18.166840 Z-0.125000 I16.873462 J-22.793829
G02 X31.826133 Y20.589916 Z-0.125000 I16.581602 J-31.646124
G02 X35.929029 Y21.301340 Z-0.125000 I4.687137 J-14.844731
G02 X37.923463 Y21.172347 Z-0.125000 I0.368171 J-9.790570
G02 X39.706059 Y20.665640 Z-0.125000 I-1.398673 J-8.309468
G02 X42.486337 Y18.742058 Z-0.125000 I-2.949019 J-7.233459
G02 X43.575082 Y16.491030 Z-0.125000 I-3.134101 J-2.904665
G02 X43.611279 Y15.767603 Z-0.125000 I-3.461763 J-0.535830
G02 X43.504762 Y15.180600 Z-0.125000 I-2.371652 J0.127192
G02 X41.392350 Y13.035048 Z-0.125000 I-3.156384 J0.994962
G02 X31.674447 Y11.247950 Z-0.125000 I-11.242959 J33.821492
G02 X28.752421 Y11.186794 Z-0.125000 I-2.858771 J66.753870
G02 X27.416438 Y11.251950 Z-0.125000 I0.013255 J14.001071
G01 X27.416449 Y11.252350 Z-0.125000
G00 Z5.000000

(End cutting path id: path1)


(Start cutting path id: path1)
(Change tool to Default tool)

G00 Z5.000000
G00 X17.642058 Y13.195550

G01 Z-0.125000 F100.0(Penetrate)
G02 X18.125994 Y14.465392 Z-0.125000 I5.588471 J-1.402628 F400.000000
G02 X18.992637 Y15.775210 Z-0.125000 I6.818213 J-3.569664
G02 X19.510111 Y16.320242 Z-0.125000 I3.999056 J-3.278683
G02 X19.823441 Y16.531670 Z-0.125000 I0.880598 J-0.967134
G03 X20.149875 Y16.731446 Z-0.125000 I-0.826388 J1.716904
G03 X20.949244 Y17.387120 Z-0.125000 I-8.415688 J11.075149
G02 X21.743225 Y18.032680 Z-0.125000 I8.170431 J-9.237849
G02 X21.871043 Y18.075120 Z-0.125000 I0.127818 J-0.171259
G03 X21.981924 Y18.123006 Z-0.125000 I0.000000 J0.152317
G03 X22.112348 Y18.331320 Z-0.125000 I-0.459206 J0.432491
G02 X22.827952 Y19.213390 Z-0.125000 I1.696455 J-0.644984
G02 X25.721187 Y20.649330 Z-0.125000 I7.931607 J-12.348455
G03 X26.366642 Y20.893324 Z-0.125000 I-10.768539 J29.462575
G03 X27.524934 Y21.353940 Z-0.125000 I-37.287100 J95.450910
G02 X30.350377 Y22.356745 Z-0.125000 I12.924994 J-31.934901
G02 X31.599225 Y22.603220 Z-0.125000 I1.820574 J-5.937446
G03 X32.857449 Y22.844390 Z-0.125000 I-0.607722 J6.573358
G03 X32.893217 Y22.984520 Z-0.125000 I-0.023780 J0.080700
G03 X32.487590 Y23.153764 Z-0.125000 I-0.408014 J-0.407180
G03 X23.848137 Y23.022020 Z-0.125000 I-0.922767 J-222.829632
G03 X19.591922 Y22.709980 Z-0.125000 I1.918056 J-55.345649
G03 X18.467383 Y22.418340 Z-0.125000 I0.457517 J-4.078022
G03 X17.722584 Y21.935547 Z-0.125000 I0.959217 J-2.295664
G03 X16.897643 Y20.942840 Z-0.125000 I3.603226 J-3.833405
G01 X16.547073 Y20.396370 Z-0.125000
G01 X16.548773 Y18.894330 Z-0.125000
G03 X16.681566 Y15.873609 Z-0.125000 I35.314167 J0.039159
G03 X16.963256 Y14.127740 Z-0.125000 I12.042966 J1.047430
G03 X17.412708 Y13.151057 Z-0.125000 I2.657406 J0.631135
G03 X17.642050 Y13.195580 Z-0.125000 I0.104255 J0.075917
G01 X17.642058 Y13.195550 Z-0.125000
G00 Z5.000000

(End cutting path id: path1)


(Start cutting path id: path1)
(Change tool to Default tool)

G00 Z5.000000
G00 X49.836076 Y6.933130

G01 Z-0.125000 F100.0(Penetrate)
G02 X50.056898 Y6.995872 Z-0.125000 I0.254190 J-0.474668 F400.000000
G02 X51.632516 Y7.044740 Z-0.125000 I1.575618 J-25.376124
G03 X53.563304 Y7.426781 Z-0.125000 I-0.000000 J5.069997
G03 X53.945335 Y7.997290 Z-0.125000 I-0.234970 J0.570509
G03 X53.864618 Y8.703281 Z-0.125000 I-3.127833 J0.000000
G03 X53.554705 Y9.683300 Z-0.125000 I-6.375814 J-1.477222
G02 X53.442853 Y10.070763 Z-0.125000 I1.800051 J0.729513
G02 X53.413685 Y10.471190 Z-0.125000 I1.897679 J0.339505
G03 X53.423827 Y11.042407 Z-0.125000 I-20.558504 J0.650721
G03 X53.423885 Y13.095650 Z-0.125000 I-267.550074 J1.034163
G02 X53.595177 Y14.349336 Z-0.125000 I4.556473 J0.015992
G02 X54.378107 Y16.475080 Z-0.125000 I14.025007 J-3.958483
G03 X54.661255 Y17.137902 Z-0.125000 I-12.145517 J5.580279
G03 X54.680694 Y17.239870 Z-0.125000 I-0.257719 J0.101968
G02 X54.944998 Y17.948852 Z-0.125000 I1.083056 J-0.000000
G02 X56.108568 Y18.888860 Z-0.125000 I3.200210 J-2.771161
G03 X56.308563 Y19.051419 Z-0.125000 I-0.345339 J0.629175
G03 X56.421709 Y19.254870 Z-0.125000 I-0.444673 J0.380485
G02 X57.063163 Y20.318374 Z-0.125000 I2.537634 J-0.805378
G02 X57.994682 Y20.850830 Z-0.125000 I1.415239 J-1.394865
G03 X58.211893 Y20.959409 Z-0.125000 I-0.137308 J0.546238
G03 X58.381090 Y21.163920 Z-0.125000 I-0.423010 J0.522212
G02 X58.900960 Y21.734177 Z-0.125000 I1.391463 J-0.746419
G02 X60.879261 Y22.817620 Z-0.125000 I7.446788 J-11.249530
G02 X61.790184 Y23.155933 Z-0.125000 I3.192024 J-7.199170
G02 X62.717664 Y23.373980 Z-0.125000 I2.192857 J-7.245897
G02 X65.669588 Y23.743466 Z-0.125000 I5.727973 J-33.785733
G02 X66.117389 Y23.650290 Z-0.125000 I0.065616 J-0.807303
G03 X66.303807 Y23.597843 Z-0.125000 I0.212098 J0.396353
G03 X67.709332 Y23.559290 Z-0.125000 I1.350867 J23.608879
G02 X69.515765 Y23.432426 Z-0.125000 I0.027759 J-12.529189
G02 X70.701010 Y23.130170 Z-0.125000 I-0.811085 J-5.655527
G03 X74.171065 Y21.957911 Z-0.125000 I20.536973 J55.070338
G03 X75.221578 Y21.758400 Z-0.125000 I1.454533 J4.793291
G02 X76.036713 Y21.592597 Z-0.125000 I-0.280629 J-3.466271
G02 X77.112499 Y21.130610 Z-0.125000 I-2.170768 J-6.538402
G02 X79.556988 Y19.589106 Z-0.125000 I-9.476119 J-17.736023
G02 X81.688484 Y17.762290 Z-0.125000 I-11.248549 J-15.281506
G02 X82.945036 Y16.399724 Z-0.125000 I-15.122623 J-15.206686
G02 X83.291769 Y15.865420 Z-0.125000 I-1.934233 J-1.634866
G02 X83.514960 Y15.224052 Z-0.125000 I-2.672061 J-1.289374
G02 X83.890523 Y13.190260 Z-0.125000 I-26.856491 J-6.010932
G03 X84.485721 Y11.606957 Z-0.125000 I3.930488 J0.574030
G03 X85.147572 Y11.246820 Z-0.125000 I0.661851 J0.428099
G03 X86.323691 Y11.405803 Z-0.125000 I-0.000000 J4.429822
G03 X88.047519 Y12.045430 Z-0.125000 I-2.822668 J10.249953
G03 X89.041504 Y12.780627 Z-0.125000 I-1.364504 J2.884339
G03 X89.396148 Y13.525410 Z-0.125000 I-1.050017 J0.956815
G02 X89.463226 Y13.924458 Z-0.125000 I12.066923 J-1.823222
G02 X89.606498 Y14.660990 Z-0.125000 I40.959542 J-7.585361
G03 X90.061634 Y18.400122 Z-0.125000 I-23.084441 J4.707161
G03 X89.841937 Y20.386280 Z-0.125000 I-6.624787 J0.272434
G03 X89.221885 Y21.976391 Z-0.125000 I-7.483393 J-2.002146
G03 X88.662705 Y22.639330 Z-0.125000 I-1.772321 J-0.927629
G03 X86.760862 Y23.515778 Z-0.125000 I-2.912660 J-3.818640
G03 X79.150443 Y24.687260 Z-0.125000 I-13.667353 J-63.482704
G02 X75.878509 Y25.165897 Z-0.125000 I2.975428 J31.762563
G02 X73.880336 Y25.739690 Z-0.125000 I2.469334 J12.365292
G02 X72.028750 Y26.822270 Z-0.125000 I2.286640 J6.035661
G02 X70.731844 Y28.370180 Z-0.125000 I3.668561 J4.390935
G01 X70.461182 Y28.842910 Z-0.125000
G01 X70.406732 Y38.455100 Z-0.125000
G03 X70.286094 Y48.056328 Z-0.125000 I-695.758944 J-3.940738
G03 X70.211492 Y48.487502 Z-0.125000 I-1.446017 J-0.028150
G03 X69.991188 Y48.824776 Z-0.125000 I-0.756265 J-0.253398
G03 X69.597964 Y49.044212 Z-0.125000 I-0.669726 J-0.738091
G02 X67.706137 Y49.721795 Z-0.125000 I4.440915 J15.378931
G02 X66.502077 Y50.377801 Z-0.125000 I2.948299 J6.844424
G02 X65.764941 Y51.141168 Z-0.125000 I1.405775 J2.095058
G02 X65.379495 Y52.184236 Z-0.125000 I2.353034 J1.462269
G03 X65.209316 Y52.874081 Z-0.125000 I-3.912240 J-0.599205
G03 X65.017793 Y53.234064 Z-0.125000 I-1.231304 J-0.424155
G02 X64.817606 Y53.585876 Z-0.125000 I1.257848 J0.948597
G02 X64.765603 Y53.850209 Z-0.125000 I0.645804 J0.264333
G03 X64.697714 Y54.102310 Z-0.125000 I-0.502023 J0.000000
G03 X64.410756 Y54.461254 Z-0.125000 I-1.344797 J-0.780922
G02 X63.850474 Y55.263218 Z-0.125000 I1.575127 J1.697141
G02 X63.435987 Y56.786559 Z-0.125000 I5.560665 J2.331065
G02 X63.342703 Y58.836368 Z-0.125000 I11.453357 J1.548254
G02 X63.566037 Y59.780516 Z-0.125000 I2.581390 J-0.112129
G03 X63.787894 Y60.369275 Z-0.125000 I-4.726198 J2.117114
G03 X63.908708 Y60.889894 Z-0.125000 I-3.570954 J1.102996
G02 X64.359245 Y62.083454 Z-0.125000 I3.103166 J-0.489550
G02 X65.154645 Y62.853524 Z-0.125000 I1.997602 J-1.267492
G03 X65.456004 Y63.093815 Z-0.125000 I-0.701525 J1.188930
G03 X65.562071 Y63.284264 Z-0.125000 I-0.320738 J0.303389
G02 X65.666191 Y63.477336 Z-0.125000 I0.453426 J-0.119913
G02 X65.953011 Y63.720608 Z-0.125000 I1.027307 J-0.920487
G03 X66.232679 Y63.970289 Z-0.125000 I-0.623402 J0.979741
G03 X66.377623 Y64.245864 Z-0.125000 I-0.622785 J0.503472
G02 X66.479597 Y64.557009 Z-0.125000 I5.584240 J-1.657883
G02 X66.547189 Y64.717929 Z-0.125000 I1.554996 J-0.558497
G02 X66.838385 Y65.017323 Z-0.125000 I0.595674 J-0.288056
G02 X67.438119 Y65.179698 Z-0.125000 I0.673841 J-1.300087
G03 X67.577368 Y65.267285 Z-0.125000 I-0.008531 J0.168047
G03 X67.672866 Y65.610863 Z-0.125000 I-0.694383 J0.378066
G02 X67.813936 Y66.986847 Z-0.125000 I11.812225 J-0.515800
G02 X67.924382 Y67.162719 Z-0.125000 I0.263180 J-0.042659
G02 X67.969964 Y67.193973 Z-0.125000 I1.804685 J-2.583156
G02 X68.411691 Y67.490598 Z-0.125000 I161.269561 J-239.681608
G03 X68.810720 Y67.926280 Z-0.125000 I-0.695053 J1.037150
G03 X69.126573 Y68.790952 Z-0.125000 I-2.656530 J1.460420
G02 X69.265229 Y69.077485 Z-0.125000 I0.623520 J-0.124912
G02 X69.540561 Y69.278846 Z-0.125000 I0.556925 J-0.472595
G03 X69.979485 Y69.731876 Z-0.125000 I-0.308281 J0.737825
G03 X70.228271 Y71.083141 Z-0.125000 I-3.545254 J1.351265
G03 X70.086473 Y72.963284 Z-0.125000 I-12.535611 J0.000000
G03 X69.639866 Y74.961839 Z-0.125000 I-14.619651 J-2.217803
G02 X69.365673 Y75.907703 Z-0.125000 I67.448007 J20.064960
G02 X69.254717 Y76.326092 Z-0.125000 I13.079116 J3.692450
G03 X68.839382 Y77.473260 Z-0.125000 I-5.698971 J-1.414558
G03 X68.599978 Y77.676501 Z-0.125000 I-0.350058 J-0.169722
G02 X68.290540 Y77.784192 Z-0.125000 I1.002623 J3.379324
G02 X68.005977 Y77.914722 Z-0.125000 I1.197823 J2.986781
G03 X67.719905 Y78.029710 Z-0.125000 I-0.736618 J-1.419241
G03 X67.513161 Y78.059439 Z-0.125000 I-0.206744 J-0.704019
G02 X67.177078 Y78.183468 Z-0.125000 I-0.000000 J0.517358
G02 X66.254259 Y79.135122 Z-0.125000 I4.601727 J5.385552
G02 X65.799721 Y80.283956 Z-0.125000 I1.632651 J1.310298
G02 X66.016462 Y82.208966 Z-0.125000 I5.131344 J0.396957
G03 X66.134631 Y82.632248 Z-0.125000 I-7.213012 J2.241816
G03 X66.224879 Y83.049377 Z-0.125000 I-6.887357 J1.708442
G02 X66.326655 Y83.461088 Z-0.125000 I3.507875 J-0.648721
G02 X66.427062 Y83.699039 Z-0.125000 I1.266907 J-0.394430
G03 X66.512064 Y83.938663 Z-0.125000 I-0.718560 J0.389783
G03 X66.554718 Y84.381874 Z-0.125000 I-2.467864 J0.461162
G02 X66.663612 Y84.782038 Z-0.125000 I0.809244 J-0.005316
G02 X67.017188 Y85.181054 Z-0.125000 I1.159564 J-0.671349
G02 X67.797191 Y85.568404 Z-0.125000 I1.427716 J-1.895962
G02 X68.945913 Y85.728182 Z-0.125000 I1.148722 J-4.049465
G03 X70.074789 Y85.900547 Z-0.125000 I-0.000000 J3.782869
G03 X70.366799 Y86.172441 Z-0.125000 I-0.137810 J0.440760
G03 X70.392929 Y86.310763 Z-0.125000 I-0.351945 J0.138114
G03 X70.364099 Y90.560541 Z-0.125000 I-340.945859 J-0.187939
G01 X70.309209 Y94.815118 Z-0.125000
G01 X70.769125 Y95.865632 Z-0.125000
G02 X71.770794 Y97.403008 Z-0.125000 I5.122914 J-2.242801
G02 X72.455379 Y97.704031 Z-0.125000 I0.684585 J-0.627930
G03 X73.069087 Y97.870862 Z-0.125000 I-0.000000 J1.212215
G03 X74.062335 Y98.647423 Z-0.125000 I-2.411839 J4.108305
G02 X75.095135 Y99.489236 Z-0.125000 I4.244868 J-4.153464
G02 X75.866464 Y99.807518 Z-0.125000 I1.259731 J-1.959082
G03 X76.372399 Y99.972960 Z-0.125000 I-0.533548 J2.487951
G03 X76.961723 Y100.297714 Z-0.125000 I-1.661264 J3.711753
G02 X77.547941 Y100.630620 Z-0.125000 I2.666334 J-4.012586
G02 X77.949236 Y100.770420 Z-0.125000 I0.826506 J-1.726622
G03 X78.352608 Y100.907933 Z-0.125000 I-0.453736 J1.991330
G03 X79.074612 Y101.290748 Z-0.125000 I-3.150888 J6.814968
G03 X79.688327 Y101.791352 Z-0.125000 I-1.440601 J2.392598
G03 X79.994700 Y102.289764 Z-0.125000 I-1.121068 J1.032488
G03 X80.375543 Y104.821180 Z-0.125000 I-5.786107 J2.164856
G03 X79.644154 Y108.187173 Z-0.125000 I-11.165517 J-0.663671
G03 X78.848950 Y110.001044 Z-0.125000 I-20.717003 J-8.001118
G03 X78.352041 Y110.809795 Z-0.125000 I-4.575566 J-2.254270
G02 X78.148995 Y111.154267 Z-0.125000 I1.437010 J1.079111
G02 X78.155286 Y111.249075 Z-0.125000 I0.092579 J0.041469
G03 X78.103816 Y111.500101 Z-0.125000 I-0.158975 J0.098194
G03 X77.548488 Y111.675852 Z-0.125000 I-0.555328 J-0.789473
G02 X77.365733 Y111.715339 Z-0.125000 I-0.000000 J0.442663
G02 X77.084972 Y111.885953 Z-0.125000 I0.564330 J1.244972
G03 X76.785781 Y112.003383 Z-0.125000 I-0.344589 J-0.438091
G03 X74.513995 Y112.096056 Z-0.125000 I-2.271786 J-27.799097
G03 X72.222526 Y112.046626 Z-0.125000 I-0.000000 J-53.138690
G03 X72.008021 Y111.987891 Z-0.125000 I0.021575 J-0.499856
G03 X71.712204 Y111.631439 Z-0.125000 I0.289786 J-0.541465
G03 X71.444526 Y110.204331 Z-0.125000 I5.754174 J-1.817950
G02 X71.344453 Y109.105004 Z-0.125000 I-21.166910 J1.372639
G02 X71.265852 Y108.681087 Z-0.125000 I-3.220615 J0.377904
G03 X71.159871 Y108.261422 Z-0.125000 I82.090244 J-20.953972
G03 X71.099212 Y108.014144 Z-0.125000 I29.051004 J-7.257538
G03 X71.097126 Y107.790076 Z-0.125000 I0.483552 J-0.116546
G03 X71.171572 Y107.685044 Z-0.125000 I0.161881 J0.035841
G02 X71.228440 Y107.575893 Z-0.125000 I-0.063248 J-0.102342
G02 X71.137962 Y107.092174 Z-0.125000 I-1.920259 J0.108856
G03 X71.018495 Y106.573948 Z-0.125000 I2.925759 J-0.947361
G03 X70.981618 Y105.982809 Z-0.125000 I3.778064 J-0.532407
G02 X70.912061 Y105.403372 Z-0.125000 I-2.178022 J-0.032438
G02 X70.662429 Y104.753744 Z-0.125000 I-2.986067 J0.774675
G02 X70.307448 Y104.141748 Z-0.125000 I-6.862919 J3.571811
G02 X70.097143 Y103.874460 Z-0.125000 I-1.503350 J0.966470
G03 X69.879953 Y103.611787 Z-0.125000 I1.737515 J-1.657782
G03 X69.662253 Y103.265132 Z-0.125000 I2.819617 J-2.012412
G02 X69.474306 Y103.030588 Z-0.125000 I-0.761481 J0.417620
G01 X69.413477 Y103.046342 Z-0.125000
G03 X69.337694 Y103.081074 Z-0.125000 I-0.054816 J-0.019563
G03 X69.086236 Y102.919982 Z-0.125000 I0.269116 J-0.696884
G03 X68.138205 Y101.986118 Z-0.125000 I67.518016 J-69.490395
G03 X67.518743 Y101.354561 Z-0.125000 I30.264548 J-30.304546
G02 X67.123036 Y101.001058 Z-0.125000 I-2.509968 J2.411408
G02 X67.003580 Y100.960620 Z-0.125000 I-0.119456 J0.156217
G03 X66.880984 Y100.923634 Z-0.125000 I-0.000000 J-0.221673
G03 X66.472666 Y100.608234 Z-0.125000 I1.991823 J-3.000630
G02 X65.545437 Y100.040101 Z-0.125000 I-2.027589 J2.268437
G02 X63.890693 Y99.606636 Z-0.125000 I-2.722770 J7.018916
G03 X63.078147 Y99.459826 Z-0.125000 I1.609562 J-11.230419
G03 X62.873348 Y99.384311 Z-0.125000 I0.169242 J-0.774454
G02 X62.479082 Y99.302115 Z-0.125000 I-0.336963 J0.629621
G02 X60.892922 Y99.543743 Z-0.125000 I0.909427 J11.296896
G02 X59.004167 Y100.122412 Z-0.125000 I2.891843 J12.810628
G02 X57.799997 Y100.752553 Z-0.125000 I2.262764 J5.789659
G02 X55.533674 Y102.768734 Z-0.125000 I6.266045 J9.325298
G02 X53.698338 Y105.540667 Z-0.125000 I10.248646 J8.779340
G03 X52.932293 Y106.895656 Z-0.125000 I-13.106749 J-6.515878
G03 X52.670999 Y107.151427 Z-0.125000 I-0.680965 J-0.434318
G02 X52.508495 Y107.324848 Z-0.125000 I0.230233 J0.378588
G02 X52.541578 Y107.399173 Z-0.125000 I0.046020 J0.024041
G01 X52.548885 Y107.429209 Z-0.125000
G03 X52.474268 Y107.459303 Z-0.125000 I-0.079076 J-0.088516
G03 X51.694981 Y107.317931 Z-0.125000 I-0.069100 J-1.837626
G03 X51.270303 Y106.955222 Z-0.125000 I0.353128 J-0.843431
G02 X51.102664 Y106.775271 Z-0.125000 I-0.535483 J0.330785
G02 X50.166211 Y106.159987 Z-0.125000 I-7.640913 J10.609084
G03 X49.997938 Y106.043067 Z-0.125000 I0.764348 J-1.279609
G03 X49.806052 Y105.871096 Z-0.125000 I1.474891 J-1.838731
G02 X49.606765 Y105.726808 Z-0.125000 I-0.550394 J0.550421
G02 X49.443623 Y105.687924 Z-0.125000 I-0.163142 J0.322797
G03 X49.283681 Y105.645962 Z-0.125000 I-0.000000 J-0.325794
G03 X49.097263 Y105.492753 Z-0.125000 I0.340636 J-0.604490
G02 X48.900334 Y105.340595 Z-0.125000 I-0.464654 J0.397857
G02 X47.997144 Y104.957256 Z-0.125000 I-4.161820 J8.550048
G02 X45.558626 Y104.408926 Z-0.125000 I-3.339745 J9.156001
G02 X43.398001 Y104.530142 Z-0.125000 I-0.675588 J7.274662
G02 X42.625851 Y104.845771 Z-0.125000 I0.465000 J2.239871
G02 X40.724848 Y106.248789 Z-0.125000 I9.924780 J15.436844
G03 X40.230044 Y106.528230 Z-0.125000 I-0.989418 J-1.174161
G03 X39.594570 Y106.633385 Z-0.125000 I-0.635474 J-1.867572
G03 X38.935779 Y106.548351 Z-0.125000 I0.000000 J-2.594473
G03 X37.214590 Y106.008580 Z-0.125000 I4.858183 J-18.505572
G03 X34.347723 Y104.858742 Z-0.125000 I17.481387 J-47.734860
G03 X31.935886 Y103.702850 Z-0.125000 I15.255099 J-34.924820
G03 X24.689745 Y98.951594 Z-0.125000 I20.452468 J-39.093232
G03 X20.643732 Y94.595133 Z-0.125000 I13.040800 J-16.168569
G03 X20.042636 Y93.491009 Z-0.125000 I4.872248 J-3.368182
G03 X19.004636 Y90.632630 Z-0.125000 I32.027411 J-13.248191
G03 X18.956985 Y89.755321 Z-0.125000 I1.692741 J-0.531889
G03 X19.501345 Y88.129991 Z-0.125000 I6.623851 J1.314653
G03 X20.951876 Y85.912505 Z-0.125000 I9.283043 J4.489182
G03 X22.320943 Y84.837072 Z-0.125000 I3.381065 J2.895071
G01 X22.861546 Y84.563127 Z-0.125000
G01 X25.928427 Y84.594127 Z-0.125000
G02 X28.988147 Y84.549065 Z-0.125000 I0.622813 J-61.611189
G02 X29.940767 Y84.435392 Z-0.125000 I-0.239786 J-6.057976
G02 X34.544426 Y82.712100 Z-0.125000 I-3.033142 J-15.113668
G02 X36.483321 Y80.704042 Z-0.125000 I-2.462525 J-4.317795
G02 X36.794793 Y79.495920 Z-0.125000 I-2.413177 J-1.266366
G02 X37.082333 Y52.681984 Z-0.125000 I-1258.666967 J-26.905851
G01 X37.084233 Y26.411590 Z-0.125000
G01 X36.769081 Y25.958800 Z-0.125000
G03 X36.191836 Y24.946517 Z-0.125000 I5.333147 J-3.711906
G03 X36.086799 Y24.465050 Z-0.125000 I1.056967 J-0.482779
G03 X36.160839 Y24.001287 Z-0.125000 I1.477802 J-0.001860
G03 X36.352315 Y23.657930 Z-0.125000 I0.984495 J0.323945
G03 X36.811406 Y23.342170 Z-0.125000 I0.802652 J0.675372
G03 X38.199121 Y23.017770 Z-0.125000 I2.247363 J6.483377
G02 X39.725707 Y22.721914 Z-0.125000 I-1.481309 J-11.729834
G02 X41.222520 Y22.222420 Z-0.125000 I-3.097534 J-11.774721
G03 X42.100273 Y21.910422 Z-0.125000 I3.871603 J9.501395
G03 X42.202021 Y21.923590 Z-0.125000 I0.036319 J0.119049
G02 X42.295103 Y21.930102 Z-0.125000 I0.052748 J-0.085461
G02 X42.528417 Y21.780390 Z-0.125000 I-0.355535 J-0.810727
G03 X42.769207 Y21.593723 Z-0.125000 I1.484190 J1.665881
G03 X43.254066 Y21.293350 Z-0.125000 I4.356971 J6.491474
G02 X43.717701 Y20.977432 Z-0.125000 I-1.738635 J-3.049756
G02 X43.861220 Y20.804260 Z-0.125000 I-0.353988 J-0.439432
G03 X44.002202 Y20.629940 Z-0.125000 I0.527232 J0.282231
G03 X44.309625 Y20.424930 Z-0.125000 I1.048692 J1.239565
G02 X44.627669 Y20.222306 Z-0.125000 I-0.926740 J-1.805552
G02 X45.257959 Y19.688480 Z-0.125000 I-5.971382 J-7.689436
G03 X45.879680 Y19.155543 Z-0.125000 I7.602358 J8.239751
G03 X45.965285 Y19.125640 Z-0.125000 I0.085605 J0.107581
G02 X46.038815 Y19.087063 Z-0.125000 I0.000000 J-0.089365
G02 X46.330755 Y18.596410 Z-0.125000 I-3.470307 J-2.397020
G03 X46.644038 Y18.114200 Z-0.125000 I2.399183 J1.215831
G03 X46.857466 Y17.949390 Z-0.125000 I0.458684 J0.373395
G02 X47.164162 Y17.633786 Z-0.125000 I-0.250860 J-0.550601
G02 X47.326143 Y16.837410 Z-0.125000 I-1.901406 J-0.801402
G03 X47.449686 Y16.283359 Z-0.125000 I1.315962 J0.002635
G03 X47.928657 Y15.546270 Z-0.125000 I2.864918 J1.337500
G02 X48.478963 Y14.438798 Z-0.125000 I-1.853203 J-1.611323
G02 X48.795369 Y11.411780 Z-0.125000 I-14.557438 J-3.051694
G02 X48.727365 Y10.169372 Z-0.125000 I-11.014873 J-0.020164
G02 X48.578580 Y9.468330 Z-0.125000 I-3.641885 J0.406625
G02 X48.302062 Y8.763424 Z-0.125000 I-5.408784 J1.715048
G02 X47.955918 Y8.147780 Z-0.125000 I-4.465258 J2.105448
G03 X47.750590 Y7.448757 Z-0.125000 I1.034829 J-0.683634
G03 X47.971078 Y6.925640 Z-0.125000 I0.752971 J0.009344
G03 X48.228365 Y6.791978 Z-0.125000 I0.339990 J0.339991
G03 X48.911182 Y6.761500 Z-0.125000 I0.459573 J2.632062
G03 X49.616840 Y6.856340 Z-0.125000 I-0.594955 J7.099401
G03 X49.835678 Y6.933130 Z-0.125000 I-0.138113 J0.743819
G01 X49.836076 Y6.933130 Z-0.125000
G00 Z5.000000

(End cutting path id: path1)


(Start cutting path id: path1)
(Change tool to Default tool)

G00 Z5.000000
G00 X53.724290 Y5.475680

G01 Z-0.125000 F100.0(Penetrate)
G03 X55.717335 Y5.720577 Z-0.125000 I-1.067362 J16.918963 F400.000000
G03 X55.836255 Y5.863310 Z-0.125000 I-0.026198 J0.142733
G03 X55.759498 Y5.944672 Z-0.125000 I-0.081500 J0.000000
G03 X54.234221 Y5.956710 Z-0.125000 I-0.882119 J-15.132723
G02 X52.631732 Y5.904549 Z-0.125000 I-3.440359 J81.052011
G02 X47.799835 Y5.810970 Z-0.125000 I-16.627538 J733.764013
G03 X44.523665 Y5.753770 Z-0.125000 I18.846671 J-1173.301078
G03 X44.022931 Y5.735413 Z-0.125000 I0.265513 J-14.080991
G01 X44.022989 Y5.715286 Z-0.125000
G03 X45.206297 Y5.669710 Z-0.125000 I2.845941 J58.506597
G02 X47.409270 Y5.525314 Z-0.125000 I-0.845143 J-29.770857
G02 X47.622482 Y5.421130 Z-0.125000 I-0.035222 J-0.342343
G03 X47.835615 Y5.323858 Z-0.125000 I0.228924 J0.219462
G03 X49.953383 Y5.304910 Z-0.125000 I1.290588 J25.887157
G03 X52.106252 Y5.388026 Z-0.125000 I-5.139902 J161.057748
G03 X53.724290 Y5.475710 Z-0.125000 I-4.135862 J91.291608
G01 X53.724290 Y5.475680 Z-0.125000
G00 Z5.000000

(End cutting path id: path1)


(Start cutting path id: path1)
(Change tool to Default tool)

G00 Z5.000000
G00 X58.765316 Y5.889820

G01 Z-0.125000 F100.0(Penetrate)
G03 X57.659259 Y6.249776 Z-0.125000 I-1.380367 J-2.362235 F400.000000
G03 X57.412022 Y6.026200 Z-0.125000 I-0.022529 J-0.223576
G03 X57.516090 Y5.888033 Z-0.125000 I0.143754 J-0.000000
G03 X58.243679 Y5.787320 Z-0.125000 I0.715637 J2.491486
G03 X58.756639 Y5.838406 Z-0.125000 I-0.011179 J2.713128
G01 X58.765316 Y5.889820 Z-0.125000
G01 X58.765316 Y5.889820 Z-0.125000
G00 Z5.000000

(End cutting path id: path1)


(Start cutting path id: path1)
(Change tool to Default tool)

G00 Z5.000000
G00 X67.707051 Y11.149180

G01 Z-0.125000 F100.0(Penetrate)
G02 X63.977404 Y11.686573 Z-0.125000 I2.605345 J31.292847 F400.000000
G02 X61.170567 Y12.495550 Z-0.125000 I3.807139 J18.483099
G02 X59.138759 Y13.592694 Z-0.125000 I2.962514 J7.916233
G02 X58.220436 Y14.656240 Z-0.125000 I1.849393 J2.525102
G02 X57.961560 Y15.720566 Z-0.125000 I1.978761 J1.044940
G02 X58.242606 Y17.217840 Z-0.125000 I4.328690 J-0.037503
G02 X59.842681 Y19.264755 Z-0.125000 I4.096641 J-1.553500
G02 X63.585714 Y20.922800 Z-0.125000 I6.198514 J-8.939165
G02 X67.871125 Y20.920925 Z-0.125000 I2.138667 J-9.229819
G02 X75.858092 Y18.067820 Z-0.125000 I-8.408514 J-36.144645
G02 X79.860223 Y15.674105 Z-0.125000 I-12.667106 J-25.721051
G02 X81.005456 Y14.389610 Z-0.125000 I-2.269964 J-3.176643
G02 X81.109778 Y13.479931 Z-0.125000 I-1.048807 J-0.581098
G02 X80.485193 Y12.563830 Z-0.125000 I-1.690782 J0.481784
G02 X78.899378 Y11.777700 Z-0.125000 I-2.821554 J3.699207
G02 X75.343771 Y11.147350 Z-0.125000 I-5.143300 J18.668539
G02 X71.513778 Y10.990501 Z-0.125000 I-3.819426 J46.424682
G02 X67.707016 Y11.149350 Z-0.125000 I0.010422 J45.943136
G01 X67.707051 Y11.149180 Z-0.125000
G00 Z5.000000

(End cutting path id: path1)


(Start cutting path id: path1)
(Change tool to Default tool)

G00 Z5.000000
G00 X73.117194 Y6.838030

G01 Z-0.125000 F100.0(Penetrate)
G03 X79.217484 Y7.431039 Z-0.125000 I-4.876588 J81.838906 F400.000000
G03 X80.785306 Y7.874040 Z-0.125000 I-0.775629 J5.740859
G03 X81.613972 Y8.455754 Z-0.125000 I-1.053862 J2.382335
G03 X82.294429 Y9.451830 Z-0.125000 I-2.672228 J2.555962
G03 X82.620724 Y11.835915 Z-0.125000 I-3.697968 J1.720490
G03 X81.374891 Y15.028170 Z-0.125000 I-8.160984 J-1.345734
G03 X77.892353 Y18.349088 Z-0.125000 I-8.884238 J-5.830139
G03 X70.532950 Y21.427970 Z-0.125000 I-14.845313 J-25.149544
G03 X68.101230 Y21.900354 Z-0.125000 I-4.717478 J-17.789282
G03 X65.426947 Y22.067070 Z-0.125000 I-2.674283 J-21.365722
G03 X63.399997 Y21.971467 Z-0.125000 I0.000000 J-21.535256
G03 X62.578062 Y21.797780 Z-0.125000 I0.347587 J-3.676535
G03 X57.806190 Y18.703535 Z-0.125000 I3.598953 J-10.776877
G03 X55.038830 Y13.583200 Z-0.125000 I8.767038 J-8.046272
G03 X55.186188 Y9.686349 Z-0.125000 I6.693989 J-1.698080
G03 X57.044344 Y7.612000 Z-0.125000 I3.338760 J1.121366
G03 X58.355517 Y7.227143 Z-0.125000 I1.942820 J4.193059
G03 X62.927216 Y6.800280 Z-0.125000 I7.132257 J51.691569
G03 X68.164289 Y6.681393 Z-0.125000 I4.869797 J99.110088
G03 X73.117194 Y6.838080 Z-0.125000 I-0.328460 J88.741866
G01 X73.117194 Y6.838030 Z-0.125000
G00 Z5.000000

(End cutting path id: path1)


(Start cutting path id: path1)
(Change tool to Default tool)

G00 Z5.000000
G00 X76.294268 Y12.446410

G01 Z-0.125000 F100.0(Penetrate)
G03 X79.487313 Y13.366070 Z-0.125000 I-3.464993 J18.033327 F400.000000
G03 X79.787950 Y13.805620 Z-0.125000 I-0.171006 J0.439550
G03 X79.457836 Y14.427740 Z-0.125000 I-0.751269 J-0.000000
G03 X75.178736 Y16.925920 Z-0.125000 I-20.846887 J-30.794468
G03 X68.135647 Y19.640128 Z-0.125000 I-17.928444 J-36.027311
G03 X64.709263 Y19.867560 Z-0.125000 I-2.252979 J-8.018465
G03 X61.567834 Y18.877773 Z-0.125000 I1.422123 J-9.993691
G03 X59.847460 Y17.403390 Z-0.125000 I2.159490 J-4.260683
G03 X59.585038 Y15.612897 Z-0.125000 I1.599904 J-1.148966
G03 X61.036296 Y13.952230 Z-0.125000 I2.766137 J0.952868
G03 X63.101669 Y13.183445 Z-0.125000 I4.519784 J8.983838
G03 X67.391898 Y12.352760 Z-0.125000 I9.649418 J38.342054
G03 X72.297257 Y12.044687 Z-0.125000 I4.551951 J33.272093
G03 X76.294268 Y12.446360 Z-0.125000 I-0.236141 J22.437609
G01 X76.294268 Y12.446410 Z-0.125000
G00 Z5.000000

(End cutting path id: path1)


(Start cutting path id: path1)
(Change tool to Default tool)

G00 Z5.000000
G00 X78.135385 Y25.602670

G01 Z-0.125000 F100.0(Penetrate)
G03 X78.004372 Y25.629017 Z-0.125000 I-0.135393 J-0.334345 F400.000000
G03 X77.820232 Y25.606670 Z-0.125000 I-0.008498 J-0.699815
G01 X77.818543 Y25.580696 Z-0.125000
G03 X77.949546 Y25.554370 Z-0.125000 I0.135376 J0.334546
G03 X78.133710 Y25.576850 Z-0.125000 I0.008071 J0.699496
G01 X78.135385 Y25.602770 Z-0.125000
G01 X78.135385 Y25.602670 Z-0.125000
G00 Z5.000000

(End cutting path id: path1)


(Start cutting path id: path1)
(Change tool to Default tool)

G00 Z5.000000
G00 X76.502907 Y25.912390

G01 Z-0.125000 F100.0(Penetrate)
G03 X76.432745 Y25.943138 Z-0.125000 I-0.074510 J-0.074595 F400.000000
G03 X76.301557 Y25.920390 Z-0.125000 I-0.012989 J-0.314741
G01 X76.294844 Y25.887698 Z-0.125000
G03 X76.365057 Y25.856890 Z-0.125000 I0.074606 J0.074616
G03 X76.496203 Y25.879507 Z-0.125000 I0.011694 J0.323726
G01 X76.502938 Y25.912090 Z-0.125000
G01 X76.502907 Y25.912390 Z-0.125000
G00 Z5.000000

(End cutting path id: path1)


(Start cutting path id: path1)
(Change tool to Default tool)

G00 Z5.000000
G00 X73.012143 Y27.239750

G01 Z-0.125000 F100.0(Penetrate)
G02 X72.393490 Y27.766853 Z-0.125000 I3.057633 J4.215305 F400.000000
G02 X71.667291 Y28.580250 Z-0.125000 I6.617593 J6.639042
G03 X71.525384 Y28.707496 Z-0.125000 I-0.443397 J-0.351731
G01 X71.500394 Y28.685300 Z-0.125000
G03 X72.493252 Y27.298086 Z-0.125000 I4.358600 J2.070629
G03 X73.222236 Y27.009290 Z-0.125000 I0.711129 J0.730588
G01 X73.235508 Y27.039981 Z-0.125000
G03 X73.012143 Y27.239750 Z-0.125000 I-1.087583 J-0.991283
G01 X73.012143 Y27.239750 Z-0.125000
G00 Z5.000000

(End cutting path id: path1)


(Start cutting path id: path1)
(Change tool to Default tool)

G00 Z5.000000
G00 X81.048563 Y25.323670

G01 Z-0.125000 F100.0(Penetrate)
G03 X80.781122 Y25.375902 Z-0.125000 I-0.355337 J-1.108622 F400.000000
G03 X80.050578 Y25.399270 Z-0.125000 I-0.633106 J-8.361431
G01 X79.315211 Y25.390270 Z-0.125000
G01 X80.103103 Y25.323070 Z-0.125000
G03 X81.042319 Y25.283094 Z-0.125000 I0.939216 J11.013314
G01 X81.048563 Y25.323070 Z-0.125000
G01 X81.048563 Y25.323670 Z-0.125000
G00 Z5.000000

(End cutting path id: path1)


(Start cutting path id: path1)
(Change tool to Default tool)

G00 Z5.000000
G00 X82.387970 Y25.185970

G01 Z-0.125000 F100.0(Penetrate)
G03 X82.204126 Y25.209574 Z-0.125000 I-0.183844 J-0.704136 F400.000000
G03 X82.020282 Y25.185970 Z-0.125000 I-0.000000 J-0.727741
G01 X82.020274 Y25.161538 Z-0.125000
G03 X82.204126 Y25.137870 Z-0.125000 I0.183852 J0.702243
G03 X82.387963 Y25.161508 Z-0.125000 I-0.000000 J0.726674
G01 X82.387970 Y25.185970 Z-0.125000
G01 X82.387970 Y25.185970 Z-0.125000
G00 Z5.000000

(End cutting path id: path1)


(Start cutting path id: path1)
(Change tool to Default tool)

G00 Z5.000000
G00 X83.703104 Y25.077410

G01 Z-0.125000 F100.0(Penetrate)
G03 X83.572091 Y25.103757 Z-0.125000 I-0.135393 J-0.334345 F400.000000
G03 X83.387951 Y25.081410 Z-0.125000 I-0.008498 J-0.699815
G01 X83.386262 Y25.055436 Z-0.125000
G03 X83.517265 Y25.029110 Z-0.125000 I0.135376 J0.334546
G03 X83.701429 Y25.051590 Z-0.125000 I0.008071 J0.699496
G01 X83.703104 Y25.077510 Z-0.125000
G01 X83.703104 Y25.077410 Z-0.125000
G00 Z5.000000

(End cutting path id: path1)


(Start cutting path id: path1)
(Change tool to Default tool)

G00 Z5.000000
G00 X85.880916 Y24.693350

G01 Z-0.125000 F100.0(Penetrate)
G03 X85.615062 Y24.756835 Z-0.125000 I-0.550960 J-1.718852 F400.000000
G03 X85.355669 Y24.777450 Z-0.125000 I-0.259393 J-1.621593
G01 X85.093041 Y24.777450 Z-0.125000
G01 X85.355669 Y24.693350 Z-0.125000
G03 X85.621521 Y24.629866 Z-0.125000 I0.550952 J1.718817
G03 X85.880916 Y24.609250 Z-0.125000 I0.259395 J1.621604
G01 X86.143552 Y24.609250 Z-0.125000
G01 X85.880916 Y24.693350 Z-0.125000
G00 Z5.000000

(End cutting path id: path1)


(Start cutting path id: path1)
(Change tool to Default tool)

G00 Z5.000000
G00 X86.721333 Y24.424520

G01 Z-0.125000 F100.0(Penetrate)
G03 X86.706248 Y24.462483 Z-0.125000 I-0.055313 J0.000000 F400.000000
G03 X86.616282 Y24.535770 Z-0.125000 I-0.323603 J-0.305388
G03 X86.544657 Y24.540725 Z-0.125000 I-0.040524 J-0.065633
G03 X86.511231 Y24.489470 Z-0.125000 I0.022583 J-0.051255
G03 X86.542880 Y24.409861 Z-0.125000 I0.115947 J0.000000
G03 X86.616282 Y24.378220 Z-0.125000 I0.073402 J0.069319
G03 X86.703023 Y24.396459 Z-0.125000 I0.000000 J0.215377
G01 X86.721333 Y24.424520 Z-0.125000
G01 X86.721333 Y24.424520 Z-0.125000
G00 Z5.000000

(End cutting path id: path1)


(Start cutting path id: path1)
(Change tool to Default tool)

G00 Z5.000000
G00 X89.939289 Y22.695220

G01 Z-0.125000 F100.0(Penetrate)
G03 X89.175609 Y23.461210 Z-0.125000 I-2.278159 J-1.507604 F400.000000
G03 X87.629583 Y24.233750 Z-0.125000 I-3.866592 J-5.804680
G01 X87.604640 Y24.183320 Z-0.125000
G03 X88.133822 Y23.903780 Z-0.125000 I1.755900 J2.683350
G02 X88.818342 Y23.534173 Z-0.125000 I-1.452755 J-3.509212
G02 X89.473219 Y22.991980 Z-0.125000 I-2.552534 J-3.749612
G02 X90.031776 Y22.359657 Z-0.125000 I-4.825676 J-4.825575
G02 X90.091270 Y22.198380 Z-0.125000 I-0.223494 J-0.174058
G03 X90.121165 Y22.141796 Z-0.125000 I0.074848 J0.003355
G01 X90.154320 Y22.151080 Z-0.125000
G03 X90.154627 Y22.282059 Z-0.125000 I-0.164578 J0.065875
G03 X89.939323 Y22.695210 Z-0.125000 I-2.080119 J-0.821327
G01 X89.939289 Y22.695220 Z-0.125000
G00 Z5.000000

(End cutting path id: path1)


(Start cutting path id: path1)
(Change tool to Default tool)

G00 Z5.000000
G00 X90.421029 Y21.665990

G01 Z-0.125000 F100.0(Penetrate)
G01 X90.380282 Y21.653895 Z-0.125000 F400.000000
G03 X90.379699 Y21.470990 Z-0.125000 I0.439305 J-0.092855
G03 X90.440918 Y21.357085 Z-0.125000 I0.219918 J0.044792
G01 X90.481558 Y21.369130 Z-0.125000
G03 X90.482308 Y21.552063 Z-0.125000 I-0.440692 J0.093275
G03 X90.421078 Y21.665990 Z-0.125000 I-0.219586 J-0.044599
G01 X90.421029 Y21.665990 Z-0.125000
G00 Z5.000000

(End cutting path id: path1)


(Start cutting path id: path1)
(Change tool to Default tool)

G00 Z5.000000
G00 X72.599476 Y49.954579

G01 Z-0.125000 F100.0(Penetrate)
G03 X72.950135 Y50.138174 Z-0.125000 I-0.883528 J2.114176 F400.000000
G03 X73.421067 Y50.479835 Z-0.125000 I-2.664880 J4.168549
G02 X74.171578 Y50.716655 Z-0.125000 I0.671014 J-0.818885
G02 X74.767869 Y50.378411 Z-0.125000 I-0.060322 J-0.801066
G03 X75.129199 Y49.960546 Z-0.125000 I2.284721 J1.610452
G03 X75.264703 Y49.907286 Z-0.125000 I0.133591 J0.140879
G03 X75.322863 Y49.940266 Z-0.125000 I-0.000583 J0.068800
G01 X75.312763 Y49.986036 Z-0.125000
G02 X75.044338 Y50.273332 Z-0.125000 I0.477849 J0.715507
G02 X74.956018 Y50.607830 Z-0.125000 I0.577569 J0.331408
G01 X74.977988 Y50.615594 Z-0.125000
G02 X75.171353 Y50.340963 Z-0.125000 I-1.983974 J-1.602290
G03 X75.444043 Y50.110396 Z-0.125000 I0.482584 J0.294212
G03 X75.880044 Y50.057504 Z-0.125000 I0.317512 J0.793845
G03 X77.021200 Y50.324911 Z-0.125000 I-0.892346 J6.376706
G03 X78.054628 Y50.781325 Z-0.125000 I-1.889189 J5.675737
G03 X78.617673 Y51.363027 Z-0.125000 I-0.688728 J1.229983
G03 X79.364228 Y53.310063 Z-0.125000 I-8.304696 J4.300925
G02 X79.642994 Y54.255103 Z-0.125000 I14.708199 J-3.824964
G01 X79.675099 Y54.250504 Z-0.125000
G02 X79.563704 Y53.262498 Z-0.125000 I-3.390027 J-0.118065
G02 X78.948183 Y51.510865 Z-0.125000 I-11.433245 J3.033659
G02 X78.216275 Y50.722923 Z-0.125000 I-1.508410 J0.667240
G02 X75.953605 Y49.912928 Z-0.125000 I-3.877802 J7.267088
G01 X75.953870 Y49.879094 Z-0.125000
G03 X76.216233 Y49.864688 Z-0.125000 I0.187678 J1.021733
G03 X77.290819 Y50.089213 Z-0.125000 I-0.295516 J4.098117
G03 X78.436247 Y50.649946 Z-0.125000 I-1.848666 J5.226601
G03 X78.964415 Y51.252268 Z-0.125000 I-0.781700 J1.218196
G03 X79.617483 Y53.162235 Z-0.125000 I-8.316594 J3.910296
G03 X79.975124 Y56.372523 Z-0.125000 I-14.561047 J3.247233
G03 X79.632203 Y59.107583 Z-0.125000 I-10.863991 J0.026904
G02 X79.198440 Y60.944313 Z-0.125000 I45.696146 J11.761217
G02 X79.035825 Y61.879652 Z-0.125000 I11.669994 J2.510707
G03 X78.883908 Y62.812786 Z-0.125000 I-16.111907 J-2.144139
G03 X78.828676 Y62.954338 Z-0.125000 I-0.413183 J-0.079667
G03 X78.722251 Y62.993715 Z-0.125000 I-0.078437 J-0.048485
G03 X78.033130 Y62.700915 Z-0.125000 I1.218443 J-3.825017
G02 X76.358458 Y62.085161 Z-0.125000 I-2.978244 J5.514774
G02 X73.957597 Y61.834310 Z-0.125000 I-2.385908 J11.220610
G02 X70.465498 Y62.434755 Z-0.125000 I0.013110 J10.531236
G02 X68.274824 Y63.839912 Z-0.125000 I1.891674 J5.359402
G03 X67.409053 Y64.681646 Z-0.125000 I-14.453698 J-14.000339
G03 X67.315822 Y64.717877 Z-0.125000 I-0.093231 J-0.101836
G03 X67.002660 Y64.581741 Z-0.125000 I-0.000000 J-0.428261
G03 X65.371383 Y62.633411 Z-0.125000 I17.341241 J-16.176362
G03 X64.192132 Y60.374077 Z-0.125000 I6.304948 J-4.728265
G03 X63.771796 Y57.784493 Z-0.125000 I7.930550 J-2.616176
G01 X63.767396 Y56.471345 Z-0.125000
G01 X64.219109 Y55.547505 Z-0.125000
G03 X64.946992 Y54.530909 Z-0.125000 I3.386613 J1.655936
G03 X65.320266 Y54.452051 Z-0.125000 I0.247532 J0.248817
G03 X65.444001 Y54.539118 Z-0.125000 I-0.110796 J0.288915
G03 X65.799691 Y55.009125 Z-0.125000 I-3.558335 J3.062452
G03 X66.059294 Y55.530984 Z-0.125000 I-1.973823 J1.307395
G03 X66.131046 Y55.951242 Z-0.125000 I-1.194872 J0.420258
G02 X66.327494 Y56.477039 Z-0.125000 I0.801876 J-0.000000
G02 X66.637227 Y56.534087 Z-0.125000 I0.190610 J-0.165539
G02 X66.822872 Y56.400623 Z-0.125000 I-0.410792 J-0.767248
G02 X67.326781 Y55.885122 Z-0.125000 I-5.922580 J-6.293435
G02 X67.696408 Y55.301313 Z-0.125000 I-1.537576 J-1.382399
G02 X67.811865 Y54.726642 Z-0.125000 I-1.372436 J-0.574671
G02 X67.591631 Y54.301153 Z-0.125000 I-0.521135 J-0.000000
G02 X67.168797 Y54.271869 Z-0.125000 I-0.235494 J0.333000
G03 X66.859968 Y54.355922 Z-0.125000 I-0.350135 J-0.677097
G03 X66.685017 Y54.298119 Z-0.125000 I-0.013688 J-0.252233
G03 X66.189886 Y53.399672 Z-0.125000 I0.894411 J-1.078562
G03 X66.382527 Y51.964602 Z-0.125000 I2.768379 J-0.358844
G03 X66.969957 Y51.289232 Z-0.125000 I1.312416 J0.548371
G03 X69.418776 Y50.165821 Z-0.125000 I6.568352 J11.087061
G03 X70.503659 Y49.882788 Z-0.125000 I2.555516 J7.574718
G03 X71.360715 Y49.802381 Z-0.125000 I0.866814 J4.631478
G03 X72.220100 Y49.854128 Z-0.125000 I0.011649 J6.968440
G03 X72.599247 Y49.954530 Z-0.125000 I-0.174798 J1.426178
G01 X72.599476 Y49.954579 Z-0.125000
G00 Z5.000000

(End cutting path id: path1)


(Start cutting path id: path1)
(Change tool to Default tool)

G00 Z5.000000
G00 X72.329301 Y50.050179

G01 Z-0.125000 F100.0(Penetrate)
G01 X72.347177 Y50.084792 Z-0.125000 F400.000000
G02 X72.703294 Y50.315689 Z-0.125000 I2.915557 J-4.106663
G02 X72.992775 Y50.453558 Z-0.125000 I0.921123 J-1.561227
G01 X73.011788 Y50.430362 Z-0.125000
G02 X72.505613 Y49.946565 Z-0.125000 I-1.182505 J0.730508
G02 X72.329301 Y50.050179 Z-0.125000 I-0.057710 J0.103614
G01 X72.329301 Y50.050179 Z-0.125000
G00 Z5.000000

(End cutting path id: path1)


(Start cutting path id: path1)
(Change tool to Default tool)

G00 Z5.000000
G00 X70.648483 Y50.013549

G01 Z-0.125000 F100.0(Penetrate)
G02 X70.182715 Y50.123100 Z-0.125000 I0.730574 J4.151034 F400.000000
G02 X69.230293 Y50.433399 Z-0.125000 I5.235175 J17.685477
G02 X66.949638 Y51.603936 Z-0.125000 I3.265360 J9.169234
G02 X66.501189 Y52.325658 Z-0.125000 I0.609327 J0.878797
G01 X66.447179 Y52.689542 Z-0.125000
G01 X66.560433 Y52.321854 Z-0.125000
G03 X66.914722 Y51.758071 Z-0.125000 I1.227279 J0.378027
G03 X67.864660 Y51.112923 Z-0.125000 I2.596367 J2.801047
G03 X69.273969 Y50.543683 Z-0.125000 I5.302226 J11.097930
G03 X70.858617 Y50.113944 Z-0.125000 I4.542818 J13.614941
G01 X70.867056 Y50.043415 Z-0.125000
G02 X70.648515 Y50.013549 Z-0.125000 I-0.155897 J0.326256
G01 X70.648483 Y50.013549 Z-0.125000
G00 Z5.000000

(End cutting path id: path1)


(Start cutting path id: path1)
(Change tool to Default tool)

G00 Z5.000000
G00 X74.062654 Y51.061243

G01 Z-0.125000 F100.0(Penetrate)
G01 X74.044353 Y51.114246 Z-0.125000 F400.000000
G02 X74.115154 Y51.157293 Z-0.125000 I0.072617 J-0.039688
G02 X74.368855 Y51.131595 Z-0.125000 I0.024738 J-1.020933
G02 X74.535358 Y51.061243 Z-0.125000 I-0.117278 J-0.509775
G01 X74.549943 Y51.003730 Z-0.125000
G02 X74.482858 Y50.965183 Z-0.125000 I-0.065047 J0.035555
G02 X74.277216 Y50.991401 Z-0.125000 I0.032558 J1.074973
G02 X74.062654 Y51.061243 Z-0.125000 I0.273907 J1.205964
G01 X74.062654 Y51.061243 Z-0.125000
G00 Z5.000000

(End cutting path id: path1)


(Start cutting path id: path1)
(Change tool to Default tool)

G00 Z5.000000
G00 X68.147741 Y54.790559

G01 Z-0.125000 F100.0(Penetrate)
G02 X68.174034 Y54.921582 Z-0.125000 I0.358129 J-0.003719 F400.000000
G01 X68.200061 Y54.919873 Z-0.125000
G02 X68.222546 Y54.735651 Z-0.125000 I-0.676520 J-0.176057
G02 X68.196561 Y54.604719 Z-0.125000 I-0.364296 J0.004256
G01 X68.170602 Y54.606395 Z-0.125000
G02 X68.148141 Y54.790559 Z-0.125000 I0.673655 J0.175611
G01 X68.147741 Y54.790559 Z-0.125000
G00 Z5.000000

(End cutting path id: path1)


(Start cutting path id: path1)
(Change tool to Default tool)

G00 Z5.000000
G00 X67.076745 Y53.992840

G01 Z-0.125000 F100.0(Penetrate)
G01 X67.114723 Y54.038803 Z-0.125000 F400.000000
G02 X67.286847 Y54.033100 Z-0.125000 I0.073476 J-0.382686
G02 X67.479620 Y53.964764 Z-0.125000 I-0.306025 J-1.169362
G01 X67.496949 Y53.937890 Z-0.125000
G01 X67.478709 Y53.915828 Z-0.125000
G02 X67.286847 Y53.897630 Z-0.125000 I-0.191862 J1.002332
G02 X67.114081 Y53.934944 Z-0.125000 I0.000000 J0.418616
G02 X67.076745 Y53.992850 Z-0.125000 I0.026237 J0.057906
G01 X67.076745 Y53.992840 Z-0.125000
G00 Z5.000000

(End cutting path id: path1)


(Start cutting path id: path1)
(Change tool to Default tool)

G00 Z5.000000
G00 X66.551480 Y53.760852

G01 Z-0.125000 F100.0(Penetrate)
G02 X66.701801 Y54.200267 Z-0.125000 I0.717405 J0.000000 F400.000000
G02 X66.901538 Y54.212609 Z-0.125000 I0.105292 J-0.081587
G01 X66.910395 Y54.158032 Z-0.125000
G02 X66.752546 Y53.912247 Z-0.125000 I-1.187584 J0.589115
G02 X66.580577 Y53.746337 Z-0.125000 I-0.761951 J0.617699
G01 X66.551480 Y53.760852 Z-0.125000
G01 X66.551480 Y53.760852 Z-0.125000
G00 Z5.000000

(End cutting path id: path1)


(Start cutting path id: path1)
(Change tool to Default tool)

G00 Z5.000000
G00 X64.813915 Y54.891814

G01 Z-0.125000 F100.0(Penetrate)
G02 X64.116289 Y56.140437 Z-0.125000 I4.015092 J3.062497 F400.000000
G02 X63.943124 Y57.154209 Z-0.125000 I2.436861 J0.937921
G02 X63.971519 Y57.263413 Z-0.125000 I0.252605 J-0.007389
G01 X63.997754 Y57.259260 Z-0.125000
G03 X64.205376 Y56.445334 Z-0.125000 I4.941939 J0.827181
G03 X64.634996 Y55.420865 Z-0.125000 I8.282895 J2.871188
G03 X65.102128 Y54.881137 Z-0.125000 I1.277658 J0.633792
G03 X65.365884 Y54.916060 Z-0.125000 I0.112603 J0.163032
G01 X65.615654 Y55.210763 Z-0.125000
G01 X65.450548 Y54.869351 Z-0.125000
G02 X65.262545 Y54.564464 Z-0.125000 I-1.580947 J0.764454
G02 X65.188443 Y54.527931 Z-0.125000 I-0.074102 J0.056887
G02 X65.107629 Y54.560725 Z-0.125000 I-0.000000 J0.115972
G02 X64.813892 Y54.891814 Z-0.125000 I2.082523 J2.143426
G01 X64.813915 Y54.891814 Z-0.125000
G00 Z5.000000

(End cutting path id: path1)


(Start cutting path id: path1)
(Change tool to Default tool)

G00 Z5.000000
G00 X65.817683 Y56.385090

G01 Z-0.125000 F100.0(Penetrate)
G02 X66.003024 Y56.808566 Z-0.125000 I0.569092 J0.003224 F400.000000
G02 X66.383306 Y56.901177 Z-0.125000 I0.274672 J-0.300797
G03 X66.604871 Y56.846102 Z-0.125000 I1.610820 J6.007096
G03 X66.709066 Y56.826687 Z-0.125000 I0.288423 J1.258565
G01 X66.710436 Y56.809969 Z-0.125000
G02 X66.449205 Y56.746427 Z-0.125000 I-0.639209 J2.059132
G03 X66.130489 Y56.619412 Z-0.125000 I0.148825 J-0.836828
G03 X65.951759 Y56.418831 Z-0.125000 I0.286897 J-0.435561
G02 X65.864402 Y56.348887 Z-0.125000 I-0.120283 J0.060703
G01 X65.817683 Y56.385041 Z-0.125000
G01 X65.817683 Y56.385090 Z-0.125000
G00 Z5.000000

(End cutting path id: path1)


(Start cutting path id: path1)
(Change tool to Default tool)

G00 Z5.000000
G00 X67.339372 Y56.196733

G01 Z-0.125000 F100.0(Penetrate)
G02 X67.054397 Y56.554143 Z-0.125000 I2.515909 J2.298331 F400.000000
G01 X67.076745 Y56.575718 Z-0.125000
G02 X67.923357 Y55.800376 Z-0.125000 I-3.427030 J-4.591936
G02 X67.904579 Y55.648793 Z-0.125000 I-0.075673 J-0.067580
G01 X67.868173 Y55.651976 Z-0.125000
G02 X67.339372 Y56.196733 Z-0.125000 I8.713314 J8.987133
G01 X67.339372 Y56.196733 Z-0.125000
G00 Z5.000000

(End cutting path id: path1)


(Start cutting path id: path1)
(Change tool to Default tool)

G00 Z5.000000
G00 X63.828451 Y57.845803

G01 Z-0.125000 F100.0(Penetrate)
G02 X63.859268 Y57.915975 Z-0.125000 I0.105728 J-0.004579 F400.000000
G01 X63.891941 Y57.909303 Z-0.125000
G02 X63.914470 Y57.778023 Z-0.125000 I-0.295831 J-0.118340
G02 X63.883941 Y57.707953 Z-0.125000 I-0.105522 J0.004289
G01 X63.851223 Y57.714668 Z-0.125000
G02 X63.828781 Y57.845834 Z-0.125000 I0.294877 J0.117956
G01 X63.828451 Y57.845803 Z-0.125000
G00 Z5.000000

(End cutting path id: path1)


(Start cutting path id: path1)
(Change tool to Default tool)

G00 Z5.000000
G00 X64.030253 Y59.354093

G01 Z-0.125000 F100.0(Penetrate)
G02 X64.061624 Y59.540497 Z-0.125000 I0.569488 J0.000000 F400.000000
G02 X64.120133 Y59.613537 Z-0.125000 I0.131869 J-0.045679
G01 X64.159813 Y59.596240 Z-0.125000
G02 X64.160393 Y59.409634 Z-0.125000 I-0.479199 J-0.094794
G02 X64.085987 Y59.317292 Z-0.125000 I-0.123890 J0.023679
G01 X64.030236 Y59.354124 Z-0.125000
G01 X64.030253 Y59.354093 Z-0.125000
G00 Z5.000000

(End cutting path id: path1)


(Start cutting path id: path1)
(Change tool to Default tool)

G00 Z5.000000
G00 X64.595007 Y61.014852

G01 Z-0.125000 F100.0(Penetrate)
G02 X66.351575 Y63.780308 Z-0.125000 I15.175461 J-7.698581 F400.000000
G02 X67.306046 Y64.491418 Z-0.125000 I1.771092 J-1.381096
G02 X67.385194 Y64.479086 Z-0.125000 I0.028967 J-0.074242
G02 X67.629979 Y64.228790 Z-0.125000 I-0.957314 J-1.181080
G03 X67.867337 Y63.934987 Z-0.125000 I7.232719 J5.600389
G03 X68.324278 Y63.404761 Z-0.125000 I24.062283 J20.274537
G01 X68.310661 Y63.390578 Z-0.125000
G02 X68.047993 Y63.628981 Z-0.125000 I2.023401 J2.493243
G01 X67.308760 Y64.378457 Z-0.125000
G01 X66.734091 Y63.786557 Z-0.125000
G03 X65.835557 Y62.726181 Z-0.125000 I7.375246 J-7.160469
G03 X64.884203 Y61.277480 Z-0.125000 I12.864886 J-9.485024
G02 X64.642473 Y60.978656 Z-0.125000 I-1.087599 J0.632616
G01 X64.595007 Y61.014852 Z-0.125000
G01 X64.595007 Y61.014852 Z-0.125000
G00 Z5.000000

(End cutting path id: path1)


(Start cutting path id: path1)
(Change tool to Default tool)

G00 Z5.000000
G00 X70.646958 Y61.971521

G01 Z-0.125000 F100.0(Penetrate)
G02 X69.376042 Y62.447442 Z-0.125000 I4.937181 J15.119331 F400.000000
G01 X69.387870 Y62.505326 Z-0.125000
G02 X71.764692 Y62.091739 Z-0.125000 I-0.023303 J-7.170322
G02 X71.698995 Y61.683016 Z-0.125000 I-0.070446 J-0.198318
G02 X71.544792 Y61.702128 Z-0.125000 I-0.011239 J0.540972
G02 X70.646958 Y61.971521 Z-0.125000 I5.136820 J18.750830
G01 X70.646958 Y61.971521 Z-0.125000
G00 Z5.000000

(End cutting path id: path1)


(Start cutting path id: path1)
(Change tool to Default tool)

G00 Z5.000000
G00 X74.220231 Y61.569691

G01 Z-0.125000 F100.0(Penetrate)
G03 X75.912150 Y61.789993 Z-0.125000 I-1.019021 J14.433163 F400.000000
G03 X77.739444 Y62.240880 Z-0.125000 I-3.300662 J17.304647
G01 X77.746607 Y62.226839 Z-0.125000
G02 X77.620097 Y62.150270 Z-0.125000 I-0.429516 J0.566869
G02 X76.331828 Y61.732510 Z-0.125000 I-2.306280 J4.916767
G02 X74.272756 Y61.511485 Z-0.125000 I-2.380276 J12.473001
G01 X72.907083 Y61.476905 Z-0.125000
G01 X74.220231 Y61.569691 Z-0.125000
G00 Z5.000000

(End cutting path id: path1)


(Start cutting path id: path1)
(Change tool to Default tool)

G00 Z5.000000
G00 X76.187053 Y63.229324

G01 Z-0.125000 F100.0(Penetrate)
G03 X78.035415 Y63.983697 Z-0.125000 I-5.159997 J15.284618 F400.000000
G03 X78.549595 Y64.368844 Z-0.125000 I-0.725763 J1.504705
G03 X78.918351 Y64.980690 Z-0.125000 I-1.389402 J1.254432
G03 X79.050286 Y65.738783 Z-0.125000 I-2.039806 J0.745525
G03 X78.852830 Y66.541537 Z-0.125000 I-1.774849 J-0.010904
G03 X78.184328 Y67.417015 Z-0.125000 I-2.796927 J-1.442724
G03 X76.931215 Y68.310135 Z-0.125000 I-4.222942 J-4.599431
G03 X76.181865 Y68.499751 Z-0.125000 I-0.749350 J-1.385886
G03 X76.024329 Y68.397671 Z-0.125000 I0.000000 J-0.172600
G03 X75.864459 Y67.790656 Z-0.125000 I1.761314 J-0.788437
G03 X75.815251 Y67.080716 Z-0.125000 I14.240651 J-1.343726
G03 X75.796709 Y66.262194 Z-0.125000 I18.870890 J-0.836965
G02 X75.532364 Y65.147848 Z-0.125000 I-2.489850 J0.002115
G02 X74.938715 Y64.551792 Z-0.125000 I-1.201009 J0.602506
G02 X73.952084 Y64.258600 Z-0.125000 I-1.298154 J2.561799
G02 X72.538678 Y64.289909 Z-0.125000 I-0.587735 J5.386366
G02 X71.292606 Y64.674008 Z-0.125000 I0.682764 J4.428251
G02 X70.398537 Y65.310641 Z-0.125000 I1.366613 J2.865350
G02 X69.980680 Y66.000616 Z-0.125000 I1.239934 J1.222436
G02 X69.985214 Y66.597513 Z-0.125000 I0.907789 J0.291570
G03 X70.087751 Y67.044715 Z-0.125000 I-2.161966 J0.731065
G03 X70.102485 Y67.532802 Z-0.125000 I-2.566726 J0.321748
G03 X69.976729 Y67.937724 Z-0.125000 I-0.901795 J-0.058080
G03 X69.788139 Y68.059648 Z-0.125000 I-0.217664 J-0.129864
G03 X68.778359 Y67.626547 Z-0.125000 I-0.126794 J-1.098086
G03 X68.232272 Y65.993695 Z-0.125000 I2.168146 J-1.632852
G03 X68.352499 Y65.422427 Z-0.125000 I1.417324 J0.000000
G03 X68.897740 Y64.482710 Z-0.125000 I4.492472 J1.978576
G03 X69.426792 Y64.003796 Z-0.125000 I1.455260 J1.075935
G03 X70.858550 Y63.314688 Z-0.125000 I4.591621 J7.708072
G03 X72.210031 Y62.966992 Z-0.125000 I2.277593 J6.052488
G03 X73.957567 Y62.866256 Z-0.125000 I1.457162 J10.070178
G03 X75.203382 Y62.984963 Z-0.125000 I-0.268973 J9.419562
G03 X76.187017 Y63.229324 Z-0.125000 I-0.993946 J6.102863
G01 X76.187053 Y63.229324 Z-0.125000
G00 Z5.000000

(End cutting path id: path1)


(Start cutting path id: path1)
(Change tool to Default tool)

G00 Z5.000000
G00 X78.317225 Y62.612807

G01 Z-0.125000 F100.0(Penetrate)
G02 X78.638348 Y62.742214 Z-0.125000 I0.377169 J-0.472809 F400.000000
G02 X78.737438 Y62.651917 Z-0.125000 I0.008404 J-0.090297
G02 X78.709245 Y62.544937 Z-0.125000 I-0.217067 J-0.000000
G01 X78.674118 Y62.540161 Z-0.125000
G03 X78.602258 Y62.565500 Z-0.125000 I-0.062401 J-0.062401
G03 X78.332698 Y62.503451 Z-0.125000 I0.125044 J-1.159784
G01 X78.054604 Y62.403366 Z-0.125000
G01 X78.317225 Y62.612807 Z-0.125000
G00 Z5.000000

(End cutting path id: path1)


(Start cutting path id: path1)
(Change tool to Default tool)

G00 Z5.000000
G00 X78.850781 Y61.417542

G01 Z-0.125000 F100.0(Penetrate)
G02 X78.881601 Y61.487715 Z-0.125000 I0.105722 J-0.004579 F400.000000
G01 X78.914281 Y61.481042 Z-0.125000
G02 X78.936804 Y61.349767 Z-0.125000 I-0.295764 J-0.118314
G02 X78.906281 Y61.279693 Z-0.125000 I-0.105568 J0.004299
G01 X78.873563 Y61.286408 Z-0.125000
G02 X78.851121 Y61.417573 Z-0.125000 I0.294873 J0.117955
G01 X78.850781 Y61.417542 Z-0.125000
G00 Z5.000000

(End cutting path id: path1)


(Start cutting path id: path1)
(Change tool to Default tool)

G00 Z5.000000
G00 X79.005901 Y60.154011

G01 Z-0.125000 F100.0(Penetrate)
G02 X78.962687 Y60.528485 Z-0.125000 I2.627790 J0.492976 F400.000000
G02 X78.986481 Y60.589850 Z-0.125000 I0.081681 J0.003624
G01 X79.020506 Y60.582496 Z-0.125000
G02 X79.110927 Y60.259062 Z-0.125000 I-1.807992 J-0.679812
G02 X79.154141 Y59.884586 Z-0.125000 I-2.627817 J-0.492978
G02 X79.130347 Y59.823223 Z-0.125000 I-0.081678 J-0.003624
G01 X79.096323 Y59.830577 Z-0.125000
G02 X79.005910 Y60.154011 Z-0.125000 I1.807627 J0.679659
G01 X79.005901 Y60.154011 Z-0.125000
G00 Z5.000000

(End cutting path id: path1)


(Start cutting path id: path1)
(Change tool to Default tool)

G00 Z5.000000
G00 X79.496767 Y58.519785

G01 Z-0.125000 F100.0(Penetrate)
G02 X79.401292 Y58.979541 Z-0.125000 I5.182199 J1.315954 F400.000000
G01 X79.415177 Y59.022525 Z-0.125000
G02 X79.673545 Y58.955838 Z-0.125000 I0.109522 J-0.109522
G02 X79.657444 Y58.180848 Z-0.125000 I-1.256381 J-0.361560
G01 X79.619636 Y58.178567 Z-0.125000
G02 X79.496781 Y58.519785 Z-0.125000 I1.691574 J0.801772
G01 X79.496767 Y58.519785 Z-0.125000
G00 Z5.000000

(End cutting path id: path1)


(Start cutting path id: path1)
(Change tool to Default tool)

G00 Z5.000000
G00 X79.796241 Y57.425590

G01 Z-0.125000 F100.0(Penetrate)
G02 X79.827060 Y57.495756 Z-0.125000 I0.105703 J-0.004577 F400.000000
G01 X79.859741 Y57.489080 Z-0.125000
G02 X79.882264 Y57.357802 Z-0.125000 I-0.295770 J-0.118316
G02 X79.851741 Y57.287740 Z-0.125000 I-0.105536 J0.004298
G01 X79.819022 Y57.294455 Z-0.125000
G02 X79.796581 Y57.425611 Z-0.125000 I0.294840 J0.117947
G01 X79.796241 Y57.425590 Z-0.125000
G00 Z5.000000

(End cutting path id: path1)


(Start cutting path id: path1)
(Change tool to Default tool)

G00 Z5.000000
G00 X79.804533 Y55.683493

G01 Z-0.125000 F100.0(Penetrate)
G02 X79.830043 Y55.814809 Z-0.125000 I0.350734 J-0.000000 F400.000000
G01 X79.857563 Y55.814812 Z-0.125000
G02 X79.883094 Y55.683524 Z-0.125000 I-0.324800 J-0.131288
G02 X79.857563 Y55.552184 Z-0.125000 I-0.350600 J-0.000000
G01 X79.830036 Y55.552184 Z-0.125000
G02 X79.804533 Y55.683493 Z-0.125000 I0.325286 J0.131309
G01 X79.804533 Y55.683493 Z-0.125000
G00 Z5.000000

(End cutting path id: path1)


(Start cutting path id: path1)
(Change tool to Default tool)

G00 Z5.000000
G00 X79.737969 Y64.970595

G01 Z-0.125000 F100.0(Penetrate)
G03 X79.753954 Y65.487943 Z-0.125000 I-2.526273 J0.336976 F400.000000
G01 X79.699309 Y65.515911 Z-0.125000
G03 X79.619457 Y65.417717 Z-0.125000 I0.101185 J-0.163850
G03 X79.577869 Y65.181061 Z-0.125000 I0.652549 J-0.236656
G02 X79.487922 Y64.709375 Z-0.125000 I-1.281748 J-0.000000
G02 X79.133517 Y64.058346 Z-0.125000 I-2.839669 J1.123871
G03 X79.081568 Y63.887697 Z-0.125000 I0.227552 J-0.162503
G03 X79.141517 Y63.783188 Z-0.125000 I0.127551 J0.003718
G02 X79.227127 Y63.659972 Z-0.125000 I-0.100726 J-0.161334
G02 X79.404145 Y62.499295 Z-0.125000 I-11.408892 J-2.333834
G01 X79.525221 Y61.303738 Z-0.125000
G01 X79.590131 Y62.826979 Z-0.125000
G02 X79.674982 Y64.348484 Z-0.125000 I58.220348 J-2.483689
G02 X79.737829 Y64.970595 Z-0.125000 I9.780380 J-0.673811
G01 X79.737969 Y64.970595 Z-0.125000
G00 Z5.000000

(End cutting path id: path1)


(Start cutting path id: path1)
(Change tool to Default tool)

G00 Z5.000000
G00 X76.697987 Y69.115419

G01 Z-0.125000 F100.0(Penetrate)
G03 X76.621799 Y69.178908 Z-0.125000 I-0.133284 J-0.082485 F400.000000
G03 X76.021708 Y69.379904 Z-0.125000 I-2.322739 J-5.938434
G02 X75.505806 Y69.766871 Z-0.125000 I0.240893 J0.858539
G02 X75.269137 Y70.587651 Z-0.125000 I1.327803 J0.827378
G03 X75.234900 Y70.958924 Z-0.125000 I-2.127930 J-0.009012
G03 X75.172747 Y71.118208 Z-0.125000 I-0.439988 J-0.079917
G01 X75.130256 Y71.107073 Z-0.125000
G03 X75.134797 Y70.382850 Z-0.125000 I6.253021 J-0.322920
G03 X75.218829 Y69.509546 Z-0.125000 I13.723786 J0.879851
G03 X75.257442 Y69.427828 Z-0.125000 I0.145302 J0.018676
G03 X75.647653 Y69.186022 Z-0.125000 I0.648086 J0.610089
G03 X76.563824 Y69.032331 Z-0.125000 I1.056426 J3.489930
G03 X76.686030 Y69.064557 Z-0.125000 I0.008462 J0.215735
G01 X76.697998 Y69.115411 Z-0.125000
G01 X76.697987 Y69.115419 Z-0.125000
G00 Z5.000000

(End cutting path id: path1)


(Start cutting path id: path1)
(Change tool to Default tool)

G00 Z5.000000
G00 X70.753534 Y69.025009

G01 Z-0.125000 F100.0(Penetrate)
G03 X70.700995 Y69.182600 Z-0.125000 I-0.262617 J0.000000 F400.000000
G03 X70.595958 Y69.235112 Z-0.125000 I-0.105037 J-0.078794
G03 X70.490913 Y69.182593 Z-0.125000 I0.000000 J-0.131311
G03 X70.438381 Y69.025009 Z-0.125000 I0.210091 J-0.157584
G03 X70.490920 Y68.867418 Z-0.125000 I0.262618 J0.000000
G03 X70.595958 Y68.814905 Z-0.125000 I0.105038 J0.078794
G03 X70.701002 Y68.867424 Z-0.125000 I0.000000 J0.131309
G03 X70.753534 Y69.025009 Z-0.125000 I-0.210095 J0.157585
G01 X70.753534 Y69.025009 Z-0.125000
G00 Z5.000000

(End cutting path id: path1)


(Start cutting path id: path1)
(Change tool to Default tool)

G00 Z5.000000
G00 X72.107121 Y92.687810

G01 Z-0.125000 F100.0(Penetrate)
G03 X72.053226 Y93.971807 Z-0.125000 I-18.622482 J-0.138537 F400.000000
G01 X72.008121 Y93.974690 Z-0.125000
G03 X71.767711 Y91.289294 Z-0.125000 I11.537530 J-2.386356
G03 X72.084211 Y90.980728 Z-0.125000 I0.316500 J0.008036
G01 X72.101759 Y90.998041 Z-0.125000
G03 X72.107091 Y92.687810 Z-0.125000 I-81.750714 J1.102871
G01 X72.107121 Y92.687810 Z-0.125000
G00 Z5.000000

(End cutting path id: path1)


(Start cutting path id: path1)
(Change tool to Default tool)

G00 Z5.000000
G00 X74.324324 Y96.741358

G01 Z-0.125000 F100.0(Penetrate)
G03 X73.980311 Y96.665996 Z-0.125000 I-0.108779 J-0.326301 F400.000000
G03 X73.800026 Y96.249882 Z-0.125000 I0.390072 J-0.416114
G01 X73.853923 Y96.215207 Z-0.125000
G03 X74.120296 Y96.395771 Z-0.125000 I-0.398192 J0.874185
G03 X74.346704 Y96.681515 Z-0.125000 I-0.925070 J0.965546
G01 X74.324324 Y96.741358 Z-0.125000
G01 X74.324324 Y96.741358 Z-0.125000
G00 Z5.000000

(End cutting path id: path1)


(Start cutting path id: path1)
(Change tool to Default tool)

G00 Z5.000000
G00 X75.038674 Y97.666294

G01 Z-0.125000 F100.0(Penetrate)
G03 X75.217801 Y97.763882 Z-0.125000 I-0.112309 J0.419340 F400.000000
G03 X75.240067 Y97.848699 Z-0.125000 I-0.053869 J0.059472
G03 X75.039666 Y97.987138 Z-0.125000 I-0.192249 J-0.064027
G03 X74.505960 Y97.819139 Z-0.125000 I0.043018 J-1.068412
G01 X74.167705 Y97.602494 Z-0.125000
G01 X74.482859 Y97.602024 Z-0.125000
G03 X74.795633 Y97.619841 Z-0.125000 I0.003023 J2.701245
G03 X75.038674 Y97.666154 Z-0.125000 I-0.193493 J1.676265
G01 X75.038674 Y97.666294 Z-0.125000
G00 Z5.000000

(End cutting path id: path1)


(Start cutting path id: path1)
(Change tool to Default tool)

G00 Z5.000000
G00 X78.474802 Y99.730996

G01 Z-0.125000 F100.0(Penetrate)
G03 X79.153101 Y100.098559 Z-0.125000 I-8.468221 J16.436860 F400.000000
G01 X79.149484 Y100.115024 Z-0.125000
G03 X77.448475 Y99.809185 Z-0.125000 I-0.282175 J-3.313848
G03 X76.270200 Y98.756896 Z-0.125000 I1.185423 J-2.513164
G01 X76.319221 Y98.700622 Z-0.125000
G03 X78.474802 Y99.730996 Z-0.125000 I-16.180929 J36.621067
G01 X78.474802 Y99.730996 Z-0.125000
G00 Z5.000000

(End cutting path id: path1)


(Start cutting path id: path1)
(Change tool to Default tool)

G00 Z5.000000
G00 X80.733410 Y100.499106

G01 Z-0.125000 F100.0(Penetrate)
G03 X80.596261 Y100.652518 Z-0.125000 I-0.154376 J0.000000 F400.000000
G03 X80.365731 Y100.540396 Z-0.125000 I-0.026735 J-0.238085
G03 X80.335113 Y100.435374 Z-0.125000 I0.174168 J-0.107751
G03 X80.363031 Y100.334882 Z-0.125000 I0.185905 J-0.002477
G03 X80.582504 Y100.266968 Z-0.125000 I0.148666 J0.091848
G03 X80.733538 Y100.499110 Z-0.125000 I-0.102886 J0.232142
G01 X80.733410 Y100.499106 Z-0.125000
G00 Z5.000000

(End cutting path id: path1)


(Start cutting path id: path1)
(Change tool to Default tool)

G00 Z5.000000
G00 X79.332583 Y110.220019

G01 Z-0.125000 F100.0(Penetrate)
G03 X78.925331 Y110.925736 Z-0.125000 I-3.249665 J-1.404934 F400.000000
G03 X78.801812 Y110.934812 Z-0.125000 I-0.065676 J-0.048768
G03 X78.790445 Y110.871481 Z-0.125000 I0.039805 J-0.039830
G03 X79.077307 Y110.334883 Z-0.125000 I4.579270 J2.103073
G03 X79.273829 Y110.162125 Z-0.125000 I0.379179 J0.233182
G01 X79.332583 Y110.220019 Z-0.125000
G01 X79.332583 Y110.220019 Z-0.125000
G00 Z5.000000

(End cutting path id: path1)


(Start cutting path id: path1)
(Change tool to Default tool)

G00 Z5.000000
G00 X74.062654 Y120.227057

G01 Z-0.125000 F100.0(Penetrate)
G02 X73.348162 Y120.736962 Z-0.125000 I0.870721 J1.975611 F400.000000
G02 X73.169710 Y121.192823 Z-0.125000 I0.493030 J0.455861
G03 X73.090903 Y121.398594 Z-0.125000 I-0.308046 J0.000000
G03 X72.408094 Y122.041296 Z-0.125000 I-4.151498 J-3.726507
G02 X71.667123 Y122.669541 Z-0.125000 I9.366222 J11.797889
G02 X70.197365 Y124.041744 Z-0.125000 I43.298574 J47.850051
G03 X68.696437 Y125.309057 Z-0.125000 I-10.417529 J-10.815424
G03 X68.305921 Y125.437550 Z-0.125000 I-0.390516 J-0.529182
G02 X67.886382 Y125.521635 Z-0.125000 I0.000000 J1.088675
G02 X66.761077 Y126.082709 Z-0.125000 I3.623236 J8.675873
G03 X64.562717 Y127.227446 Z-0.125000 I-12.687027 J-21.681002
G03 X63.019772 Y127.801880 Z-0.125000 I-4.628131 J-10.071873
G02 X61.469669 Y128.458443 Z-0.125000 I1.980218 J6.833296
G02 X60.458514 Y129.265780 Z-0.125000 I2.085584 J3.648987
G02 X60.280815 Y129.584744 Z-0.125000 I0.579627 J0.531899
G02 X60.199780 Y130.186009 Z-0.125000 I2.090904 J0.587893
G02 X60.440685 Y130.890370 Z-0.125000 I1.171219 J-0.007202
G02 X61.070961 Y131.325000 Z-0.125000 I0.983991 J-0.752619
G02 X62.461870 Y131.550241 Z-0.125000 I1.563572 J-5.248174
G02 X64.662457 Y131.438295 Z-0.125000 I0.422235 J-13.384883
G02 X66.254049 Y131.039796 Z-0.125000 I-0.973448 J-7.265559
G02 X68.025096 Y130.182257 Z-0.125000 I-3.689462 J-9.877336
G02 X70.545457 Y128.466763 Z-0.125000 I-14.833788 J-24.502614
G02 X72.389241 Y126.858622 Z-0.125000 I-11.175185 J-14.673741
G02 X74.203188 Y124.735364 Z-0.125000 I-12.304172 J-12.348208
G02 X75.476880 Y122.595345 Z-0.125000 I-11.227240 J-8.131250
G02 X75.924913 Y120.821195 Z-0.125000 I-4.161985 J-1.994690
G02 X75.589593 Y120.239422 Z-0.125000 I-0.620814 J-0.029699
G02 X74.868149 Y120.060828 Z-0.125000 I-0.734390 J1.420165
G02 X74.062654 Y120.227062 Z-0.125000 I-0.015854 J1.957832
G01 X74.062654 Y120.227057 Z-0.125000
G00 Z5.000000

(End cutting path id: path1)


(Start cutting path id: path1)
(Change tool to Default tool)

G00 Z5.000000
G00 X63.550278 Y128.915970

G01 Z-0.125000 F100.0(Penetrate)
G03 X63.061494 Y129.343602 Z-0.125000 I-0.939455 J-0.580643 F400.000000
G03 X62.166353 Y129.534550 Z-0.125000 I-0.895141 J-2.002677
G03 X62.124789 Y129.414857 Z-0.125000 I-0.000000 J-0.067063
G03 X62.828505 Y129.011616 Z-0.125000 I1.703220 J2.156708
G03 X63.500244 Y128.838670 Z-0.125000 I1.051602 J2.693507
G03 X63.550278 Y128.915966 Z-0.125000 I0.006693 J0.050509
G01 X63.550278 Y128.915970 Z-0.125000
G00 Z5.000000

(End cutting path id: path1)


(Start cutting path id: path1)
(Change tool to Default tool)

G00 Z5.000000
G00 X54.523116 Y123.441575

G01 Z-0.125000 F100.0(Penetrate)
G03 X54.443808 Y123.520862 Z-0.125000 I-0.207768 J-0.128516 F400.000000
G03 X54.353133 Y123.546626 Z-0.125000 I-0.090675 J-0.146680
G03 X54.306139 Y123.514248 Z-0.125000 I-0.000000 J-0.050294
G03 X54.313053 Y123.441575 Z-0.125000 I0.076967 J-0.029342
G03 X54.392360 Y123.362290 Z-0.125000 I0.207821 J0.128570
G03 X54.483028 Y123.336524 Z-0.125000 I0.090668 J0.146645
G03 X54.530058 Y123.368912 Z-0.125000 I0.000000 J0.050339
G03 X54.523198 Y123.441575 Z-0.125000 I-0.076989 J0.029387
G01 X54.523116 Y123.441575 Z-0.125000
G00 Z5.000000

(End cutting path id: path1)


(Start cutting path id: path1)
(Change tool to Default tool)

G00 Z5.000000
G00 X46.434161 Y128.750412

G01 Z-0.125000 F100.0(Penetrate)
G03 X47.128002 Y129.124413 Z-0.125000 I-4.751251 J9.645063 F400.000000
G01 X47.117002 Y129.151459 Z-0.125000
G03 X45.333790 Y128.495194 Z-0.125000 I2.049207 J-8.318949
G03 X45.383650 Y128.284552 Z-0.125000 I0.049738 J-0.099449
G03 X45.483830 Y128.305828 Z-0.125000 I-0.000274 J0.247786
G03 X46.434161 Y128.750412 Z-0.125000 I-10.555733 J23.801635
G01 X46.434161 Y128.750412 Z-0.125000
G00 Z5.000000

(End cutting path id: path1)


(Start cutting path id: path1)
(Change tool to Default tool)

G00 Z5.000000
G00 X39.553717 Y124.995888

G01 Z-0.125000 F100.0(Penetrate)
G02 X39.427409 Y125.217853 Z-0.125000 I0.220629 J0.272468 F400.000000
G02 X39.490997 Y125.426735 Z-0.125000 I0.253605 J0.036917
G03 X39.638550 Y125.670373 Z-0.125000 I-0.556159 J0.503324
G03 X39.775752 Y126.198377 Z-0.125000 I-2.581477 J0.952624
G02 X40.251626 Y127.546611 Z-0.125000 I3.852648 J-0.601733
G02 X41.495785 Y129.176970 Z-0.125000 I6.947823 J-4.012122
G02 X42.829091 Y130.252073 Z-0.125000 I5.437790 J-5.379451
G02 X45.143054 Y131.496287 Z-0.125000 I9.657614 J-15.187193
G03 X46.579826 Y132.263449 Z-0.125000 I-4.741391 J10.608864
G03 X46.596202 Y132.408503 Z-0.125000 I-0.049626 J0.079054
G02 X46.602694 Y132.641209 Z-0.125000 I0.113283 J0.113283
G02 X47.300841 Y133.038586 Z-0.125000 I1.271491 J-1.421895
G02 X49.044529 Y133.398496 Z-0.125000 I2.634192 J-8.358244
G02 X52.579665 Y133.577783 Z-0.125000 I3.519684 J-34.458167
G02 X55.707373 Y133.330895 Z-0.125000 I-0.008587 J-20.043975
G02 X56.183914 Y133.006844 Z-0.125000 I-0.105835 J-0.668058
G02 X56.398702 Y132.153362 Z-0.125000 I-1.338335 J-0.790575
G02 X56.125124 Y131.555992 Z-0.125000 I-0.865530 J0.035057
G02 X54.826683 Y130.728240 Z-0.125000 I-2.862439 J3.057861
G02 X51.597071 Y129.733403 Z-0.125000 I-7.532770 J18.714491
G03 X46.597873 Y128.220991 Z-0.125000 I7.074695 J-32.403525
G03 X44.032449 Y126.776743 Z-0.125000 I3.836117 J-9.814722
G02 X41.626248 Y125.239848 Z-0.125000 I-10.277007 J13.437890
G02 X40.364766 Y124.848994 Z-0.125000 I-1.683975 J3.203885
G02 X39.838364 Y124.865365 Z-0.125000 I-0.208328 J1.772615
G02 X39.553700 Y124.995888 Z-0.125000 I0.112461 J0.620951
G01 X39.553717 Y124.995888 Z-0.125000
G00 Z5.000000

(End cutting path id: path1)


(Start cutting path id: path1)
(Change tool to Default tool)

G00 Z5.000000
G00 X40.821130 Y117.881078

G01 Z-0.125000 F100.0(Penetrate)
G02 X41.333675 Y118.980306 Z-0.125000 I28.228158 J-12.493036 F400.000000
G02 X41.593919 Y119.456847 Z-0.125000 I5.554353 J-2.723961
G03 X41.671589 Y119.645006 Z-0.125000 I-0.574246 J0.347152
G01 X41.643399 Y119.659729 Z-0.125000
G03 X40.818678 Y118.431259 Z-0.125000 I4.206113 J-3.714801
G03 X40.137762 Y116.613242 Z-0.125000 I8.660730 J-4.280293
G03 X40.156235 Y116.554077 Z-0.125000 I0.056383 J-0.014862
G01 X40.199152 Y116.560712 Z-0.125000
G03 X40.317094 Y116.777519 Z-0.125000 I-1.808342 J1.124218
G03 X40.821137 Y117.881074 Z-0.125000 I-46.556872 J21.931472
G01 X40.821130 Y117.881078 Z-0.125000
G00 Z5.000000

(End cutting path id: path1)


(Start cutting path id: path1)
(Change tool to Default tool)

G00 Z5.000000
G00 X39.099810 Y113.376348

G01 Z-0.125000 F100.0(Penetrate)
G01 X39.067119 Y113.383056 Z-0.125000 F400.000000
G03 X39.036340 Y113.312878 Z-0.125000 I0.074524 J-0.074524
G03 X39.058836 Y113.181710 Z-0.125000 I0.318243 J-0.012932
G01 X39.091520 Y113.174998 Z-0.125000
G03 X39.122281 Y113.245164 Z-0.125000 I-0.074515 J0.074494
G03 X39.099720 Y113.376346 Z-0.125000 I-0.316911 J0.013028
G01 X39.099810 Y113.376348 Z-0.125000
G00 Z5.000000

(End cutting path id: path1)


(Start cutting path id: path1)
(Change tool to Default tool)

G00 Z5.000000
G00 X43.393876 Y105.782933

G01 Z-0.125000 F100.0(Penetrate)
G03 X43.318540 Y105.860683 Z-0.125000 I-0.214926 J-0.132879 F400.000000
G03 X42.764636 Y106.199934 Z-0.125000 I-5.022035 J-7.577800
G02 X42.221520 Y106.559298 Z-0.125000 I2.264625 J4.012672
G02 X41.487231 Y107.181684 Z-0.125000 I6.133508 J7.980650
G03 X41.395220 Y107.131938 Z-0.125000 I-0.037646 J-0.040335
G03 X41.545071 Y106.847572 Z-0.125000 I0.513402 J0.088879
G03 X43.207521 Y105.590688 Z-0.125000 I5.837136 J5.992757
G03 X43.393875 Y105.782933 Z-0.125000 I0.068902 J0.119653
G01 X43.393876 Y105.782933 Z-0.125000
G00 Z5.000000

(End cutting path id: path1)


(Start cutting path id: path1)
(Change tool to Default tool)

G00 Z5.000000
G00 X52.847947 Y108.428395

G01 Z-0.125000 F100.0(Penetrate)
G03 X52.807873 Y108.670991 Z-0.125000 I-0.159093 J0.098328 F400.000000
G03 X52.567805 Y108.659507 Z-0.125000 I-0.113715 J-0.137839
G03 X52.515499 Y108.435538 Z-0.125000 I0.154082 J-0.154077
G03 X52.684713 Y108.314188 Z-0.125000 I0.169214 J0.057303
G03 X52.763548 Y108.339033 Z-0.125000 I-0.000000 J0.137498
G03 X52.847947 Y108.428395 Z-0.125000 I-0.174477 J0.249323
G01 X52.847947 Y108.428395 Z-0.125000
G00 Z5.000000

(End cutting path id: path1)


(Start cutting path id: path1)
(Change tool to Default tool)

G00 Z5.000000
G00 X61.079341 Y106.455578

G01 Z-0.125000 F100.0(Penetrate)
G02 X60.337004 Y106.879598 Z-0.125000 I0.942028 J2.511037 F400.000000
G02 X59.638892 Y107.618118 Z-0.125000 I2.380177 J2.949166
G02 X59.424463 Y108.046894 Z-0.125000 I1.229125 J0.882685
G02 X59.472678 Y108.146742 Z-0.125000 I0.077215 J0.024279
G03 X59.585243 Y108.312918 Z-0.125000 I-0.062842 J0.163781
G03 X59.457158 Y109.283785 Z-0.125000 I-4.175733 J-0.057017
G02 X59.518903 Y109.504472 Z-0.125000 I0.222875 J0.056624
G02 X60.037493 Y109.853810 Z-0.125000 I1.200079 J-1.221920
G01 X60.690662 Y110.137079 Z-0.125000
G01 X60.187514 Y110.264832 Z-0.125000
G02 X59.501960 Y110.818958 Z-0.125000 I0.259568 J1.022272
G02 X59.458275 Y111.737062 Z-0.125000 I1.027570 J0.508985
G02 X59.915891 Y112.513606 Z-0.125000 I2.522383 J-0.963328
G02 X60.660865 Y113.164208 Z-0.125000 I2.486130 J-2.094933
G02 X61.155147 Y113.374478 Z-0.125000 I0.886587 J-1.398013
G02 X61.871019 Y113.459397 Z-0.125000 I0.706591 J-2.896716
G02 X63.014871 Y113.217851 Z-0.125000 I-0.008883 J-2.871218
G02 X63.903554 Y112.568444 Z-0.125000 I-1.021880 J-2.331158
G02 X64.818648 Y110.362391 Z-0.125000 I-2.777743 J-2.445059
G02 X64.206709 Y107.884273 Z-0.125000 I-4.218125 J-0.273003
G02 X63.917721 Y107.425129 Z-0.125000 I-17.894506 J10.942406
G02 X63.744576 Y107.170689 Z-0.125000 I-5.660829 J3.666022
G01 X63.565583 Y106.920125 Z-0.125000
G01 X63.897754 Y107.091901 Z-0.125000
G02 X64.157240 Y107.090498 Z-0.125000 I0.128405 J-0.248311
G02 X64.181231 Y106.941407 Z-0.125000 I-0.044393 J-0.083619
G02 X63.847050 Y106.699369 Z-0.125000 I-0.830853 J0.795435
G02 X63.611945 Y106.668870 Z-0.125000 I-0.163960 J0.342487
G03 X63.358322 Y106.669676 Z-0.125000 I-0.128962 J-0.675942
G03 X63.057469 Y106.566707 Z-0.125000 I0.195856 J-1.063242
G02 X62.087619 Y106.301754 Z-0.125000 I-1.104751 J2.136369
G02 X61.079358 Y106.455578 Z-0.125000 I-0.138833 J2.471307
G01 X61.079341 Y106.455578 Z-0.125000
G00 Z5.000000

(End cutting path id: path1)


(Start cutting path id: path1)
(Change tool to Default tool)

G00 Z5.000000
G00 X63.584863 Y101.118762

G01 Z-0.125000 F100.0(Penetrate)
G03 X67.111369 Y103.150587 Z-0.125000 I-1.626783 J6.899775 F400.000000
G03 X69.786472 Y107.683883 Z-0.125000 I-8.619727 J8.142450
G03 X70.420310 Y111.698738 Z-0.125000 I-12.726141 J4.066577
G03 X69.816892 Y115.535906 Z-0.125000 I-12.201697 J0.047238
G03 X68.030163 Y118.973999 Z-0.125000 I-11.318318 J-3.698658
G03 X65.640440 Y121.113832 Z-0.125000 I-6.532882 J-4.891477
G03 X62.091533 Y121.922877 Z-0.125000 I-3.044570 J-5.166894
G03 X57.889731 Y120.459714 Z-0.125000 I0.753538 J-8.928743
G02 X57.127635 Y120.079840 Z-0.125000 I-1.910317 J2.878057
G02 X56.514080 Y119.974884 Z-0.125000 I-0.613555 J1.740884
G02 X55.877862 Y120.235544 Z-0.125000 I-0.000000 J0.906771
G02 X55.020503 Y121.445601 Z-0.125000 I2.959916 J3.005942
G03 X53.955558 Y123.071586 Z-0.125000 I-6.297124 J-2.962586
G03 X52.849670 Y123.920920 Z-0.125000 I-2.692786 J-2.361547
G03 X50.806495 Y124.338132 Z-0.125000 I-1.813437 J-3.669247
G03 X48.093690 Y123.653542 Z-0.125000 I0.413552 J-7.356039
G03 X45.624982 Y122.105735 Z-0.125000 I5.088583 J-10.858805
G03 X43.506026 Y119.929962 Z-0.125000 I8.210532 J-10.115826
G03 X42.574207 Y118.595911 Z-0.125000 I14.138991 J-10.868380
G03 X41.833211 Y117.285763 Z-0.125000 I12.894451 J-8.157487
G03 X40.689931 Y114.260308 Z-0.125000 I13.909364 J-6.984910
G03 X40.357572 Y111.675832 Z-0.125000 I9.770794 J-2.570115
G03 X40.552567 Y109.864528 Z-0.125000 I8.618627 J0.011687
G03 X41.076062 Y108.355310 Z-0.125000 I6.480588 J1.402489
G03 X41.894473 Y107.227834 Z-0.125000 I3.630477 J1.774515
G03 X43.106229 Y106.388054 Z-0.125000 I3.149014 J3.249714
G03 X44.686167 Y105.989752 Z-0.125000 I1.795921 J3.791142
G03 X46.508745 Y106.212642 Z-0.125000 I0.274282 J5.320275
G03 X47.852731 Y106.739190 Z-0.125000 I-2.674196 J8.804237
G03 X49.428175 Y107.629805 Z-0.125000 I-6.316139 J13.011614
G03 X50.452156 Y108.491939 Z-0.125000 I-2.984290 J4.583697
G03 X50.566134 Y108.855427 Z-0.125000 I-0.324626 J0.301406
G03 X50.446679 Y109.013631 Z-0.125000 I-0.202481 J-0.028686
G03 X49.868235 Y109.165465 Z-0.125000 I-0.755587 J-1.700807
G02 X48.860425 Y109.496787 Z-0.125000 I0.229005 J2.395015
G02 X48.035365 Y110.263946 Z-0.125000 I1.394827 J2.327345
G01 X47.739721 Y110.684588 Z-0.125000
G01 X47.813151 Y112.148077 Z-0.125000
G01 X47.886581 Y113.611567 Z-0.125000
G01 X48.277104 Y114.030237 Z-0.125000
G01 X48.667636 Y114.448907 Z-0.125000
G01 X49.704455 Y114.419527 Z-0.125000
G02 X51.023557 Y114.150439 Z-0.125000 I-0.110835 J-3.911065
G02 X51.892616 Y113.560396 Z-0.125000 I-0.870544 J-2.217232
G02 X52.452018 Y112.775485 Z-0.125000 I-2.657246 J-2.485601
G02 X52.579669 Y112.260942 Z-0.125000 I-0.973195 J-0.514543
G03 X52.624522 Y112.034848 Z-0.125000 I0.592275 J0.000000
G03 X52.789781 Y111.752218 Z-0.125000 I1.104398 J0.456132
G02 X52.934145 Y111.462362 Z-0.125000 I-0.626990 J-0.493154
G02 X52.999874 Y110.955071 Z-0.125000 I-1.924760 J-0.507291
G03 X53.087180 Y110.470275 Z-0.125000 I1.389649 J-0.000000
G03 X53.267432 Y110.236281 Z-0.125000 I0.468309 J0.174327
G02 X53.533252 Y110.045171 Z-0.125000 I-10.528114 J-14.924244
G02 X53.740136 Y109.889961 Z-0.125000 I-6.730921 J-9.187342
G02 X53.886557 Y109.692982 Z-0.125000 I-0.273747 J-0.356395
G02 X54.315337 Y108.373927 Z-0.125000 I-13.418504 J-5.091119
G03 X55.109030 Y106.100040 Z-0.125000 I16.641150 J4.533081
G03 X55.950901 Y104.566151 Z-0.125000 I8.364079 J3.592628
G03 X56.974992 Y103.303719 Z-0.125000 I8.068805 J5.498864
G03 X58.158527 Y102.265984 Z-0.125000 I6.605329 J6.339588
G03 X59.361888 Y101.543548 Z-0.125000 I4.469934 J6.082127
G03 X60.535497 Y101.124906 Z-0.125000 I2.574474 J5.362858
G03 X62.052782 Y100.942157 Z-0.125000 I1.530361 J6.315855
G03 X63.584871 Y101.118806 Z-0.125000 I0.013314 J6.616792
G01 X63.584863 Y101.118762 Z-0.125000
G00 Z5.000000

(End cutting path id: path1)


(Start cutting path id: path1)
(Change tool to Default tool)

G00 Z5.000000
G00 X34.939444 Y62.930771

G01 Z-0.125000 F100.0(Penetrate)
G03 X34.817873 Y63.479299 Z-0.125000 I-0.113821 J0.262510 F400.000000
G03 X31.306782 Y62.832461 Z-0.125000 I0.312972 J-11.551501
G01 X31.314445 Y62.781321 Z-0.125000
G03 X32.838418 Y62.771181 Z-0.125000 I0.914138 J22.861761
G03 X34.675267 Y62.865386 Z-0.125000 I-1.001536 J37.483205
G03 X34.939444 Y62.930727 Z-0.125000 I-0.062074 J0.817684
G01 X34.939444 Y62.930771 Z-0.125000
G00 Z5.000000

(End cutting path id: path1)


(Start cutting path id: path1)
(Change tool to Default tool)

G00 Z5.000000
G00 X30.075165 Y64.113883

G01 Z-0.125000 F100.0(Penetrate)
G01 X30.046165 Y65.715917 Z-0.125000 F400.000000
G01 X28.733024 Y65.773387 Z-0.125000
G01 X27.419883 Y65.830847 Z-0.125000
G01 X28.811813 Y65.852127 Z-0.125000
G01 X30.203743 Y65.873407 Z-0.125000
G01 X30.203743 Y64.192589 Z-0.125000
G02 X30.179213 Y62.536293 Z-0.125000 I-55.928949 J-0.000000
G01 X30.153953 Y62.511771 Z-0.125000
G01 X30.128225 Y62.536264 Z-0.125000
G02 X30.075173 Y64.113805 Z-0.125000 I50.764596 J2.496861
G01 X30.075165 Y64.113883 Z-0.125000
G00 Z5.000000

(End cutting path id: path1)


(Start cutting path id: path1)
(Change tool to Default tool)

G00 Z5.000000
G00 X30.893835 Y66.305417

G01 Z-0.125000 F100.0(Penetrate)
G03 X30.856744 Y66.526478 Z-0.125000 I-0.144627 J0.089376 F400.000000
G03 X30.602701 Y66.543170 Z-0.125000 I-0.138732 J-0.169886
G03 X30.545903 Y66.476326 Z-0.125000 I0.074788 J-0.121100
G03 X30.518901 Y66.340002 Z-0.125000 I0.330621 J-0.136324
G03 X30.657802 Y66.187700 Z-0.125000 I0.152948 J0.000000
G03 X30.893841 Y66.305412 Z-0.125000 I0.023001 J0.249389
G01 X30.893835 Y66.305417 Z-0.125000
G00 Z5.000000

(End cutting path id: path1)


(Start cutting path id: path1)
(Change tool to Default tool)

G00 Z5.000000
G00 X26.264317 Y66.707850

G01 Z-0.125000 F100.0(Penetrate)
G01 X26.684524 Y66.794760 Z-0.125000 F400.000000
G01 X26.182155 Y66.806820 Z-0.125000
G02 X25.082118 Y67.173933 Z-0.125000 I0.047512 J1.974029
G02 X24.740681 Y67.836244 Z-0.125000 I0.473751 J0.663395
G03 X24.530617 Y68.605823 Z-0.125000 I-1.521875 J-0.001952
G03 X24.165138 Y68.814874 Z-0.125000 I-0.365479 J-0.214953
G02 X24.022079 Y68.856350 Z-0.125000 I0.000000 J0.267457
G02 X23.612074 Y69.164993 Z-0.125000 I1.698298 J2.682688
G03 X22.716055 Y69.882336 Z-0.125000 I-7.462056 J-8.402434
G03 X21.404102 Y70.754687 Z-0.125000 I-12.371847 J-17.183653
G03 X21.339412 Y70.678584 Z-0.125000 I-0.026402 J-0.043103
G03 X21.899788 Y70.179563 Z-0.125000 I2.160885 J1.862418
G02 X23.141885 Y69.283502 Z-0.125000 I-14.663146 J-21.634579
G02 X23.656847 Y68.832003 Z-0.125000 I-3.180456 J-4.146931
G02 X24.460942 Y67.788433 Z-0.125000 I-3.623805 J-3.623797
G02 X24.634997 Y67.153412 Z-0.125000 I-1.106076 J-0.644533
G03 X24.656309 Y67.020374 Z-0.125000 I0.442978 J0.002739
G03 X24.744771 Y66.811998 Z-0.125000 I1.199339 J0.386187
G03 X25.034946 Y66.624394 Z-0.125000 I0.314578 J0.168356
G03 X26.264317 Y66.707825 Z-0.125000 I0.310325 J4.526523
G01 X26.264317 Y66.707850 Z-0.125000
G00 Z5.000000

(End cutting path id: path1)


(Start cutting path id: path1)
(Change tool to Default tool)

G00 Z5.000000
G00 X23.427933 Y67.572471

G01 Z-0.125000 F100.0(Penetrate)
G03 X22.816554 Y68.317934 Z-0.125000 I-2.834278 J-1.701049 F400.000000
G03 X21.328029 Y69.480442 Z-0.125000 I-8.530791 J-9.388949
G02 X20.668628 Y69.947809 Z-0.125000 I7.994785 J11.978577
G01 X20.676203 Y69.970489 Z-0.125000
G02 X21.149798 Y69.819587 Z-0.125000 I0.000000 J-0.818625
G02 X22.886357 Y68.402891 Z-0.125000 I-9.627637 J-13.574039
G02 X23.801479 Y67.329214 Z-0.125000 I-4.261626 J-4.559123
G02 X23.776677 Y67.080553 Z-0.125000 I-0.162435 J-0.109366
G01 X23.747611 Y67.083094 Z-0.125000
G02 X23.427933 Y67.572471 Z-0.125000 I6.258530 J4.437382
G01 X23.427933 Y67.572471 Z-0.125000
G00 Z5.000000

(End cutting path id: path1)


(Start cutting path id: path1)
(Change tool to Default tool)

G00 Z5.000000
G00 X19.724875 Y70.450149

G01 Z-0.125000 F100.0(Penetrate)
G02 X19.533220 Y70.624396 Z-0.125000 I0.338605 J0.564956 F400.000000
G01 X19.567298 Y70.664009 Z-0.125000
G02 X20.241516 Y70.243438 Z-0.125000 I-2.552234 J-4.842190
G01 X20.223867 Y70.184907 Z-0.125000
G02 X20.174733 Y70.195906 Z-0.125000 I-0.004591 J0.094736
G02 X19.724875 Y70.450149 Z-0.125000 I4.752752 J8.934638
G01 X19.724875 Y70.450149 Z-0.125000
G00 Z5.000000

(End cutting path id: path1)


(Start cutting path id: path1)
(Change tool to Default tool)

G00 Z5.000000
G00 X16.927342 Y73.280362

