%
(Header)
(Generated by gcodetools from Inkscape.)
(Using default header. To add your own header create file "header" in the output dir.)
M3 00000
(Header end.)
G21 (All units in mm)

(EMPTY GCODE FILE)

G00 Z5.000000
G00 X0.0000 Y0.0000

G01 X0.0000 Y0.0000 Z-1.000000 
G01 X0.0000 Y0.0000 Z-1.000000
G01 X0.0000 Y0.0000 Z-1.000000
G01 X0.0000 Y0.0000 Z-1.000000
G01 X0.0000 Y0.0000 Z-1.000000
G01 X0.0000 Y0.0000 Z-1.000000
G01 X0.0000 Y0.0000 Z-1.000000
G01 X0.0000 Y0.0000 Z-1.000000
G01 X0.0000 Y0.0000 Z-1.000000
G01 X0.0000 Y0.0000 Z-1.000000
G01 X0.0000 Y0.0000 Z-1.000000
G01 X0.0000 Y0.0000 Z-1.000000
G01 X0.0000 Y0.0000 Z-1.000000
G01 X0.0000 Y0.0000 Z-1.000000
G01 X0.0000 Y0.0000 Z-1.000000
G01 X0.0000 Y0.0000 Z-1.000000
G01 X0.0000 Y0.0000 Z-1.000000
G01 X0.0000 Y0.0000 Z-1.000000
G01 X0.0000 Y0.0000 Z-1.000000
G01 X0.0000 Y0.0000 Z-1.000000
G01 X0.0000 Y0.0000 Z-1.000000
G01 X0.0000 Y0.0000 Z-1.000000
G01 X0.0000 Y0.0000 Z-1.000000
G01 X0.0000 Y0.0000 Z-1.000000
G01 X0.0000 Y0.0000 Z-1.000000
G01 X0.0000 Y0.0000 Z-1.000000
G01 X0.0000 Y0.0000 Z-1.000000
G01 X0.0000 Y0.0000 Z-1.000000
G01 X0.0000 Y0.0000 Z-1.000000
G01 X0.0000 Y0.0000 Z-1.000000
G01 X0.0000 Y0.0000 Z-1.000000
G01 X0.0000 Y0.0000 Z-1.000000
G01 X0.0000 Y0.0000 Z-1.000000
G01 X0.0000 Y0.0000 Z-1.000000
G01 X0.0000 Y0.0000 Z-1.000000
G01 X0.0000 Y0.0000 Z-1.000000
G01 X0.0000 Y0.0000 Z-1.000000
G01 X0.0000 Y0.0000 Z-1.000000
G01 X0.0000 Y0.0000 Z-1.000000
G01 X0.0000 Y0.0000 Z-1.000000
G01 X0.0000 Y0.0000 Z-1.000000
G01 X0.0000 Y0.0000 Z-1.000000
G01 X0.0000 Y0.0000 Z-1.000000
G01 X0.0000 Y0.0000 Z-1.000000
G00 Z5.000000

(End cutting path id: path27)

(Footer)
M5
G00 X0.0000 Y0.0000
M2
(Using default footer. To add your own footer create file "footer" in the output dir.)
(end)
%
