%
(Header)
(Generated by gcodetools from Inkscape.)
(Using default header. To add your own header create file "header" in the output dir.)
M3 S2000
(Header end.)
G21 (All units in mm)

(Start cutting path id: path170)
(Change tool to Default tool)

G00 Z5.000000
G00 X60.213354 Y3.351226

G01 Z-1.000000 F100.0(Penetrate)
G02 X59.989572 Y3.438158 Z-1.000000 I0.531058 J1.698561 F400.000000
G02 X59.892071 Y3.501829 Z-1.000000 I0.176382 J0.376585
G03 X59.579747 Y3.687873 Z-1.000000 I-0.662016 J-0.756189
G03 X59.213694 Y3.753609 Z-1.000000 I-0.366053 J-0.986316
G02 X58.846338 Y3.848428 Z-1.000000 I-0.000000 J0.759030
G02 X58.263160 Y4.279306 Z-1.000000 I1.341980 J2.426417
G03 X57.902725 Y4.607446 Z-1.000000 I-5.849791 J-6.063498
G01 X57.882944 Y4.605838 Z-1.000000
G03 X57.866662 Y4.582030 Z-1.000000 I0.110063 J-0.092741
G03 X57.685478 Y4.243933 Z-1.000000 I22.413201 J-12.228695
G02 X57.111812 Y3.701024 Z-1.000000 I-1.083319 J0.570153
G02 X56.378808 Y3.645637 Z-1.000000 I-0.441443 J0.964094
G03 X56.014265 Y3.727716 Z-1.000000 I-0.900447 J-3.148628
G03 X55.554284 Y3.782410 Z-1.000000 I-0.823644 J-4.965357
G02 X54.770611 Y3.907162 Z-1.000000 I0.335525 J4.631546
G02 X54.335851 Y4.084971 Z-1.000000 I0.392247 J1.579503
G03 X54.129346 Y4.160183 Z-1.000000 I-0.305571 J-0.517891
G03 X53.411125 Y4.239435 Z-1.000000 I-1.071057 J-6.412367
G02 X52.688167 Y4.313810 Z-1.000000 I0.409093 J7.527476
G02 X52.359654 Y4.399088 Z-1.000000 I0.247268 J1.627942
G02 X51.821100 Y4.664124 Z-1.000000 I1.052013 J2.817384
G02 X51.502897 Y4.932990 Z-1.000000 I0.766252 J1.229589
G03 X51.187202 Y5.169001 Z-1.000000 I-0.728648 J-0.645513
G03 X50.822394 Y5.251765 Z-1.000000 I-0.371904 J-0.793897
G02 X49.888865 Y5.434142 Z-1.000000 I0.017974 J2.572409
G02 X49.105563 Y5.934213 Z-1.000000 I0.913316 J2.294110
G02 X48.960425 Y6.092992 Z-1.000000 I1.015489 J1.073967
G02 X48.769206 Y6.360758 Z-1.000000 I2.717193 J2.142585
G03 X48.460916 Y6.642808 Z-1.000000 I-0.690206 J-0.444907
G03 X48.022332 Y6.753134 Z-1.000000 I-0.447380 J-0.851565
G02 X47.683275 Y6.836289 Z-1.000000 I0.008759 J0.768529
G02 X47.086680 Y7.228734 Z-1.000000 I1.442777 J2.843004
G03 X46.749217 Y7.471448 Z-1.000000 I-1.886302 J-2.266709
G03 X46.544418 Y7.563409 Z-1.000000 I-0.451576 J-0.731642
G02 X46.349421 Y7.667051 Z-1.000000 I0.161747 J0.539578
G02 X45.919915 Y8.074517 Z-1.000000 I2.561747 J3.130414
G03 X45.491451 Y8.482504 Z-1.000000 I-3.066598 J-2.791531
G03 X45.314227 Y8.573934 Z-1.000000 I-0.299735 J-0.363518
G02 X44.025272 Y9.323367 Z-1.000000 I0.743869 J2.762542
G02 X42.480770 Y11.435137 Z-1.000000 I6.259346 J6.198642
G02 X42.355627 Y11.760565 Z-1.000000 I1.342406 J0.702997
G02 X42.347489 Y11.953184 Z-1.000000 I0.448689 J0.115438
G03 X42.262428 Y12.150821 Z-1.000000 I-0.195422 J0.033016
G03 X41.878440 Y12.267624 Z-1.000000 I-0.383988 J-0.572777
G02 X41.314584 Y12.391541 Z-1.000000 I0.000000 J1.344807
G02 X40.884617 Y12.726615 Z-1.000000 I0.502697 J1.088465
G02 X40.752806 Y12.914329 Z-1.000000 I1.326242 J1.071413
G02 X40.442043 Y13.456817 Z-1.000000 I10.839804 J6.569802
G03 X40.108926 Y13.970827 Z-1.000000 I-3.392882 J-1.833898
G03 X39.947059 Y14.101882 Z-1.000000 I-0.353796 J-0.271485
G02 X39.586058 Y14.400109 Z-1.000000 I0.414398 J0.869231
G02 X39.286778 Y14.998532 Z-1.000000 I1.583045 J1.165754
G03 X39.165469 Y15.272838 Z-1.000000 I-1.164167 J-0.350866
G03 X38.997886 Y15.480442 Z-1.000000 I-0.825254 J-0.494722
G02 X38.820418 Y15.683829 Z-1.000000 I0.917745 J0.979911
G02 X38.692256 Y15.911513 Z-1.000000 I1.025938 J0.727407
G03 X38.564116 Y16.140677 Z-1.000000 I-1.192915 J-0.516626
G03 X38.283799 Y16.494677 Z-1.000000 I-3.149610 J-2.206051
G02 X38.016413 Y16.853884 Z-1.000000 I1.886945 J1.683722
G02 X37.896347 Y17.124875 Z-1.000000 I0.943770 J0.580244
G03 X37.779520 Y17.397699 Z-1.000000 I-1.173560 J-0.341107
G03 X37.567951 Y17.690153 Z-1.000000 I-1.563661 J-0.908442
G02 X37.069469 Y18.549210 Z-1.000000 I1.865068 J1.656391
G02 X36.919768 Y19.611594 Z-1.000000 I2.757847 J0.930348
G02 X36.995622 Y20.005871 Z-1.000000 I1.391331 J-0.063238
G02 X37.133229 Y20.225336 Z-1.000000 I0.547500 J-0.190417
G01 X37.327644 Y20.419750 Z-1.000000
G01 X37.199789 Y20.608159 Z-1.000000
G02 X37.098200 Y20.804637 Z-1.000000 I0.770614 J0.522949
G02 X37.071935 Y20.949730 Z-1.000000 I0.387631 J0.145093
G03 X36.963526 Y21.208672 Z-1.000000 I-0.363455 J-0.000000
G03 X36.698967 Y21.317083 Z-1.000000 I-0.264559 J-0.268601
G02 X36.378368 Y21.440800 Z-1.000000 I-0.000000 J0.477256
G02 X36.078215 Y21.879984 Z-1.000000 I0.768304 J0.847244
G02 X36.021124 Y22.195484 Z-1.000000 I0.811009 J0.309670
G02 X36.085315 Y22.927506 Z-1.000000 I4.554907 J-0.030592
G03 X36.076752 Y23.109961 Z-1.000000 I-0.422410 J0.071604
G03 X35.979208 Y23.323070 Z-1.000000 I-0.678793 J-0.181818
G02 X35.586442 Y24.205025 Z-1.000000 I2.265341 J1.537270
G02 X35.412967 Y25.619909 Z-1.000000 I5.794335 J1.428505
G03 X35.389678 Y25.984093 Z-1.000000 I-3.004059 J-0.009269
G03 X35.325477 Y26.316022 Z-1.000000 I-2.527123 J-0.316617
G02 X35.276381 Y26.648794 Z-1.000000 I1.467886 J0.386575
G02 X35.285317 Y27.448242 Z-1.000000 I8.570598 J0.303972
G03 X35.330823 Y29.791573 Z-1.000000 I-30.481979 J1.764045
G03 X35.220777 Y30.848491 Z-1.000000 I-6.273958 J-0.119054
G02 X35.137941 Y31.624447 Z-1.000000 I4.670773 J0.891021
G02 X35.190627 Y32.093920 Z-1.000000 I1.742239 J0.042172
G03 X35.262993 Y32.539953 Z-1.000000 I-2.523356 J0.638284
G03 X35.294711 Y33.499075 Z-1.000000 I-11.711014 J0.867370
G02 X35.318337 Y34.460204 Z-1.000000 I14.776701 J0.117625
G02 X35.377941 Y34.957387 Z-1.000000 I4.021173 J-0.229910
G03 X35.456531 Y35.453581 Z-1.000000 I-10.132609 J1.859187
G03 X35.545890 Y36.215744 Z-1.000000 I-23.792947 J3.175888
G02 X35.821640 Y37.725816 Z-1.000000 I9.568073 J-0.966988
G02 X36.484639 Y39.737320 Z-1.000000 I17.689401 J-4.715473
G03 X36.664587 Y40.251536 Z-1.000000 I-6.394645 J2.526373
G03 X36.722265 Y40.513757 Z-1.000000 I-1.596636 J0.488651
G02 X36.784247 Y40.773056 Z-1.000000 I1.342012 J-0.183730
G02 X36.907606 Y41.049230 Z-1.000000 I1.647066 J-0.570063
G03 X37.107661 Y41.529522 Z-1.000000 I-2.029539 J1.127170
G03 X37.232131 Y42.167785 Z-1.000000 I-3.482668 J1.010435
G02 X37.314032 Y42.613194 Z-1.000000 I2.854497 J-0.294642
G02 X37.416642 Y42.858996 Z-1.000000 I0.958700 J-0.255893
G03 X37.526303 Y43.101048 Z-1.000000 I-1.097064 J0.642889
G03 X37.555201 Y43.276133 Z-1.000000 I-0.538102 J0.178741
G02 X37.619288 Y43.579504 Z-1.000000 I0.772473 J-0.004730
G02 X37.895614 Y44.059025 Z-1.000000 I2.259978 J-0.982944
G03 X37.990526 Y44.243911 Z-1.000000 I-0.522034 J0.384794
G03 X38.082517 Y44.635914 Z-1.000000 I-2.314214 J0.749868
G02 X38.293582 Y45.366771 Z-1.000000 I2.826547 J-0.420377
G02 X38.584426 Y45.776202 Z-1.000000 I1.139963 J-0.501767
G02 X38.730047 Y45.867989 Z-1.000000 I0.314086 J-0.336890
G02 X39.021285 Y45.947931 Z-1.000000 I0.519309 J-1.321433
G03 X39.324874 Y46.008678 Z-1.000000 I-0.684848 J4.211578
G03 X39.831856 Y46.140918 Z-1.000000 I-2.839142 J11.922658
G01 X40.336404 Y46.284096 Z-1.000000
G01 X40.061048 Y46.584987 Z-1.000000
G02 X39.795593 Y46.893318 Z-1.000000 I4.947455 J4.527902
G02 X39.687456 Y47.046511 Z-1.000000 I1.108204 J0.897032
G02 X39.581201 Y47.408291 Z-1.000000 I0.618215 J0.378064
G02 X39.674716 Y47.613389 Z-1.000000 I0.258905 J0.005820
G03 X39.786641 Y47.791424 Z-1.000000 I-0.215515 J0.259686
G03 X39.910809 Y48.560197 Z-1.000000 I-4.489682 J1.119564
G02 X40.050326 Y49.260386 Z-1.000000 I2.953986 J-0.224607
G02 X40.362821 Y49.935824 Z-1.000000 I3.058201 J-1.004884
G03 X40.469896 Y50.156991 Z-1.000000 I-1.067606 J0.653369
G03 X40.574725 Y50.511724 Z-1.000000 I-2.663162 J0.979862
G02 X40.682306 Y50.866442 Z-1.000000 I2.497789 J-0.563874
G02 X40.884235 Y51.317168 Z-1.000000 I4.248429 J-1.632733
G01 X41.111555 Y51.758661 Z-1.000000
G01 X41.150255 Y52.535099 Z-1.000000
G02 X41.510937 Y56.161899 Z-1.000000 I36.922026 J-1.840526
G02 X41.952981 Y57.902990 Z-1.000000 I8.880246 J-1.327938
G03 X42.031029 Y58.215394 Z-1.000000 I-1.457833 J0.530164
G03 X42.041821 Y58.529651 Z-1.000000 I-1.464175 J0.207593
G03 X41.962610 Y58.823893 Z-1.000000 I-0.801548 J-0.057997
G03 X41.745271 Y59.137781 Z-1.000000 I-1.133889 J-0.552927
G02 X41.454871 Y59.654927 Z-1.000000 I0.885184 J0.837178
G02 X41.249430 Y60.959156 Z-1.000000 I5.825766 J1.585964
G01 X41.204860 Y61.913381 Z-1.000000
G01 X40.985857 Y62.351381 Z-1.000000
G02 X40.803119 Y62.797997 Z-1.000000 I2.869954 J1.434963
G02 X40.766040 Y63.030346 Z-1.000000 I0.725636 J0.234934
G03 X40.679325 Y63.307278 Z-1.000000 I-0.491206 J-0.001768
G03 X40.440260 Y63.503065 Z-1.000000 I-0.458334 J-0.315799
G02 X39.798603 Y64.053994 Z-1.000000 I0.555693 J1.296334
G02 X39.213301 Y65.473947 Z-1.000000 I3.948724 J2.458262
G03 X38.953657 Y66.184775 Z-1.000000 I-2.956078 J-0.676931
G03 X38.735687 Y66.401966 Z-1.000000 I-0.445820 J-0.229448
G02 X38.483105 Y66.612012 Z-1.000000 I0.339041 J0.664589
G02 X38.410784 Y66.824849 Z-1.000000 I0.277024 J0.212837
G03 X38.299671 Y67.002012 Z-1.000000 I-0.196795 J0.000000
G03 X37.901559 Y67.071129 Z-1.000000 I-0.319885 J-0.661419
G02 X37.474083 Y67.134531 Z-1.000000 I-0.091540 J0.855600
G02 X37.253446 Y67.346127 Z-1.000000 I0.167873 J0.395876
G03 X37.140933 Y67.522428 Z-1.000000 I-0.757817 J-0.359579
G03 X36.601757 Y68.130897 Z-1.000000 I-9.752848 J-8.099054
G02 X36.072577 Y68.745664 Z-1.000000 I6.337782 J5.990576
G02 X35.915681 Y69.007238 Z-1.000000 I0.971630 J0.760642
G03 X35.746015 Y69.247052 Z-1.000000 I-0.678346 J-0.299998
G03 X35.427327 Y69.467432 Z-1.000000 I-0.884979 J-0.939139
G02 X35.100703 Y69.683113 Z-1.000000 I0.666352 J1.364272
G02 X34.925248 Y69.901492 Z-1.000000 I0.508594 J0.588298
G03 X34.640342 Y70.217977 Z-1.000000 I-0.797083 J-0.431068
G03 X34.204686 Y70.395182 Z-1.000000 I-0.624799 J-0.911933
G02 X33.220241 Y70.791839 Z-1.000000 I0.433342 J2.495443
G02 X32.603727 Y71.476687 Z-1.000000 I1.068639 J1.581934
G03 X32.374855 Y71.730422 Z-1.000000 I-0.622469 J-0.331386
G03 X31.941859 Y71.921905 Z-1.000000 I-0.755544 J-1.123188
G02 X31.725985 Y72.006264 Z-1.000000 I0.210306 J0.856566
G02 X31.510015 Y72.160284 Z-1.000000 I0.557529 J1.010202
G03 X31.294550 Y72.317825 Z-1.000000 I-0.867284 J-0.960050
G03 X31.044514 Y72.431773 Z-1.000000 I-0.690605 J-1.184091
G02 X30.783903 Y72.530765 Z-1.000000 I1.241453 J3.660839
G02 X29.832127 Y72.942979 Z-1.000000 I20.924436 J49.618146
G03 X28.023853 Y73.583600 Z-1.000000 I-5.009557 J-11.268017
G03 X26.854042 Y73.743541 Z-1.000000 I-1.212552 J-4.510643
G02 X26.309520 Y73.806144 Z-1.000000 I0.020748 J2.579920
G01 X26.299222 Y73.867569 Z-1.000000
G03 X26.342324 Y73.918044 Z-1.000000 I-0.057143 J0.092436
G03 X26.362602 Y74.019006 Z-1.000000 I-0.241198 J0.100962
G03 X26.251386 Y74.378228 Z-1.000000 I-0.635741 J-0.000000
G03 X26.040439 Y74.489435 Z-1.000000 I-0.210947 J-0.144467
G01 X26.010605 Y74.467581 Z-1.000000
G03 X25.956069 Y74.222677 Z-1.000000 I1.372649 J-0.434190
G02 X25.762997 Y73.935206 Z-1.000000 I-0.386965 J0.051324
G02 X25.329182 Y73.863905 Z-1.000000 I-0.312519 J0.546072
G03 X24.662745 Y73.930312 Z-1.000000 I-0.682810 J-3.475146
G03 X24.350623 Y73.868405 Z-1.000000 I-0.003695 J-0.799148
G02 X24.139382 Y73.812823 Z-1.000000 I-0.305593 J0.732206
G02 X23.232978 Y73.734644 Z-1.000000 I-1.631556 J13.622722
G03 X21.936541 Y73.620253 Z-1.000000 I0.978637 J-18.495024
G03 X20.874015 Y73.442694 Z-1.000000 I1.559796 J-12.601804
G02 X20.283285 Y73.328375 Z-1.000000 I-3.666883 J17.364816
G02 X19.829843 Y73.258854 Z-1.000000 I-1.801369 J10.235632
G03 X19.242207 Y73.134176 Z-1.000000 I0.492138 J-3.766733
G03 X18.451557 Y72.850283 Z-1.000000 I2.114015 J-7.130528
G02 X17.896263 Y72.641916 Z-1.000000 I-2.741323 J6.461457
G02 X17.585909 Y72.566567 Z-1.000000 I-0.633864 J1.933990
G03 X17.198797 Y72.451653 Z-1.000000 I0.249665 J-1.550541
G03 X16.614029 Y72.135497 Z-1.000000 I1.726033 J-3.891377
G02 X16.282768 Y71.954257 Z-1.000000 I-1.402411 J2.169899
G02 X16.079334 Y71.891893 Z-1.000000 I-0.340168 J0.746658
G03 X15.890384 Y71.821795 Z-1.000000 I0.090307 J-0.533131
G03 X15.794549 Y71.720004 Z-1.000000 I0.133978 J-0.222148
G02 X15.698515 Y71.609106 Z-1.000000 I-0.283594 J0.148554
G02 X15.301321 Y71.363413 Z-1.000000 I-1.902539 J2.631788
G03 X14.930593 Y71.098386 Z-1.000000 I0.764126 J-1.460688
G03 X14.786606 Y70.874877 Z-1.000000 I0.386286 J-0.406984
G02 X14.495848 Y70.422504 Z-1.000000 I-1.077074 J0.372651
G02 X13.791825 Y69.926756 Z-1.000000 I-2.016138 J2.115388
G03 X13.400773 Y69.618647 Z-1.000000 I0.557933 J-1.110344
G03 X12.599269 Y68.516054 Z-1.000000 I7.114595 J-6.014401
G02 X12.213321 Y67.913013 Z-1.000000 I-21.754767 J13.498086
G01 X12.194722 Y67.903003 Z-1.000000
G01 X12.184547 Y67.913915 Z-1.000000
G02 X12.204222 Y68.036872 Z-1.000000 I0.700560 J-0.049047
G03 X12.134242 Y68.101007 Z-1.000000 I-0.052341 J0.013135
G03 X11.741798 Y67.876923 Z-1.000000 I0.399768 J-1.155815
G02 X11.183214 Y67.482129 Z-1.000000 I-2.482031 J2.919207
G02 X10.956389 Y67.421074 Z-1.000000 I-0.226825 J0.390807
G03 X10.865148 Y67.395361 Z-1.000000 I0.000000 J-0.174740
G03 X10.715874 Y67.273821 Z-1.000000 I0.376255 J-0.614548
G03 X9.949442 Y66.225055 Z-1.000000 I3.879732 J-3.639721
G03 X9.956467 Y65.912029 Z-1.000000 I0.269940 J-0.150533
G03 X9.993070 Y65.885383 Z-1.000000 I0.050930 J0.031498
G03 X10.134469 Y65.868219 Z-1.000000 I0.141399 J0.573845
G02 X10.310803 Y65.760645 Z-1.000000 I-0.000000 J-0.198310
G02 X10.359686 Y65.430542 Z-1.000000 I-0.460239 J-0.236825
G03 X10.349943 Y65.153295 Z-1.000000 I0.937298 J-0.171733
G03 X10.410056 Y64.978375 Z-1.000000 I0.421062 J0.046912
G02 X10.579671 Y64.372852 Z-1.000000 I-0.975882 J-0.599875
G02 X10.404556 Y63.871086 Z-1.000000 I-0.817982 J0.004033
G03 X10.326288 Y63.721194 Z-1.000000 I0.360722 J-0.283734
G03 X10.250096 Y63.364451 Z-1.000000 I2.042637 J-0.622771
G02 X10.113601 Y62.826116 Z-1.000000 I-2.238633 J0.281135
G02 X9.953943 Y62.604774 Z-1.000000 I-0.507568 J0.197864
G03 X9.887315 Y62.442213 Z-1.000000 I0.119387 J-0.143868
G03 X10.005363 Y62.093146 Z-1.000000 I0.818258 J0.082226
G02 X10.113811 Y61.773620 Z-1.000000 I-0.644342 J-0.396857
G02 X10.072613 Y61.438466 Z-1.000000 I-0.753870 J-0.077442
G03 X10.046617 Y61.257997 Z-1.000000 I0.423320 J-0.153085
G03 X10.099393 Y60.999101 Z-1.000000 I0.943479 J0.057501
G02 X10.172504 Y60.592567 Z-1.000000 I-1.196860 J-0.425085
G02 X10.111643 Y60.160573 Z-1.000000 I-1.416700 J-0.020694
G03 X10.072003 Y59.777520 Z-1.000000 I0.968461 J-0.293800
G03 X10.162763 Y59.583147 Z-1.000000 I0.312830 J0.027697
G02 X10.269498 Y59.436776 Z-1.000000 I-0.414609 J-0.414438
G02 X10.356369 Y59.206545 Z-1.000000 I-0.960849 J-0.494054
G03 X10.431846 Y58.996208 Z-1.000000 I1.108215 J0.278957
G01 X10.459930 Y58.987908 Z-1.000000
G03 X10.488722 Y59.023370 Z-1.000000 I-0.036555 J0.059098
G03 X10.566179 Y59.281752 Z-1.000000 I-2.274272 J0.822580
G02 X10.646303 Y59.529535 Z-1.000000 I1.638551 J-0.393001
G01 X10.676323 Y59.549650 Z-1.000000
G02 X11.862336 Y58.590820 Z-1.000000 I0.000000 J-1.212926
G02 X11.209642 Y57.060244 Z-1.000000 I-1.411708 J-0.302450
G01 X11.172583 Y57.063226 Z-1.000000
G02 X11.024599 Y57.220876 Z-1.000000 I0.694045 J0.799769
G03 X10.873574 Y57.390655 Z-1.000000 I-1.199339 J-0.914796
G03 X10.831226 Y57.407776 Z-1.000000 I-0.042348 J-0.043813
G03 X10.701341 Y57.280807 Z-1.000000 I0.000000 J-0.129919
G03 X10.813696 Y56.633718 Z-1.000000 I1.697482 J-0.038561
G03 X10.865399 Y56.564941 Z-1.000000 I0.146311 J0.056167
G03 X11.028225 Y56.471291 Z-1.000000 I0.450643 J0.595140
G02 X11.183286 Y56.370264 Z-1.000000 I-0.197474 J-0.472602
G02 X11.265976 Y56.245714 Z-1.000000 I-0.230008 J-0.242429
G03 X11.748992 Y55.554198 Z-1.000000 I1.600171 J0.603251
G03 X12.204097 Y55.436275 Z-1.000000 I0.347052 J0.402228
G01 X12.224816 Y55.476433 Z-1.000000
G03 X12.068694 Y55.744088 Z-1.000000 I-1.249946 J-0.549729
G02 X11.891916 Y56.069462 Z-1.000000 I1.032775 J0.771826
G01 X11.928970 Y56.122637 Z-1.000000
G02 X12.178274 Y55.975446 Z-1.000000 I0.000000 J-0.284725
G02 X12.730355 Y54.669983 Z-1.000000 I-5.975460 J-3.296493
G03 X12.992093 Y54.169925 Z-1.000000 I1.458499 J0.444872
G03 X13.270371 Y53.986061 Z-1.000000 I0.417886 J0.329951
G02 X13.713326 Y53.784875 Z-1.000000 I-0.397745 J-1.463945
G02 X14.609052 Y53.094825 Z-1.000000 I-4.541677 J-6.821747
G03 X16.315820 Y51.792498 Z-1.000000 I9.676763 J10.912337
G03 X16.726157 Y51.713425 Z-1.000000 I0.301969 J0.462792
G02 X16.867596 Y51.709340 Z-1.000000 I0.061859 J-0.308807
G02 X17.346257 Y51.551537 Z-1.000000 I-1.011355 J-3.872591
G03 X17.827773 Y51.380367 Z-1.000000 I2.383554 J5.942280
G03 X18.223489 Y51.278620 Z-1.000000 I1.215275 J3.906085
G02 X18.613552 Y51.162602 Z-1.000000 I-0.466715 J-2.282861
G02 X19.447178 Y50.794797 Z-1.000000 I-4.298264 J-10.870573
G03 X20.273982 Y50.413457 Z-1.000000 I8.932928 J18.280960
G03 X20.372017 Y50.393085 Z-1.000000 I0.098036 J0.225702
G03 X20.455921 Y50.422353 Z-1.000000 I0.000000 J0.134899
G03 X20.533067 Y50.521055 Z-1.000000 I-0.166546 J0.209673
G02 X20.983440 Y50.781450 Z-1.000000 I0.407929 J-0.185869
G02 X21.883872 Y50.392583 Z-1.000000 I-0.150869 J-1.586264
G03 X22.096255 Y50.319281 Z-1.000000 I0.195813 J0.223015
G03 X22.466641 Y50.425173 Z-1.000000 I-0.048708 J0.871078
G02 X22.869379 Y50.567028 Z-1.000000 I0.634109 J-1.157654
G02 X23.979808 Y50.694580 Z-1.000000 I1.585332 J-8.904128
G02 X24.615906 Y50.691257 Z-1.000000 I0.289275 J-5.510297
G02 X24.829715 Y50.641070 Z-1.000000 I-0.041360 J-0.656736
G03 X25.119836 Y50.590482 Z-1.000000 I0.255089 J0.605715
G03 X25.211580 Y50.661450 Z-1.000000 I-0.005434 J0.101810
G02 X25.343023 Y50.811961 Z-1.000000 I0.238580 J-0.075703
G02 X25.810136 Y50.944933 Z-1.000000 I0.632891 J-1.336326
G03 X26.261811 Y51.073353 Z-1.000000 I-0.160112 J1.421657
G03 X26.791036 Y51.408872 Z-1.000000 I-1.090599 J2.305382
G02 X27.069009 Y51.604411 Z-1.000000 I1.437754 J-1.748518
G02 X27.565557 Y51.870933 Z-1.000000 I3.188871 J-5.345274
G03 X28.201556 Y52.315788 Z-1.000000 I-1.034103 J2.155497
G03 X28.873517 Y53.147901 Z-1.000000 I-3.171445 J3.248428
G03 X29.015793 Y53.419719 Z-1.000000 I-1.644624 J1.033980
G03 X29.040017 Y53.538256 Z-1.000000 I-0.277911 J0.118537
G02 X29.138134 Y53.901046 Z-1.000000 I0.719774 J-0.000000
G02 X29.481781 Y54.295248 Z-1.000000 I1.203766 J-0.702500
G02 X29.574976 Y54.329267 Z-1.000000 I0.098840 J-0.126107
G02 X29.656815 Y54.301448 Z-1.000000 I0.004289 J-0.121669
G03 X29.737388 Y54.279915 Z-1.000000 I0.063686 J0.076791
G03 X29.852176 Y54.335038 Z-1.000000 I-0.039325 J0.228970
G03 X30.237101 Y54.840811 Z-1.000000 I-1.088225 J1.227568
G03 X30.653965 Y55.971425 Z-1.000000 I-5.295674 J2.594706
G02 X30.805509 Y56.156936 Z-1.000000 I0.275863 J-0.070699
G02 X31.021263 Y56.149644 Z-1.000000 I0.100968 J-0.208084
G03 X31.274157 Y56.083981 Z-1.000000 I0.247291 J0.432589
G03 X31.342546 Y56.153144 Z-1.000000 I-0.000778 J0.069163
G03 X31.323802 Y56.231384 Z-1.000000 I-0.172659 J-0.000000
G03 X31.178927 Y56.475017 Z-1.000000 I-1.910443 J-0.971138
G02 X30.913450 Y56.954074 Z-1.000000 I2.338631 J1.609079
G02 X30.860622 Y57.208522 Z-1.000000 I0.586370 J0.254448
G03 X30.836753 Y57.324635 Z-1.000000 I-0.294356 J-0.000000
G03 X30.760762 Y57.441200 Z-1.000000 I-0.373025 J-0.160130
G02 X30.612978 Y57.679481 Z-1.000000 I0.529655 J0.493466
G02 X30.460323 Y58.238772 Z-1.000000 I2.896228 J1.090985
G02 X30.374568 Y59.255340 Z-1.000000 I5.686046 J0.991563
G02 X30.465523 Y59.448002 Z-1.000000 I0.251837 J-0.001091
G02 X30.562499 Y59.494507 Z-1.000000 I0.141130 J-0.169933
G02 X30.920343 Y59.540902 Z-1.000000 I0.499163 J-2.446823
G01 X31.288275 Y59.561722 Z-1.000000
G01 X31.255795 Y59.764782 Z-1.000000
G02 X31.269222 Y59.945070 Z-1.000000 I0.386791 J0.061839
G02 X31.340045 Y60.030301 Z-1.000000 I0.140236 J-0.044490
G02 X31.454974 Y60.052946 Z-1.000000 I0.094555 J-0.176919
G02 X31.591359 Y60.004541 Z-1.000000 I-0.031004 J-0.303695
G03 X31.772918 Y60.006498 Z-1.000000 I0.089320 J0.136316
G03 X31.979993 Y60.271336 Z-1.000000 I-0.316229 J0.460633
G02 X32.296409 Y60.938077 Z-1.000000 I4.067480 J-1.521855
G01 X32.374942 Y60.948236 Z-1.000000
G02 X32.449934 Y60.716318 Z-1.000000 I-0.189416 J-0.189332
G02 X32.141054 Y59.496101 Z-1.000000 I-7.051100 J1.135676
G03 X32.088623 Y58.986175 Z-1.000000 I1.044719 J-0.365079
G03 X32.226014 Y58.852589 Z-1.000000 I0.153319 J0.020241
G02 X32.489528 Y58.812743 Z-1.000000 I-0.288087 J-2.796454
G02 X32.552907 Y58.787319 Z-1.000000 I-0.036618 J-0.182999
G02 X32.597232 Y58.737860 Z-1.000000 I-0.065708 J-0.103478
G02 X32.729657 Y58.427255 Z-1.000000 I-2.841397 J-1.394952
G03 X32.978983 Y58.095571 Z-1.000000 I0.670529 J0.244483
G03 X33.159855 Y58.112760 Z-1.000000 I0.080755 J0.110465
G03 X33.295624 Y58.373609 Z-1.000000 I-0.403185 J0.375610
G03 X33.300487 Y58.773240 Z-1.000000 I-0.995427 J0.211960
G02 X33.304157 Y58.928423 Z-1.000000 I0.367519 J0.068945
G01 X33.344917 Y58.960652 Z-1.000000
G02 X33.437773 Y58.900328 Z-1.000000 I0.000000 J-0.101628
G02 X33.544237 Y58.512552 Z-1.000000 I-1.224553 J-0.544705
G03 X33.607297 Y58.210811 Z-1.000000 I1.730527 J0.204198
G03 X33.665041 Y58.114477 Z-1.000000 I0.221197 J0.067115
G03 X33.750316 Y58.083991 Z-1.000000 I0.074844 J0.074844
G03 X33.864925 Y58.134227 Z-1.000000 I-0.019938 J0.201341
G03 X34.067855 Y58.438441 Z-1.000000 I-0.483016 J0.541992
G03 X34.098709 Y58.808631 Z-1.000000 I-0.707879 J0.245381
G02 X34.149945 Y59.079230 Z-1.000000 I0.391148 J0.066090
G02 X34.319028 Y59.174828 Z-1.000000 I0.169083 J-0.101730
G03 X34.510269 Y59.352839 Z-1.000000 I0.000000 J0.191733
G03 X34.409508 Y60.435753 Z-1.000000 I-3.314049 J0.237785
G01 X34.263684 Y60.990160 Z-1.000000
G01 X34.379447 Y61.228423 Z-1.000000
G01 X34.495207 Y61.466694 Z-1.000000
G01 X34.386557 Y61.565014 Z-1.000000
G03 X34.284002 Y61.602576 Z-1.000000 I-0.097695 J-0.107954
G03 X34.200825 Y61.558814 Z-1.000000 I0.003599 J-0.107768
G02 X34.102878 Y61.492012 Z-1.000000 I-0.143043 J0.104527
G02 X33.723737 Y61.433196 Z-1.000000 I-0.472764 J1.796117
G02 X33.348756 Y61.439384 Z-1.000000 I-0.141467 J2.792127
G01 X33.323738 Y61.466586 Z-1.000000
G02 X33.409512 Y61.698189 Z-1.000000 I0.355568 J0.000000
G02 X33.914080 Y62.154197 Z-1.000000 I2.044602 J-1.755176
G02 X34.086823 Y62.230315 Z-1.000000 I0.280759 J-0.403087
G02 X34.304734 Y62.242267 Z-1.000000 I0.144427 J-0.640738
G03 X34.518752 Y62.264809 Z-1.000000 I0.055928 J0.496238
G03 X34.771318 Y62.398599 Z-1.000000 I-0.275383 J0.825153
G03 X34.791497 Y62.873208 Z-1.000000 I-0.186931 J0.245681
G03 X34.133231 Y62.975881 Z-1.000000 I-0.407373 J-0.450288
G01 X33.898563 Y62.869399 Z-1.000000
G01 X33.928473 Y63.053794 Z-1.000000
G03 X33.926101 Y63.233146 Z-1.000000 I-0.510892 J0.082933
G03 X33.855243 Y63.440515 Z-1.000000 I-0.761322 J-0.144351
G02 X33.822513 Y63.620943 Z-1.000000 I0.283740 J0.144655
G02 X33.881603 Y63.673730 Z-1.000000 I0.059091 J-0.006679
G03 X34.099626 Y63.840940 Z-1.000000 I0.000000 J0.225744
G03 X34.002785 Y64.125109 Z-1.000000 I-0.260291 J0.069882
G03 X33.509930 Y64.398040 Z-1.000000 I-1.175417 J-1.541087
G03 X33.279398 Y64.397280 Z-1.000000 I-0.114266 J-0.303679
G03 X33.147605 Y64.186634 Z-1.000000 I0.073927 J-0.192806
G03 X33.342898 Y63.665282 Z-1.000000 I1.032605 J0.089551
G02 X33.434333 Y63.539750 Z-1.000000 I-110.653609 J-80.693945
G02 X33.566479 Y63.357918 Z-1.000000 I-181.672695 J-132.169155
G02 X33.710879 Y62.990604 Z-1.000000 I-0.637049 J-0.462480
G02 X33.637229 Y62.777035 Z-1.000000 I-0.256054 J-0.031183
G02 X33.567885 Y62.742032 Z-1.000000 I-0.087826 J0.087800
G02 X33.427522 Y62.745345 Z-1.000000 I-0.060700 J0.403320
G03 X33.313486 Y62.726523 Z-1.000000 I-0.032072 J-0.160555
G03 X33.261306 Y62.649235 Z-1.000000 I0.053373 J-0.092292
G02 X33.144326 Y62.476876 Z-1.000000 I-0.234565 J0.033323
G02 X32.771050 Y62.368965 Z-1.000000 I-0.409127 J0.715656
G02 X32.653826 Y62.411513 Z-1.000000 I-0.007864 J0.161091
G02 X32.603956 Y62.522459 Z-1.000000 I0.105098 J0.113922
G03 X32.557989 Y62.656040 Z-1.000000 I-0.230624 J-0.004661
G03 X32.413452 Y62.776729 Z-1.000000 I-0.327186 J-0.244946
G03 X32.012859 Y62.876070 Z-1.000000 I-0.422191 J-0.845121
G03 X31.824432 Y62.790199 Z-1.000000 I-0.005437 J-0.237738
G02 X31.681728 Y62.729529 Z-1.000000 I-0.130175 J0.108023
G02 X31.316629 Y62.827909 Z-1.000000 I0.074514 J1.003178
G03 X31.082361 Y62.894345 Z-1.000000 I-0.304009 J-0.625746
G03 X30.988682 Y62.860949 Z-1.000000 I-0.011633 J-0.115457
G03 X30.962855 Y62.709881 Z-1.000000 I0.093776 J-0.093774
G03 X31.245946 Y62.323895 Z-1.000000 I1.166730 J0.558901
G02 X31.393774 Y62.038236 Z-1.000000 I-0.328158 J-0.350900
G02 X31.301806 Y61.916356 Z-1.000000 I-0.107261 J-0.014702
G02 X31.203887 Y61.924178 Z-1.000000 I-0.031573 J0.221552
G01 X31.181870 Y61.954066 Z-1.000000
G03 X30.885102 Y62.230576 Z-1.000000 I-0.277202 J0.000000
G03 X30.113375 Y61.878566 Z-1.000000 I0.085593 J-1.209601
G03 X30.112869 Y61.746014 Z-1.000000 I0.066533 J-0.066531
G03 X30.744444 Y61.237748 Z-1.000000 I2.507883 J2.469783
G02 X31.332533 Y60.853237 Z-1.000000 I-11.109235 J-17.632958
G02 X31.427090 Y60.774789 Z-1.000000 I-0.357374 J-0.526970
G01 X31.418117 Y60.733519 Z-1.000000
G02 X31.268148 Y60.714739 Z-1.000000 I-0.113952 J0.301789
G03 X31.030211 Y60.714492 Z-1.000000 I-0.117885 J-1.043809
G03 X30.944765 Y60.678289 Z-1.000000 I0.018782 J-0.163266
G02 X30.811351 Y60.674731 Z-1.000000 I-0.068972 J0.083121
G02 X29.861359 Y61.483484 Z-1.000000 I5.646758 J7.595216
G03 X28.995048 Y62.170044 Z-1.000000 I-3.812396 J-3.920694
G03 X28.485796 Y62.363094 Z-1.000000 I-0.715231 J-1.118519
G02 X28.298425 Y62.431722 Z-1.000000 I0.079614 J0.507467
G02 X28.057421 Y62.623693 Z-1.000000 I0.636844 J1.046769
G03 X27.816691 Y62.823286 Z-1.000000 I-1.054078 J-1.026360
G03 X27.567436 Y62.948779 Z-1.000000 I-0.647891 J-0.976562
G02 X27.302419 Y63.052539 Z-1.000000 I1.884765 J5.204257
G02 X26.228756 Y63.513134 Z-1.000000 I35.678718 J84.650051
G03 X24.590971 Y64.061478 Z-1.000000 I-3.907709 J-8.951457
G03 X24.301396 Y63.973669 Z-1.000000 I-0.069677 J-0.291602
G02 X24.048431 Y63.798766 Z-1.000000 I-0.520425 J0.482312
G02 X23.305650 Y63.568438 Z-1.000000 I-1.710260 J4.202543
G03 X22.157513 Y63.128791 Z-1.000000 I0.872523 J-3.997592
G03 X21.088228 Y62.309092 Z-1.000000 I2.426665 J-4.272832
G03 X20.514239 Y61.600001 Z-1.000000 I3.292192 J-3.251794
G03 X20.016915 Y60.680148 Z-1.000000 I5.079098 J-3.340412
G02 X19.645690 Y59.974765 Z-1.000000 I-4.884045 J2.119976
G02 X19.151382 Y59.297663 Z-1.000000 I-4.992133 J3.125445
G03 X18.771868 Y58.698955 Z-1.000000 I1.983720 J-1.677098
G03 X18.539900 Y57.957635 Z-1.000000 I2.837727 J-1.294911
G02 X18.154099 Y56.949447 Z-1.000000 I-2.856160 J0.515050
G02 X17.760342 Y56.693361 Z-1.000000 I-0.467716 J0.288397
G03 X17.503346 Y56.646096 Z-1.000000 I0.374798 J-2.760253
G03 X17.243034 Y56.572878 Z-1.000000 I0.675872 J-2.902261
G02 X16.766891 Y56.535912 Z-1.000000 I-0.312966 J0.946203
G02 X16.527979 Y56.691654 Z-1.000000 I0.058141 J0.350309
G02 X16.485913 Y56.829477 Z-1.000000 I0.215273 J0.141037
G02 X16.524079 Y57.003436 Z-1.000000 I0.393153 J0.004909
G02 X16.639640 Y57.149030 Z-1.000000 I0.374344 J-0.178466
G02 X16.934016 Y57.330803 Z-1.000000 I0.896600 J-1.122762
G03 X17.238524 Y57.494489 Z-1.000000 I-1.197601 J2.593007
G01 X17.259500 Y57.532121 Z-1.000000
G01 X17.235314 Y57.557012 Z-1.000000
G03 X16.782017 Y57.545851 Z-1.000000 I-0.122116 J-4.251147
G02 X16.180014 Y57.595085 Z-1.000000 I-0.148161 J1.893476
G02 X15.919430 Y57.758483 Z-1.000000 I0.117255 J0.476481
G03 X15.833623 Y57.832310 Z-1.000000 I-0.262805 J-0.218673
G03 X15.510555 Y58.005784 Z-1.000000 I-1.847482 J-3.053068
G02 X15.067397 Y58.322967 Z-1.000000 I0.650843 J1.377512
G02 X14.757376 Y58.782886 Z-1.000000 I1.133175 J1.098296
G02 X14.511437 Y59.908109 Z-1.000000 I2.634022 J1.165205
G02 X14.714366 Y61.880628 Z-1.000000 I8.536216 J0.118507
G02 X15.184665 Y63.136582 Z-1.000000 I4.711487 J-1.048211
G02 X16.091361 Y64.415200 Z-1.000000 I5.793483 J-3.147500
G03 X16.336192 Y64.711958 Z-1.000000 I-3.091559 J2.799964
G03 X16.493113 Y64.950683 Z-1.000000 I-1.839169 J1.379881
G02 X17.970769 Y67.033495 Z-1.000000 I11.365838 J-6.497949
G02 X18.658198 Y67.445627 Z-1.000000 I0.973972 J-0.845193
G02 X18.786619 Y67.466755 Z-1.000000 I0.236448 J-1.036346
G02 X19.078277 Y67.488537 Z-1.000000 I0.545304 J-5.337979
G03 X19.361208 Y67.609248 Z-1.000000 I-0.020873 J0.440855
G03 X19.535034 Y67.921977 Z-1.000000 I-0.411033 J0.433140
G02 X19.682051 Y68.191839 Z-1.000000 I0.516254 J-0.106271
G02 X19.979086 Y68.357904 Z-1.000000 I0.452837 J-0.461294
G03 X20.547180 Y68.553713 Z-1.000000 I-0.819488 J3.299559
G03 X21.299498 Y68.948250 Z-1.000000 I-2.771603 J6.199536
G02 X21.977488 Y69.273910 Z-1.000000 I1.998799 J-3.292707
G02 X22.355370 Y69.333667 Z-1.000000 I0.341693 J-0.936071
G03 X22.638645 Y69.368783 Z-1.000000 I0.032631 J0.896884
G03 X23.102851 Y69.551029 Z-1.000000 I-0.765732 J2.632755
G02 X24.735692 Y70.081135 Z-1.000000 I2.554894 J-5.089818
G02 X25.977901 Y70.022742 Z-1.000000 I0.483849 J-2.949066
G03 X26.319369 Y69.952165 Z-1.000000 I0.844092 J3.222565
G03 X26.890497 Y69.883595 Z-1.000000 I1.357596 J8.894825
G02 X28.106689 Y69.595328 Z-1.000000 I-0.377576 J-4.302657
G02 X29.039941 Y69.030243 Z-1.000000 I-1.214357 J-3.058730
G03 X29.556956 Y68.686274 Z-1.000000 I1.639144 J1.903232
G03 X30.215371 Y68.443293 Z-1.000000 I1.433368 J2.870496
G02 X30.824784 Y68.195640 Z-1.000000 I-0.561008 J-2.254136
G02 X31.238662 Y67.846393 Z-1.000000 I-0.793280 J-1.359941
G03 X31.614162 Y67.575503 Z-1.000000 I0.720851 J0.603523
G03 X31.876743 Y67.594377 Z-1.000000 I0.111650 J0.282692
G02 X32.090685 Y67.664762 Z-1.000000 I0.278927 J-0.487486
G02 X32.235014 Y67.636117 Z-1.000000 I0.027742 J-0.238151
G02 X32.358643 Y67.534180 Z-1.000000 I-0.215360 J-0.387123
G02 X32.554713 Y67.256086 Z-1.000000 I-1.528048 J-1.285520
G03 X32.836882 Y66.916845 Z-1.000000 I1.159776 J0.677691
G03 X33.473305 Y66.463354 Z-1.000000 I2.752381 J3.189337
G02 X34.140585 Y65.925577 Z-1.000000 I-1.420506 J-2.445453
G02 X34.393914 Y65.455827 Z-1.000000 I-0.809683 J-0.739833
G03 X34.493780 Y65.271735 Z-1.000000 I0.413126 J0.104979
G03 X34.652382 Y65.175739 Z-1.000000 I0.245436 J0.226484
G02 X35.208138 Y64.783886 Z-1.000000 I-0.257064 J-0.954621
G02 X35.336824 Y64.187182 Z-1.000000 I-0.654975 J-0.453482
G03 X35.377086 Y63.967803 Z-1.000000 I0.309567 J-0.056570
G03 X35.580533 Y63.784060 Z-1.000000 I0.406820 J0.245944
G02 X35.798803 Y63.577909 Z-1.000000 I-0.207439 J-0.438258
G02 X35.893060 Y63.210862 Z-1.000000 I-0.678252 J-0.369802
G03 X36.079519 Y62.286304 Z-1.000000 I2.429725 J0.008930
G03 X36.646169 Y61.401329 Z-1.000000 I2.783134 J1.158143
G02 X36.881330 Y61.031765 Z-1.000000 I-0.909608 J-0.838403
G02 X37.064208 Y60.380596 Z-1.000000 I-2.729257 J-1.117764
G02 X37.224206 Y58.753999 Z-1.000000 I-13.273959 J-2.126839
G02 X37.194813 Y56.873267 Z-1.000000 I-17.792249 J-0.662533
G02 X37.080544 Y56.113113 Z-1.000000 I-4.754540 J0.326054
G02 X36.893986 Y55.588130 Z-1.000000 I-2.437720 J0.570629
G03 X36.628618 Y54.843051 Z-1.000000 I3.215981 J-1.565204
G03 X36.534471 Y54.062045 Z-1.000000 I3.444089 J-0.811348
G02 X36.506978 Y53.745676 Z-1.000000 I-2.017950 J0.015987
G02 X36.445301 Y53.526571 Z-1.000000 I-1.032442 J0.172392
G03 X36.385978 Y53.306884 Z-1.000000 I0.883176 J-0.356341
G03 X36.351751 Y52.881337 Z-1.000000 I3.317047 J-0.480941
G02 X36.306381 Y52.461721 Z-1.000000 I-2.319901 J0.038575
G02 X36.227682 Y52.265547 Z-1.000000 I-0.570149 J0.114853
G03 X36.113534 Y52.079123 Z-1.000000 I6.191667 J-3.919339
G03 X35.962141 Y51.817016 Z-1.000000 I12.153778 J-7.194793
G02 X35.626396 Y51.384672 Z-1.000000 I-1.625497 J0.915774
G02 X35.426283 Y51.304364 Z-1.000000 I-0.200113 J0.209169
G03 X35.116980 Y51.224482 Z-1.000000 I0.000000 J-0.638751
G03 X35.037101 Y51.088977 Z-1.000000 I0.074994 J-0.135505
G03 X35.051507 Y51.046212 Z-1.000000 I0.070678 J-0.000000
G03 X35.203373 Y50.870224 Z-1.000000 I1.490862 J1.132995
G02 X35.317584 Y50.683586 Z-1.000000 I-0.350804 J-0.342933
G02 X35.334479 Y50.480165 Z-1.000000 I-0.404710 J-0.136026
G02 X35.009110 Y49.765829 Z-1.000000 I-1.458996 J0.233283
G02 X34.476485 Y49.453758 Z-1.000000 I-0.701133 J0.586089
G03 X34.329812 Y49.374166 Z-1.000000 I0.050284 J-0.267608
G03 X34.231189 Y49.196767 Z-1.000000 I0.291256 J-0.278033
G02 X34.173143 Y48.975283 Z-1.000000 I-29.643065 J7.650529
G02 X34.149769 Y48.890776 Z-1.000000 I-4.330704 J1.152318
G02 X34.111274 Y48.815164 Z-1.000000 I-0.214602 J0.061652
G02 X33.961914 Y48.649822 Z-1.000000 I-1.211715 J0.944455
G02 X33.780623 Y48.539078 Z-1.000000 I-0.343866 J0.359156
G02 X33.532568 Y48.501282 Z-1.000000 I-0.226780 J0.655477
G03 X33.304932 Y48.445031 Z-1.000000 I-0.013496 J-0.434108
G03 X33.153947 Y48.287091 Z-1.000000 I0.186921 J-0.329827
G02 X32.510211 Y47.406002 Z-1.000000 I-3.034239 J1.541155
G02 X31.179390 Y46.338384 Z-1.000000 I-5.844542 J5.922145
G02 X30.814699 Y46.145194 Z-1.000000 I-1.299719 J2.012711
G02 X30.384760 Y46.001562 Z-1.000000 I-1.127949 J2.661035
G03 X29.828608 Y45.777239 Z-1.000000 I0.520878 J-2.092964
G03 X29.624208 Y45.563212 Z-1.000000 I0.262337 J-0.455153
G02 X29.443300 Y45.356150 Z-1.000000 I-0.511319 J0.264174
G02 X29.155691 Y45.234713 Z-1.000000 I-0.425935 J0.607477
G03 X28.982377 Y45.184563 Z-1.000000 I0.177151 J-0.936766
G03 X28.513127 Y44.980830 Z-1.000000 I2.834897 J-7.171787
G02 X27.596425 Y44.601623 Z-1.000000 I-4.206073 J8.870214
G02 X27.091357 Y44.475200 Z-1.000000 I-0.906143 J2.547995
G03 X26.621624 Y44.305130 Z-1.000000 I0.187705 J-1.252173
G03 X26.523097 Y44.129983 Z-1.000000 I0.106411 J-0.175147
G02 X26.410130 Y43.855071 Z-1.000000 I-0.390989 J0.000000
G02 X25.862357 Y43.461775 Z-1.000000 I-1.431112 J1.415106
G02 X25.579176 Y43.347778 Z-1.000000 I-0.934216 J1.911972
G02 X25.264738 Y43.269721 Z-1.000000 I-0.733705 J2.283232
G03 X24.953880 Y43.187981 Z-1.000000 I0.344000 J-1.940191
G03 X24.790322 Y43.102653 Z-1.000000 I0.216498 J-0.614410
G02 X24.625696 Y43.021697 Z-1.000000 I-0.324108 J0.451219
G02 X24.254852 Y42.942192 Z-1.000000 I-0.681452 J2.273937
G03 X23.461626 Y42.782881 Z-1.000000 I0.790874 J-5.992293
G03 X23.117541 Y42.633319 Z-1.000000 I0.340609 J-1.254193
G02 X22.653835 Y42.451167 Z-1.000000 I-0.730798 J1.179096
G02 X21.736703 Y42.362386 Z-1.000000 I-0.913601 J4.656221
G02 X20.567123 Y42.444066 Z-1.000000 I0.007481 J8.521650
G02 X20.043888 Y42.598611 Z-1.000000 I0.254447 J1.824477
G03 X19.652301 Y42.694665 Z-1.000000 I-0.438578 J-0.941745
G03 X19.324135 Y42.631201 Z-1.000000 I-0.032293 J-0.713207
G02 X18.756699 Y42.468101 Z-1.000000 I-0.832321 J1.827073
G02 X17.792472 Y42.427334 Z-1.000000 I-0.707818 J5.318080
G02 X17.293869 Y42.493967 Z-1.000000 I0.141241 J2.955677
G02 X17.038110 Y42.594330 Z-1.000000 I0.191196 J0.863293
G03 X16.789105 Y42.715593 Z-1.000000 I-0.912427 J-1.557319
G03 X16.677382 Y42.736870 Z-1.000000 I-0.111723 J-0.282680
G02 X16.398724 Y42.799662 Z-1.000000 I-0.000000 J0.649714
G02 X15.958796 Y43.078036 Z-1.000000 I0.925663 J1.949674
G03 X15.524443 Y43.298877 Z-1.000000 I-0.723520 J-0.885462
G03 X14.394596 Y43.486905 Z-1.000000 I-1.597995 J-6.113644
G02 X13.646210 Y43.553231 Z-1.000000 I1.950165 J26.259775
G02 X13.296881 Y43.600007 Z-1.000000 I0.593225 J5.758126
G02 X11.170669 Y44.346440 Z-1.000000 I1.058457 J6.416482
G02 X10.780246 Y45.013518 Z-1.000000 I0.374674 J0.667078
G03 X10.617098 Y45.302655 Z-1.000000 I-0.337784 J-0.000000
G03 X9.360870 Y45.870809 Z-1.000000 I-3.012009 J-4.986881
G02 X8.077329 Y46.411569 Z-1.000000 I2.270694 J7.183377
G02 X7.631916 Y46.795913 Z-1.000000 I0.634138 J1.185160
G03 X7.095926 Y47.393393 Z-1.000000 I-3.471985 J-2.575510
G03 X6.762517 Y47.600379 Z-1.000000 I-0.701840 J-0.758493
G02 X5.705444 Y48.314091 Z-1.000000 I1.000265 J2.621153
G02 X5.094137 Y49.399876 Z-1.000000 I1.963518 J1.820457
G03 X4.941539 Y49.662368 Z-1.000000 I-0.593245 J-0.169277
G03 X4.702432 Y49.799630 Z-1.000000 I-0.363315 J-0.355995
G02 X4.190711 Y50.140846 Z-1.000000 I0.224262 J0.890648
G02 X3.318819 Y51.653028 Z-1.000000 I5.927930 J4.425368
G02 X2.657485 Y53.576610 Z-1.000000 I12.709760 J5.445134
G02 X2.296507 Y55.534704 Z-1.000000 I12.811150 J3.374079
G03 X2.061771 Y56.787012 Z-1.000000 I-8.107557 J-0.871544
G03 X1.811277 Y57.333402 Z-1.000000 I-1.752222 J-0.472697
G02 X1.662942 Y57.680866 Z-1.000000 I0.816038 J0.553768
G02 X1.486503 Y58.851577 Z-1.000000 I9.470082 J2.025898
G03 X1.387911 Y59.783254 Z-1.000000 I-27.443208 J-2.433023
G03 X1.326286 Y60.153594 Z-1.000000 I-4.389506 J-0.540120
G02 X1.250675 Y60.850741 Z-1.000000 I3.461049 J0.728053
G02 X1.303249 Y62.790342 Z-1.000000 I27.076000 J0.236613
G02 X1.464942 Y64.118860 Z-1.000000 I11.483409 J-0.723540
G02 X1.602304 Y64.440340 Z-1.000000 I0.772610 J-0.140035
G03 X1.818951 Y64.898615 Z-1.000000 I-1.104743 J0.802607
G03 X1.946763 Y65.762216 Z-1.000000 I-3.919379 J1.021324
G02 X2.010213 Y66.584063 Z-1.000000 I10.820261 J-0.421997
G02 X2.061330 Y66.752837 Z-1.000000 I0.492037 J-0.056896
G03 X2.180127 Y67.098928 Z-1.000000 I-1.147748 J0.587403
G03 X2.347474 Y68.254691 Z-1.000000 I-12.900394 J2.457885
G02 X2.559610 Y69.452606 Z-1.000000 I7.976300 J-0.794768
G02 X2.728332 Y69.738643 Z-1.000000 I0.578556 J-0.148487
G03 X2.871801 Y69.999896 Z-1.000000 I-0.332724 J0.352737
G03 X2.828524 Y70.260183 Z-1.000000 I-0.373183 J0.071694
G02 X2.780892 Y70.539049 Z-1.000000 I0.358000 J0.204649
G02 X2.991539 Y71.151133 Z-1.000000 I2.123656 J-0.388559
G03 X3.219432 Y71.622875 Z-1.000000 I-7.269284 J3.802625
G03 X3.343032 Y71.942257 Z-1.000000 I-3.205030 J1.423946
G02 X3.567827 Y72.412503 Z-1.000000 I1.975658 J-0.655584
G02 X4.283074 Y73.404179 Z-1.000000 I9.634556 J-6.195158
G03 X5.325695 Y74.769400 Z-1.000000 I-25.696649 J20.705291
G03 X5.789931 Y75.487553 Z-1.000000 I-6.624674 J4.791517
G02 X6.459189 Y76.482539 Z-1.000000 I7.373492 J-4.237067
G02 X6.984146 Y77.017785 Z-1.000000 I2.620497 J-2.045063
G02 X7.234901 Y77.176263 Z-1.000000 I0.790937 J-0.973860
G02 X7.513904 Y77.270503 Z-1.000000 I0.532344 J-1.115907
G03 X7.796874 Y77.359827 Z-1.000000 I-0.307153 J1.465903
G03 X8.085493 Y77.515570 Z-1.000000 I-0.720093 J1.679761
G03 X8.326913 Y77.731120 Z-1.000000 I-0.621699 J0.939287
G03 X8.566581 Y78.089315 Z-1.000000 I-1.530438 J1.283292
G02 X9.322888 Y79.073273 Z-1.000000 I3.181218 J-1.662561
G02 X10.042089 Y79.441276 Z-1.000000 I1.027620 J-1.121532
G03 X10.151931 Y79.508788 Z-1.000000 I-0.038499 J0.185750
G03 X10.247018 Y79.698400 Z-1.000000 I-0.401395 J0.319941
G02 X10.661792 Y80.380226 Z-1.000000 I1.350473 J-0.354459
G02 X11.416770 Y80.754614 Z-1.000000 I1.043293 J-1.155445
G02 X11.705358 Y80.807206 Z-1.000000 I4.545636 J-24.125027
G02 X11.725133 Y80.808934 Z-1.000000 I0.019775 J-0.112310
G01 X11.742533 Y80.815417 Z-1.000000
G03 X12.064481 Y81.102581 Z-1.000000 I-9.378089 J10.838104
G02 X12.402865 Y81.357086 Z-1.000000 I1.456347 J-1.584118
G02 X12.605793 Y81.431716 Z-1.000000 I0.291490 J-0.479390
G03 X12.808563 Y81.502572 Z-1.000000 I-0.096036 J0.600394
G03 X12.995404 Y81.651547 Z-1.000000 I-0.369982 J0.655674
G02 X13.522344 Y82.151864 Z-1.000000 I3.680737 J-3.348949
G02 X13.896931 Y82.390206 Z-1.000000 I1.177747 J-1.437461
G02 X14.265942 Y82.536778 Z-1.000000 I1.247930 J-2.603993
G02 X14.554562 Y82.600350 Z-1.000000 I0.487006 J-1.524079
G03 X14.836950 Y82.669478 Z-1.000000 I-0.156194 J1.249395
G03 X15.006682 Y82.768396 Z-1.000000 I-0.200038 J0.538323
G02 X15.367245 Y82.978562 Z-1.000000 I0.786004 J-0.934103
G02 X16.294789 Y83.247319 Z-1.000000 I2.277961 J-6.126811
G03 X17.475023 Y83.600827 Z-1.000000 I-1.536007 J7.275106
G03 X18.296223 Y84.032743 Z-1.000000 I-1.540550 J3.925669
G02 X18.829940 Y84.295532 Z-1.000000 I1.220684 J-1.805800
G02 X19.559772 Y84.452348 Z-1.000000 I1.081492 J-3.256580
G03 X20.213158 Y84.583937 Z-1.000000 I-0.356625 J3.458701
G03 X21.070195 Y84.910944 Z-1.000000 I-1.910925 J6.294844
G02 X21.924405 Y85.202058 Z-1.000000 I1.797393 J-3.875247
G02 X22.191800 Y85.164854 Z-1.000000 I0.084408 J-0.372858
G03 X22.384561 Y85.110621 Z-1.000000 I0.214915 J0.394195
G03 X24.086756 Y85.071234 Z-1.000000 I1.601777 J32.422329
G03 X25.797703 Y85.104203 Z-1.000000 I-0.161696 J52.802714
G03 X26.175097 Y85.145304 Z-1.000000 I-0.092288 J2.600600
G02 X26.984405 Y85.223241 Z-1.000000 I0.859580 J-4.685033
G02 X29.379422 Y85.179144 Z-1.000000 I0.436490 J-41.354724
G01 X31.084430 Y85.098264 Z-1.000000
G01 X31.433616 Y84.934860 Z-1.000000
G03 X31.792553 Y84.814760 Z-1.000000 I0.700308 J1.496560
G03 X32.218553 Y84.769112 Z-1.000000 I0.437422 J2.071540
G02 X32.649706 Y84.741124 Z-1.000000 I-0.026104 J-3.737043
G02 X32.868494 Y84.688302 Z-1.000000 I-0.120801 J-0.979880
G03 X33.086372 Y84.624581 Z-1.000000 I0.589962 J1.612887
G03 X33.479825 Y84.552692 Z-1.000000 I1.150557 J5.184403
G02 X34.141686 Y84.384347 Z-1.000000 I-0.460242 J-3.194725
G02 X34.774035 Y84.072810 Z-1.000000 I-1.195185 J-3.223485
G03 X35.710285 Y83.577087 Z-1.000000 I3.833911 J6.108947
G03 X36.229443 Y83.434290 Z-1.000000 I0.748443 J1.705933
G02 X36.562141 Y83.367289 Z-1.000000 I-0.276851 J-2.234230
G02 X36.860770 Y83.256753 Z-1.000000 I-0.537193 J-1.909973
G03 X37.160230 Y83.148804 Z-1.000000 I0.754512 J1.623750
G03 X37.593884 Y83.064034 Z-1.000000 I0.878991 J3.345002
G02 X38.432956 Y82.771130 Z-1.000000 I-0.278831 J-2.147042
G02 X38.724768 Y82.382179 Z-1.000000 I-0.334616 J-0.554988
G03 X38.882344 Y82.211355 Z-1.000000 I0.240463 J0.063725
G03 X39.535119 Y82.095805 Z-1.000000 I0.674451 J1.908526
G02 X40.196408 Y82.009406 Z-1.000000 I-0.033047 J-2.826862
G02 X40.582598 Y81.829692 Z-1.000000 I-0.280762 J-1.108135
G03 X40.824958 Y81.692406 Z-1.000000 I0.758026 J1.055623
G03 X41.084280 Y81.612834 Z-1.000000 I0.488929 J1.131055
G02 X41.493558 Y81.458817 Z-1.000000 I-0.237403 J-1.251674
G02 X41.944325 Y81.106135 Z-1.000000 I-1.107683 J-1.880148
G03 X42.256443 Y80.836895 Z-1.000000 I1.761366 J1.726342
G03 X42.427742 Y80.755085 Z-1.000000 I0.307224 J0.423041
G02 X43.065418 Y80.461423 Z-1.000000 I-0.544031 J-2.020514
G02 X44.602105 Y79.267137 Z-1.000000 I-9.081260 J-13.270629
G03 X45.518218 Y78.534712 Z-1.000000 I8.279024 J9.416213
G03 X45.811817 Y78.389474 Z-1.000000 I0.574317 J0.791608
G02 X46.067713 Y78.216895 Z-1.000000 I-0.148624 J-0.496383
G02 X46.363455 Y77.700391 Z-1.000000 I-1.504821 J-1.204558
G03 X46.638332 Y77.271340 Z-1.000000 I1.170283 J0.447181
G03 X46.884714 Y77.167720 Z-1.000000 I0.246382 J0.241106
G02 X47.262985 Y77.071155 Z-1.000000 I-0.000000 J-0.789175
G02 X47.489777 Y76.837263 Z-1.000000 I-0.263425 J-0.482329
G03 X47.710438 Y76.549568 Z-1.000000 I0.878074 J0.445007
G03 X47.963428 Y76.412290 Z-1.000000 I0.414282 J0.461728
G02 X48.506301 Y76.061608 Z-1.000000 I-0.274973 J-1.021209
G02 X48.723836 Y75.484810 Z-1.000000 I-0.744068 J-0.610039
G03 X48.971815 Y74.556459 Z-1.000000 I2.138185 J0.073851
G03 X49.706394 Y73.631590 Z-1.000000 I2.856168 J1.514362
G02 X50.018302 Y73.322512 Z-1.000000 I-2.219112 J-2.551352
G02 X50.145469 Y73.135989 Z-1.000000 I-0.669203 J-0.592858
G03 X50.269606 Y72.945480 Z-1.000000 I0.958667 J0.488972
G03 X50.734558 Y72.412447 Z-1.000000 I8.081778 J6.580254
G02 X51.609061 Y71.355894 Z-1.000000 I-8.382756 J-7.828545
G02 X52.109467 Y70.532951 Z-1.000000 I-4.564986 J-3.339439
G02 X52.305475 Y70.016337 Z-1.000000 I-2.516869 J-1.250413
G02 X52.363956 Y69.592094 Z-1.000000 I-1.629629 J-0.440794
G03 X52.442526 Y69.102310 Z-1.000000 I1.668447 J0.016454
G03 X52.543424 Y69.028548 Z-1.000000 I0.100898 J0.032127
G02 X53.104364 Y68.716715 Z-1.000000 I0.000000 J-0.660440
G02 X53.416196 Y67.624183 Z-1.000000 I-1.757980 J-1.092532
G03 X53.529157 Y67.374447 Z-1.000000 I0.332542 J-0.000000
G03 X53.828697 Y67.261488 Z-1.000000 I0.299540 J0.340677
G02 X54.149469 Y67.150361 Z-1.000000 I0.000000 J-0.518523
G02 X54.260594 Y66.921427 Z-1.000000 I-0.180256 J-0.228934
G03 X54.405528 Y66.496127 Z-1.000000 I0.696475 J-0.000000
G03 X54.700312 Y66.351191 Z-1.000000 I0.294784 J0.227311
G02 X54.819380 Y66.331007 Z-1.000000 I-0.000000 J-0.361282
G02 X54.950711 Y66.263661 Z-1.000000 I-0.176824 J-0.506556
G02 X55.027385 Y66.153201 Z-1.000000 I-0.111658 J-0.159346
G02 X55.053361 Y65.868197 Z-1.000000 I-0.853081 J-0.221438
G02 X54.991247 Y65.571374 Z-1.000000 I-1.131543 J0.081879
G02 X54.750281 Y65.012350 Z-1.000000 I-4.308341 J1.525654
G03 X54.490020 Y64.467687 Z-1.000000 I9.659224 J-4.950068
G01 X54.495443 Y64.438507 Z-1.000000
G01 X54.526044 Y64.428666 Z-1.000000
G03 X55.059313 Y64.529597 Z-1.000000 I-1.596488 J9.894302
G02 X55.722903 Y64.570822 Z-1.000000 I0.466212 J-2.143055
G02 X56.242038 Y64.422719 Z-1.000000 I-0.130123 J-1.440004
G02 X56.714232 Y64.079977 Z-1.000000 I-0.811373 J-1.614467
G02 X56.863447 Y63.795518 Z-1.000000 I-0.389014 J-0.385425
G02 X56.889969 Y63.270873 Z-1.000000 I-1.918509 J-0.359979
G02 X56.772187 Y62.718279 Z-1.000000 I-2.248133 J0.190327
G03 X56.898017 Y62.451730 Z-1.000000 I0.198586 J-0.069228
G03 X57.303016 Y62.522554 Z-1.000000 I0.141556 J0.383910
G02 X57.465287 Y62.647707 Z-1.000000 I1.552912 J-1.845691
G01 X57.492756 Y62.656423 Z-1.000000
G01 X57.519816 Y62.646965 Z-1.000000
G02 X57.788930 Y62.420594 Z-1.000000 I-4.079001 J-5.122338
G03 X58.067778 Y62.210884 Z-1.000000 I1.424404 J1.603761
G03 X58.219722 Y62.148458 Z-1.000000 I0.253986 J0.402073
G02 X58.545431 Y61.969675 Z-1.000000 I-0.141257 J-0.643426
G02 X58.651762 Y61.714290 Z-1.000000 I-0.258919 J-0.257630
G03 X58.657144 Y61.666540 Z-1.000000 I0.214503 J0.000000
G03 X58.711222 Y61.452695 Z-1.000000 I4.634585 J1.058247
G01 X58.770382 Y61.239598 Z-1.000000
G01 X58.877738 Y61.452695 Z-1.000000
G02 X59.133614 Y61.809072 Z-1.000000 I1.260724 J-0.635141
G02 X59.380697 Y61.962411 Z-1.000000 I0.441448 J-0.435593
G02 X59.696312 Y61.944014 Z-1.000000 I0.134573 J-0.407805
G02 X59.938905 Y61.702844 Z-1.000000 I-0.211869 J-0.455717
G03 X60.151557 Y61.398626 Z-1.000000 I0.998302 J0.471393
G03 X60.643509 Y60.989125 Z-1.000000 I2.336297 J2.306446
G02 X61.080795 Y60.587433 Z-1.000000 I-1.143006 J-1.683150
G02 X61.167976 Y60.342354 Z-1.000000 I-0.303283 J-0.245932
G02 X61.144354 Y60.260111 Z-1.000000 I-0.154979 J-0.000000
G02 X61.007202 Y60.085814 Z-1.000000 I-0.877656 J0.549505
G03 X60.863650 Y59.908679 Z-1.000000 I0.877711 J-0.858038
G03 X60.686716 Y59.605151 Z-1.000000 I2.426415 J-1.617756
G02 X60.510004 Y59.305651 Z-1.000000 I-2.367168 J1.194800
G02 X60.436583 Y59.238451 Z-1.000000 I-0.179606 J0.122525
G02 X60.341107 Y59.210285 Z-1.000000 I-0.109622 J0.195687
G02 X60.047569 Y59.213681 Z-1.000000 I-0.124071 J1.963383
G03 X59.762200 Y59.190065 Z-1.000000 I-0.073585 J-0.846796
G03 X59.508214 Y59.074812 Z-1.000000 I0.200507 J-0.779345
G02 X59.077083 Y58.888706 Z-1.000000 I-0.693127 J1.013261
G02 X58.737021 Y58.906352 Z-1.000000 I-0.137764 J0.630656
G02 X58.466192 Y59.128947 Z-1.000000 I0.152257 J0.461304
G02 X57.957979 Y60.287123 Z-1.000000 I5.506906 J3.107048
G03 X57.130395 Y62.000852 Z-1.000000 I-6.649090 J-2.154251
G03 X56.679016 Y62.212030 Z-1.000000 I-0.399175 J-0.265224
G03 X56.464219 Y62.149606 Z-1.000000 I0.070791 J-0.644350
G03 X56.261892 Y62.007309 Z-1.000000 I0.349137 J-0.711416
G03 X56.107692 Y61.691741 Z-1.000000 I0.359897 J-0.371319
G03 X56.177552 Y61.229604 Z-1.000000 I0.910397 J-0.098728
G02 X56.390632 Y60.658352 Z-1.000000 I-5.480355 J-2.369569
G02 X56.483764 Y60.260153 Z-1.000000 I-2.561621 J-0.809109
G03 X56.529943 Y60.045337 Z-1.000000 I1.868525 J0.289307
G01 X56.546704 Y60.032583 Z-1.000000
G01 X56.571530 Y60.040580 Z-1.000000
G03 X56.736840 Y60.169235 Z-1.000000 I-1.606146 J2.234285
G02 X57.130788 Y60.305791 Z-1.000000 I0.375213 J-0.445918
G02 X57.303387 Y60.151015 Z-1.000000 I-0.005793 J-0.180084
G03 X57.346434 Y60.041183 Z-1.000000 I0.252559 J0.035635
G03 X57.557734 Y59.784657 Z-1.000000 I1.663938 J1.155296
G02 X57.610168 Y59.532107 Z-1.000000 I-0.172347 J-0.167501
G02 X57.439353 Y59.471780 Z-1.000000 I-0.110877 J0.041952
G03 X56.849188 Y59.677211 Z-1.000000 I-0.814768 J-1.390246
G03 X56.464894 Y59.608961 Z-1.000000 I-0.087636 J-0.622599
G03 X56.387406 Y59.523838 Z-1.000000 I0.081294 J-0.151832
G03 X56.348928 Y59.332911 Z-1.000000 I0.454446 J-0.190927
G02 X56.314044 Y59.144190 Z-1.000000 I-0.527931 J-0.000000
G02 X56.255218 Y59.088131 Z-1.000000 I-0.088350 J0.033818
G03 X56.162271 Y59.055337 Z-1.000000 I0.670646 J-2.048909
G03 X55.883843 Y58.947520 Z-1.000000 I7.141607 J-18.855984
G02 X55.611391 Y58.888830 Z-1.000000 I-0.313081 J0.791660
G02 X55.468852 Y58.927690 Z-1.000000 I-0.011418 J0.238968
G02 X55.339748 Y59.168728 Z-1.000000 I0.156565 J0.238952
G02 X55.472552 Y59.439685 Z-1.000000 I0.348000 J-0.002540
G02 X55.619105 Y59.534885 Z-1.000000 I0.596941 J-0.758543
G02 X55.682854 Y59.550669 Z-1.000000 I0.063749 J-0.120841
G03 X56.083658 Y59.857469 Z-1.000000 I-0.000000 J0.415205
G03 X55.866933 Y60.231270 Z-1.000000 I-0.293709 J0.079439
G02 X55.801169 Y60.291191 Z-1.000000 I0.024182 J0.092590
G02 X55.759837 Y60.526055 Z-1.000000 I0.646636 J0.234864
G03 X55.713040 Y60.772511 Z-1.000000 I-0.672381 J-0.000000
G03 X55.593530 Y60.948192 Z-1.000000 I-0.448783 J-0.176803
G03 X55.269741 Y61.089741 Z-1.000000 I-0.362466 J-0.388027
G03 X55.004893 Y60.991212 Z-1.000000 I-0.024739 J-0.338726
G03 X54.707738 Y60.547624 Z-1.000000 I0.973511 J-0.973469
G03 X54.543717 Y59.885288 Z-1.000000 I2.075200 J-0.865380
G03 X54.577484 Y59.596541 Z-1.000000 I0.704847 J-0.063921
G03 X54.736221 Y59.310716 Z-1.000000 I0.848630 J0.284308
G02 X54.762810 Y59.059109 Z-1.000000 I-0.176516 J-0.145862
G02 X54.557142 Y58.966758 Z-1.000000 I-0.161271 J0.083964
G02 X54.133451 Y59.392877 Z-1.000000 I0.142314 J0.565201
G02 X54.224293 Y60.321312 Z-1.000000 I1.364100 J0.335193
G03 X54.405094 Y60.747399 Z-1.000000 I-6.041236 J2.814866
G03 X54.421158 Y60.834063 Z-1.000000 I-0.225732 J0.086664
G03 X54.398428 Y60.914470 Z-1.000000 I-0.153584 J-0.000000
G03 X54.289995 Y61.047503 Z-1.000000 I-0.551876 J-0.339118
G02 X54.081074 Y61.343329 Z-1.000000 I0.618805 J0.658704
G02 X53.872190 Y62.000506 Z-1.000000 I3.001043 J1.315668
G02 X53.798606 Y62.383788 Z-1.000000 I15.110494 J3.099661
G01 X53.802730 Y62.388715 Z-1.000000
G01 X53.811184 Y62.384746 Z-1.000000
G02 X54.091832 Y62.040663 Z-1.000000 I-19.747823 J-16.393643
G03 X54.379453 Y61.710752 Z-1.000000 I4.118748 J3.300455
G03 X54.421634 Y61.692612 Z-1.000000 I0.042181 J0.039971
G01 X54.460533 Y61.712215 Z-1.000000
G03 X54.585355 Y61.913781 Z-1.000000 I-1.152845 J0.853345
G03 X54.632453 Y62.304789 Z-1.000000 I-0.508931 J0.259643
G03 X54.383044 Y62.770129 Z-1.000000 I-0.999305 J-0.236091
G03 X53.657090 Y63.272982 Z-1.000000 I-1.525485 J-1.426851
G03 X52.718828 Y63.459662 Z-1.000000 I-0.938262 J-2.264537
G03 X52.626190 Y63.417291 Z-1.000000 I-0.000000 J-0.122457
G01 X52.626858 Y63.353105 Z-1.000000
G02 X52.636992 Y63.265817 Z-1.000000 I-0.056065 J-0.050741
G02 X52.521468 Y63.162210 Z-1.000000 I-0.206429 J0.113963
G02 X52.314737 Y63.100320 Z-1.000000 I-0.396687 J0.948835
G02 X52.020217 Y63.067980 Z-1.000000 I-0.358480 J1.907411
G02 X51.755365 Y63.101930 Z-1.000000 I-0.028727 J0.825962
G02 X51.699432 Y63.163050 Z-1.000000 I0.023022 J0.077222
G02 X51.760618 Y63.518835 Z-1.000000 I0.487825 J0.099261
G02 X51.958232 Y63.593457 Z-1.000000 I0.146058 J-0.087820
G03 X52.041452 Y63.599605 Z-1.000000 I0.033931 J0.107009
G03 X52.284040 Y63.752786 Z-1.000000 I-0.580703 J1.188325
G02 X52.618071 Y63.892755 Z-1.000000 I0.415208 J-0.522318
G02 X52.980573 Y63.838166 Z-1.000000 I0.083174 J-0.678583
G03 X53.218724 Y63.816956 Z-1.000000 I0.149826 J0.334674
G03 X53.296681 Y63.916626 Z-1.000000 I-0.024736 J0.099670
G03 X53.179045 Y64.091709 Z-1.000000 I-0.189110 J0.000000
G03 X52.579613 Y64.209348 Z-1.000000 I-0.599432 J-1.468385
G02 X52.192935 Y64.235181 Z-1.000000 I0.000000 J2.906900
G02 X52.142242 Y64.268068 Z-1.000000 I0.009394 J0.069994
G02 X52.166277 Y64.387939 Z-1.000000 I0.076156 J0.047075
G02 X52.487412 Y64.515218 Z-1.000000 I0.416154 J-0.581227
G03 X52.700344 Y64.560370 Z-1.000000 I-0.191167 J1.426180
G03 X52.737013 Y64.588298 Z-1.000000 I-0.018074 J0.061768
G03 X52.700054 Y64.845389 Z-1.000000 I-0.172163 J0.106452
G03 X52.264116 Y65.012670 Z-1.000000 I-0.436818 J-0.486685
G03 X51.733150 Y64.792558 Z-1.000000 I-0.001017 J-0.748014
G03 X50.860285 Y63.603485 Z-1.000000 I3.491114 J-3.477638
G03 X50.808823 Y63.415704 Z-1.000000 I0.403182 J-0.211434
G03 X50.846905 Y63.346469 Z-1.000000 I0.074893 J-0.003896
G02 X50.903095 Y63.190764 Z-1.000000 I-0.062220 J-0.110445
G02 X50.726425 Y63.031267 Z-1.000000 I-0.244811 J0.093575
G03 X50.526616 Y62.962653 Z-1.000000 I0.409790 J-1.518581
G01 X50.512235 Y62.941007 Z-1.000000
G01 X50.523499 Y62.913485 Z-1.000000
G03 X50.820132 Y62.627986 Z-1.000000 I5.327485 J5.238396
G01 X51.128027 Y62.347536 Z-1.000000
G01 X50.873678 Y62.110027 Z-1.000000
G03 X50.649928 Y61.859236 Z-1.000000 I1.259916 J-1.349279
G03 X50.619331 Y61.766492 Z-1.000000 I0.125264 J-0.092744
G03 X50.759835 Y61.601220 Z-1.000000 I0.167455 J0.000000
G03 X51.565079 Y61.612262 Z-1.000000 I0.371462 J2.277886
G02 X52.509604 Y61.511638 Z-1.000000 I0.306810 J-1.603364
G02 X52.826856 Y61.076797 Z-1.000000 I-0.204781 J-0.482556
G03 X52.895382 Y60.976217 Z-1.000000 I0.124814 J0.011402
G03 X53.136048 Y60.921391 Z-1.000000 I0.231496 J0.460554
G03 X53.430479 Y60.928898 Z-1.000000 I-0.278191 J16.689407
G03 X53.732461 Y60.941591 Z-1.000000 I-0.673629 J19.624487
G02 X54.074241 Y60.888204 Z-1.000000 I0.042303 J-0.849898
G02 X54.096373 Y60.804759 Z-1.000000 I-0.018650 J-0.049604
G02 X54.024295 Y60.759736 Z-1.000000 I-0.104085 J0.086425
G02 X53.912824 Y60.760139 Z-1.000000 I-0.054921 J0.225557
G03 X53.613796 Y60.723376 Z-1.000000 I-0.101902 J-0.405655
G03 X53.055726 Y60.302200 Z-1.000000 I1.062209 J-1.987774
G03 X52.899418 Y60.057354 Z-1.000000 I0.524658 J-0.507255
G03 X52.842442 Y59.748717 Z-1.000000 I0.794934 J-0.306326
G03 X52.941860 Y59.137189 Z-1.000000 I1.969014 J0.006263
G03 X53.150783 Y58.816442 Z-1.000000 I0.711747 J0.235190
G03 X53.282045 Y58.728925 Z-1.000000 I0.360868 J0.399050
G03 X53.725066 Y58.545456 Z-1.000000 I2.120078 J4.492728
G02 X54.179675 Y58.380756 Z-1.000000 I-25.553312 J-71.242485
G02 X54.339207 Y58.320723 Z-1.000000 I-3.204826 J-8.758559
G01 X54.498193 Y58.259223 Z-1.000000
G01 X54.205338 Y58.100550 Z-1.000000
G03 X53.808988 Y57.791598 Z-1.000000 I0.726190 J-1.340329
G03 X53.449668 Y57.278091 Z-1.000000 I1.746013 J-1.604220
G02 X53.262571 Y56.975969 Z-1.000000 I-2.065897 J1.070363
G02 X52.996279 Y56.657463 Z-1.000000 I-2.563294 J1.872517
G03 X52.755537 Y56.245456 Z-1.000000 I0.747875 J-0.713333
G03 X52.810308 Y56.047313 Z-1.000000 I0.183479 J-0.055924
G03 X52.991570 Y56.029099 Z-1.000000 I0.102981 J0.113798
G03 X53.210211 Y56.284463 Z-1.000000 I-0.266542 J0.449493
G02 X53.316755 Y56.482289 Z-1.000000 I0.917638 J-0.366614
G02 X53.385004 Y56.535759 Z-1.000000 I0.121089 J-0.084266
G02 X53.524862 Y56.489731 Z-1.000000 I0.041748 J-0.108643
G02 X53.617942 Y56.170866 Z-1.000000 I-0.499628 J-0.318865
G02 X53.578800 Y55.989806 Z-1.000000 I-0.438334 J-0.000000
G02 X53.476854 Y55.859811 Z-1.000000 I-0.317460 J0.143989
G02 X53.230285 Y55.780707 Z-1.000000 I-0.229630 J0.291930
G02 X52.836100 Y55.889071 Z-1.000000 I0.042214 J0.924681
G03 X52.005574 Y56.000848 Z-1.000000 I-0.565066 J-1.057180
G03 X51.621187 Y55.613156 Z-1.000000 I0.112660 J-0.496100
G03 X51.528946 Y54.597013 Z-1.000000 I4.022183 J-0.877373
G03 X51.687477 Y53.646780 Z-1.000000 I3.668822 J0.123742
G03 X51.895624 Y53.323620 Z-1.000000 I0.676110 J0.206869
G03 X52.144733 Y53.243074 Z-1.000000 I0.217073 J0.245864
G03 X52.356685 Y53.404915 Z-1.000000 I-0.024830 J0.252227
G03 X52.545787 Y54.293785 Z-1.000000 I-2.749147 J1.049417
G02 X52.626176 Y54.881979 Z-1.000000 I3.651110 J-0.199407
G02 X52.702915 Y55.006129 Z-1.000000 I0.215803 J-0.047600
G02 X52.837066 Y55.076731 Z-1.000000 I0.244707 J-0.302213
G02 X53.040662 Y55.106283 Z-1.000000 I0.203596 J-0.686566
G02 X53.195359 Y55.059915 Z-1.000000 I0.000000 J-0.281243
G02 X53.224372 Y54.985361 Z-1.000000 I-0.038013 J-0.057715
G03 X53.313794 Y54.813843 Z-1.000000 I0.141222 J-0.035443
G03 X53.475086 Y54.889921 Z-1.000000 I0.044031 J0.115667
G02 X53.565623 Y55.044348 Z-1.000000 I0.417221 J-0.140854
G02 X53.670687 Y55.106331 Z-1.000000 I0.151719 J-0.137135
G03 X53.783064 Y55.182860 Z-1.000000 I-0.043097 J0.184057
G03 X54.013219 Y55.601592 Z-1.000000 I-1.920328 J1.328121
G02 X54.177213 Y55.731652 Z-1.000000 I0.200963 J-0.084976
G02 X54.324896 Y55.655192 Z-1.000000 I0.023342 J-0.135771
G03 X54.420591 Y55.544275 Z-1.000000 I0.250727 J0.119579
G03 X54.568782 Y55.491158 Z-1.000000 I0.179013 J0.266148
G03 X54.642807 Y55.544466 Z-1.000000 I0.006630 J0.068843
G03 X54.608562 Y55.663703 Z-1.000000 I-0.124656 J0.028735
G02 X54.514386 Y55.972182 Z-1.000000 I0.242713 J0.242713
G02 X54.698362 Y56.123716 Z-1.000000 I0.183976 J-0.035915
G02 X54.831188 Y56.047487 Z-1.000000 I0.000000 J-0.153837
G02 X55.061514 Y55.502165 Z-1.000000 I-1.984463 J-1.159473
G03 X55.504973 Y55.038160 Z-1.000000 I0.654324 J0.181437
G03 X56.307402 Y55.095137 Z-1.000000 I0.331243 J1.013912
G03 X56.661033 Y55.400625 Z-1.000000 I-0.409274 J0.831197
G03 X56.905487 Y55.963077 Z-1.000000 I-1.313917 J0.905407
G02 X57.095282 Y56.391653 Z-1.000000 I1.150473 J-0.253173
G02 X57.227336 Y56.416609 Z-1.000000 I0.078977 J-0.056046
G03 X57.748050 Y56.236994 Z-1.000000 I0.615181 J0.938850
G03 X58.214242 Y56.333199 Z-1.000000 I0.070579 J0.835634
G03 X58.308136 Y56.408366 Z-1.000000 I-0.155610 J0.290606
G03 X58.330093 Y56.467391 Z-1.000000 I-0.068358 J0.059025
G03 X58.265932 Y56.544641 Z-1.000000 I-0.078585 J0.000000
G03 X57.798405 Y56.566671 Z-1.000000 I-0.313359 J-1.678193
G02 X57.483050 Y56.555010 Z-1.000000 I-0.266184 J2.928630
G02 X57.388116 Y56.573871 Z-1.000000 I0.004535 J0.271176
G01 X57.363036 Y56.624390 Z-1.000000
G02 X57.443346 Y56.763455 Z-1.000000 I0.323934 J-0.094350
G02 X57.605821 Y56.896567 Z-1.000000 I0.631655 J-0.605274
G02 X57.914150 Y57.062588 Z-1.000000 I1.303200 J-2.050949
G02 X58.239871 Y57.157634 Z-1.000000 I0.505218 J-1.125726
G02 X58.441659 Y57.140148 Z-1.000000 I0.063958 J-0.434981
G03 X58.648784 Y57.099994 Z-1.000000 I0.260426 J0.789066
G03 X58.944643 Y57.107838 Z-1.000000 I0.104805 J1.630476
G02 X59.075547 Y56.937305 Z-1.000000 I0.014607 J-0.124296
G02 X58.689850 Y56.466957 Z-1.000000 I-0.931021 J0.370145
G03 X58.345693 Y56.215977 Z-1.000000 I2.127059 J-3.278191
G03 X58.292738 Y56.142785 Z-1.000000 I0.111176 J-0.136189
G03 X58.280974 Y56.053167 Z-1.000000 I0.180595 J-0.069288
G03 X58.328218 Y55.808119 Z-1.000000 I1.458792 J0.154172
G02 X58.416075 Y54.997491 Z-1.000000 I-2.357628 J-0.665597
G02 X58.263338 Y54.714118 Z-1.000000 I-0.381182 J0.022606
G02 X58.120390 Y54.662094 Z-1.000000 I-0.157905 J0.211479
G02 X57.985097 Y54.698318 Z-1.000000 I-0.012681 J0.223403
G02 X57.882891 Y54.806798 Z-1.000000 I0.175285 J0.267535
G02 X57.848166 Y54.937209 Z-1.000000 I0.227518 J0.130411
G03 X57.827633 Y55.079699 Z-1.000000 I-0.504680 J0.000000
G03 X57.774726 Y55.186828 Z-1.000000 I-0.333891 J-0.098268
G03 X57.681321 Y55.236689 Z-1.000000 I-0.098414 J-0.071943
G03 X57.279416 Y55.207208 Z-1.000000 I-0.072580 J-1.764821
G01 X56.857550 Y55.127128 Z-1.000000
G01 X56.859150 Y54.809144 Z-1.000000
G03 X56.956174 Y54.341593 Z-1.000000 I1.207574 J0.006748
G03 X57.339645 Y53.684366 Z-1.000000 I2.816690 J1.202963
G02 X57.526458 Y53.411346 Z-1.000000 I-2.496409 J-1.908579
G02 X57.639389 Y53.192625 Z-1.000000 I-1.485822 J-0.905683
G03 X57.836068 Y53.003171 Z-1.000000 I0.323485 J0.139005
G03 X58.011648 Y53.048907 Z-1.000000 I0.055977 J0.144995
G02 X58.190385 Y53.181786 Z-1.000000 I0.362314 J-0.300702
G02 X58.751950 Y53.362350 Z-1.000000 I1.287773 J-3.041519
G03 X59.372828 Y53.647886 Z-1.000000 I-0.361491 J1.603835
G03 X59.797630 Y54.141571 Z-1.000000 I-0.892251 J1.197363
G01 X59.975611 Y54.474675 Z-1.000000
G01 X60.001221 Y54.032338 Z-1.000000
G03 X60.071017 Y53.612662 Z-1.000000 I1.989235 J0.115185
G03 X60.152953 Y53.487861 Z-1.000000 I0.236311 J0.065849
G02 X60.230463 Y53.378047 Z-1.000000 I-0.155393 J-0.191942
G02 X60.220663 Y53.295879 Z-1.000000 I-0.088300 J-0.031137
G02 X60.148935 Y53.234255 Z-1.000000 I-0.141353 J0.091974
G02 X60.050041 Y53.218669 Z-1.000000 I-0.077686 J0.171381
G03 X59.911114 Y53.144718 Z-1.000000 I-0.015590 J-0.138185
G03 X59.581839 Y52.319720 Z-1.000000 I3.930106 J-2.046800
G03 X59.490002 Y51.540330 Z-1.000000 I2.337687 J-0.670560
G03 X59.636979 Y51.088790 Z-1.000000 I0.889508 J0.039845
G03 X59.812182 Y51.100751 Z-1.000000 I0.084205 J0.055723
G03 X59.805344 Y51.438888 Z-1.000000 I-0.337512 J0.162312
G02 X59.675031 Y51.842959 Z-1.000000 I1.066200 J0.566897
G02 X59.721534 Y52.054767 Z-1.000000 I0.312144 J0.042478
G02 X59.843260 Y52.066923 Z-1.000000 I0.065649 J-0.041850
G02 X60.086425 Y51.675931 Z-1.000000 I-0.794671 J-0.765331
G03 X60.339616 Y51.215834 Z-1.000000 I1.580287 J0.569916
G03 X60.490346 Y51.155495 Z-1.000000 I0.126856 J0.098458
G03 X60.686760 Y51.301892 Z-1.000000 I-0.038704 J0.256885
G03 X60.843557 Y51.907189 Z-1.000000 I-1.531440 J0.719663
G02 X60.909148 Y52.337784 Z-1.000000 I2.604036 J-0.176370
G02 X60.996588 Y52.547227 Z-1.000000 I0.689396 J-0.164841
G03 X61.081685 Y52.757717 Z-1.000000 I-0.562822 J0.349985
G03 X61.168479 Y53.345614 Z-1.000000 I-4.439054 J0.955712
G02 X61.290294 Y53.994806 Z-1.000000 I3.159039 J-0.256739
G01 X61.367923 Y54.014292 Z-1.000000
G02 X61.466312 Y53.761988 Z-1.000000 I-0.241166 J-0.239382
G02 X61.306593 Y52.402828 Z-1.000000 I-8.670630 J0.329950
G03 X61.360167 Y51.803059 Z-1.000000 I1.050403 J-0.208450
G03 X61.569408 Y51.733353 Z-1.000000 I0.133719 J0.052493
G03 X62.059949 Y52.297733 Z-1.000000 I-0.661514 J1.070339
G03 X61.994476 Y52.701232 Z-1.000000 I-0.344274 J0.151198
G02 X61.944752 Y52.817382 Z-1.000000 I0.144085 J0.130401
G02 X61.973886 Y52.981134 Z-1.000000 I0.335930 J0.024702
G03 X62.018751 Y53.159320 Z-1.000000 I-0.470343 J0.213169
G03 X62.039686 Y53.950262 Z-1.000000 I-9.551749 J0.648565
G03 X61.886166 Y54.975729 Z-1.000000 I-3.887813 J-0.057811
G03 X61.670691 Y55.222231 Z-1.000000 I-0.372281 J-0.107995
G02 X61.499488 Y55.402411 Z-1.000000 I0.130816 J0.295725
G02 X61.512545 Y55.635604 Z-1.000000 I0.266691 J0.102029
G02 X61.721120 Y55.826249 Z-1.000000 I0.362989 J-0.187708
G02 X61.935874 Y55.808375 Z-1.000000 I0.089806 J-0.220047
G03 X62.252148 Y55.708843 Z-1.000000 I0.354105 J0.572945
G03 X62.554955 Y55.773535 Z-1.000000 I0.032998 J0.586570
G03 X62.866711 Y56.014872 Z-1.000000 I-0.501709 J0.970129
G03 X63.126683 Y56.411687 Z-1.000000 I-1.177790 J1.055194
G03 X63.678526 Y57.889009 Z-1.000000 I-9.976918 J4.568535
G03 X63.791830 Y58.677132 Z-1.000000 I-2.684369 J0.788123
G01 X63.758686 Y58.721397 Z-1.000000
G03 X63.617802 Y58.728122 Z-1.000000 I-0.084321 J-0.287392
G03 X63.347575 Y58.574093 Z-1.000000 I0.090852 J-0.473445
G03 X63.149216 Y58.198432 Z-1.000000 I0.673604 J-0.595881
G02 X62.934639 Y57.570953 Z-1.000000 I-3.920203 J0.990148
G02 X62.851558 Y57.516568 Z-1.000000 I-0.083081 J0.036268
G02 X62.748455 Y57.571870 Z-1.000000 I-0.000000 J0.123761
G02 X62.552653 Y57.966714 Z-1.000000 I1.463386 J0.971662
G03 X62.202294 Y58.407325 Z-1.000000 I-0.803553 J-0.279356
G03 X61.788191 Y58.447907 Z-1.000000 I-0.247586 J-0.393328
G03 X61.717979 Y58.317113 Z-1.000000 I0.040689 J-0.106085
G03 X61.857761 Y58.135659 Z-1.000000 I0.264028 J0.058825
G02 X62.610796 Y57.322758 Z-1.000000 I-0.749696 J-1.449724
G02 X62.539333 Y56.527355 Z-1.000000 I-0.780558 J-0.330783
G02 X62.428546 Y56.433069 Z-1.000000 I-0.215908 J0.141464
G02 X62.235956 Y56.392077 Z-1.000000 I-0.192590 J0.431914
G02 X61.838862 Y56.496557 Z-1.000000 I-0.000000 J0.806851
G02 X60.693514 Y57.264119 Z-1.000000 I4.477094 J7.918994
G03 X59.995189 Y57.733139 Z-1.000000 I-3.476989 J-4.422522
G03 X59.844709 Y57.746291 Z-1.000000 I-0.089601 J-0.157733
G02 X59.736524 Y57.813848 Z-1.000000 I-0.027296 J0.076690
G02 X59.798899 Y58.152034 Z-1.000000 I0.588026 J0.066390
G02 X60.141756 Y58.592519 Z-1.000000 I1.353798 J-0.700071
G02 X60.534633 Y58.804165 Z-1.000000 I0.646181 J-0.729029
G03 X60.808236 Y58.973981 Z-1.000000 I-0.145393 J0.539572
G03 X61.249650 Y59.614449 Z-1.000000 I-2.443886 J2.156685
G02 X61.607321 Y60.008333 Z-1.000000 I0.939224 J-0.493539
G02 X62.035393 Y60.129372 Z-1.000000 I0.406572 J-0.620409
G03 X62.443002 Y60.165011 Z-1.000000 I0.051391 J1.760996
G03 X62.563997 Y60.238802 Z-1.000000 I-0.042478 J0.205745
G02 X62.903641 Y60.430994 Z-1.000000 I0.413805 J-0.335072
G02 X63.781600 Y60.410054 Z-1.000000 I0.375546 J-2.670041
G02 X64.206590 Y60.279273 Z-1.000000 I-0.373057 J-1.968217
G02 X64.591431 Y60.058376 Z-1.000000 I-0.795512 J-1.831600
G03 X64.791558 Y59.975670 Z-1.000000 I0.268674 J0.366641
G03 X65.378483 Y59.938315 Z-1.000000 I0.505593 J3.314329
G01 X65.981724 Y59.952955 Z-1.000000
G01 X66.238841 Y59.675927 Z-1.000000
G03 X66.568341 Y59.453490 Z-1.000000 I0.642201 J0.596041
G03 X67.266604 Y59.283263 Z-1.000000 I1.022047 J2.675145
G02 X67.767138 Y59.211495 Z-1.000000 I-0.989180 J-8.680244
G02 X68.513447 Y59.067401 Z-1.000000 I-3.345113 J-19.330097
G03 X69.575418 Y58.963662 Z-1.000000 I0.989336 J4.640249
G03 X70.289755 Y59.094601 Z-1.000000 I-0.033647 J2.197565
G02 X71.214092 Y59.378520 Z-1.000000 I3.338842 J-9.223453
G02 X72.198739 Y59.579413 Z-1.000000 I2.608075 J-10.269576
G03 X73.813514 Y59.961474 Z-1.000000 I-1.620696 J10.453301
G03 X74.680010 Y60.376536 Z-1.000000 I-1.084733 J3.376511
G02 X75.237671 Y60.655414 Z-1.000000 I1.446293 J-2.195091
G02 X75.662256 Y60.729355 Z-1.000000 I0.424585 J-1.182053
G02 X75.771046 Y60.654074 Z-1.000000 I0.000000 J-0.116249
G02 X75.732816 Y60.541942 Z-1.000000 I-0.087222 J-0.032846
G03 X75.702377 Y60.496004 Z-1.000000 I0.034656 J-0.056017
G03 X75.680386 Y60.204117 Z-1.000000 I1.846202 J-0.285868
G03 X75.885336 Y59.471379 Z-1.000000 I1.440352 J0.007840
G03 X76.181994 Y59.369045 Z-1.000000 I0.209250 J0.125437
G03 X76.337539 Y59.611795 Z-1.000000 I-0.087123 J0.227034
G03 X76.126414 Y60.227289 Z-1.000000 I-1.236115 J-0.080052
G02 X76.027092 Y60.419503 Z-1.000000 I0.751173 J0.509921
G01 X76.037274 Y60.465821 Z-1.000000
G02 X76.087962 Y60.496617 Z-1.000000 I0.090008 J-0.091033
G02 X76.696597 Y60.678630 Z-1.000000 I4.515606 J-13.991176
G03 X77.312243 Y60.848865 Z-1.000000 I-106.056823 J384.747949
G03 X77.406096 Y60.875432 Z-1.000000 I-2.467547 J8.896050
G01 X77.422858 Y60.939859 Z-1.000000
G03 X77.285614 Y60.997100 Z-1.000000 I-0.137244 J-0.135911
G02 X77.099109 Y61.024829 Z-1.000000 I0.000000 J0.641072
G01 X77.071420 Y61.062190 Z-1.000000
G02 X77.092467 Y61.118333 Z-1.000000 I0.085402 J0.000000
G02 X77.459639 Y61.507059 Z-1.000000 I5.096918 J-4.446525
G02 X78.044021 Y61.880622 Z-1.000000 I1.187742 J-1.214170
G02 X79.069506 Y62.118842 Z-1.000000 I1.390278 J-3.658495
G03 X79.645204 Y62.183229 Z-1.000000 I-1.523460 J16.227547
G03 X79.691768 Y62.199722 Z-1.000000 I-0.015170 J0.116804
G03 X79.721685 Y62.235517 Z-1.000000 I-0.038766 J0.062799
G03 X79.768888 Y62.395942 Z-1.000000 I-0.881043 J0.346395
G02 X79.838846 Y62.546096 Z-1.000000 I0.343777 J-0.068794
G02 X80.297895 Y63.057517 Z-1.000000 I4.712085 J-3.767816
G02 X81.568091 Y64.053437 Z-1.000000 I4.858075 J-4.888024
G02 X81.800998 Y63.974071 Z-1.000000 I0.083380 J-0.136739
G03 X81.855184 Y63.919573 Z-1.000000 I0.088863 J0.034167
G03 X82.019411 Y63.888601 Z-1.000000 I0.164227 J0.419916
G03 X82.347432 Y63.954213 Z-1.000000 I0.000000 J0.852760
G03 X82.600759 Y64.130902 Z-1.000000 I-0.279466 J0.670630
G01 X82.732294 Y64.272744 Z-1.000000
G01 X82.769374 Y64.040513 Z-1.000000
G03 X82.939163 Y63.677812 Z-1.000000 I0.716504 J0.114321
G03 X83.182228 Y63.567311 Z-1.000000 I0.243065 J0.212080
G03 X83.570545 Y63.677227 Z-1.000000 I0.000000 J0.740889
G03 X83.769233 Y63.928569 Z-1.000000 I-0.244736 J0.397669
G02 X83.851354 Y64.088653 Z-1.000000 I0.552427 J-0.182281
G02 X83.963361 Y64.195283 Z-1.000000 I0.347760 J-0.253156
G03 X84.043822 Y64.311537 Z-1.000000 I-0.103149 J0.157362
G03 X84.073833 Y64.688694 Z-1.000000 I-1.314976 J0.294407
G03 X84.000421 Y65.121008 Z-1.000000 I-2.057120 J-0.126934
G03 X83.679930 Y66.085687 Z-1.000000 I-10.646611 J-3.001496
G02 X83.615682 Y66.330079 Z-1.000000 I1.078268 J0.414105
G02 X83.622560 Y66.471294 Z-1.000000 I0.358813 J0.053299
G02 X83.678410 Y66.605377 Z-1.000000 I0.475773 J-0.119503
G02 X84.155142 Y67.353158 Z-1.000000 I15.630988 J-9.439344
G03 X84.634601 Y68.100891 Z-1.000000 I-17.021798 J11.442245
G03 X84.721184 Y68.279471 Z-1.000000 I-0.873654 J0.533865
G02 X84.956881 Y68.784078 Z-1.000000 I3.164641 J-1.170825
G02 X85.364410 Y69.403961 Z-1.000000 I5.197762 J-2.973255
G03 X85.891034 Y70.221367 Z-1.000000 I-5.464355 J4.098823
G03 X85.960248 Y70.491813 Z-1.000000 I-0.493761 J0.270446
G02 X86.035358 Y70.587040 Z-1.000000 I0.097920 J0.000000
G02 X86.215138 Y70.552863 Z-1.000000 I0.051928 J-0.216782
G03 X86.335816 Y70.509215 Z-1.000000 I0.141226 J0.201813
G03 X86.454622 Y70.532933 Z-1.000000 I0.018250 J0.218000
G03 X86.812540 Y70.885514 Z-1.000000 I-0.389922 J0.753782
G03 X86.756231 Y71.095150 Z-1.000000 I-0.139589 J0.074886
G02 X86.657069 Y71.284968 Z-1.000000 I0.110275 J0.178418
G02 X86.843141 Y72.695248 Z-1.000000 I9.256105 J-0.503831
G02 X86.960333 Y73.111942 Z-1.000000 I3.212729 J-0.678728
G02 X87.116067 Y73.466361 Z-1.000000 I2.471788 J-0.874695
G03 X87.270679 Y73.817999 Z-1.000000 I-2.305680 J1.223598
G03 X87.298938 Y73.982326 Z-1.000000 I-0.463659 J0.164327
G02 X87.324423 Y74.147358 Z-1.000000 I0.547094 J0.000000
G02 X87.432796 Y74.405469 Z-1.000000 I1.466995 J-0.464142
G03 X87.528277 Y74.766892 Z-1.000000 I-0.722600 J0.384221
G03 X87.453086 Y75.133499 Z-1.000000 I-0.819919 J0.022849
G02 X87.346560 Y75.376364 Z-1.000000 I6.366495 J2.937296
G02 X87.269069 Y75.575701 Z-1.000000 I4.169814 J1.735708
G02 X87.262081 Y75.762277 Z-1.000000 I0.287694 J0.104195
G02 X87.375347 Y75.956019 Z-1.000000 I0.426073 J-0.119112
G03 X87.535339 Y76.200922 Z-1.000000 I-0.503892 J0.503897
G03 X87.647303 Y76.653137 Z-1.000000 I-1.683654 J0.656826
G02 X87.720406 Y76.949095 Z-1.000000 I1.180127 J-0.134489
G02 X87.818572 Y77.093427 Z-1.000000 I0.362330 J-0.140886
G03 X87.908606 Y77.233879 Z-1.000000 I-0.226248 J0.244116
G03 X87.919648 Y77.401789 Z-1.000000 I-0.321829 J0.105482
G03 X87.704877 Y77.835155 Z-1.000000 I-0.876467 J-0.164465
G03 X87.167703 Y78.234041 Z-1.000000 I-1.266114 J-1.143912
G02 X86.789227 Y78.527217 Z-1.000000 I0.473500 J1.002150
G02 X86.628656 Y78.881799 Z-1.000000 I0.563260 J0.468718
G03 X86.457496 Y79.573823 Z-1.000000 I-4.092968 J-0.645143
G03 X86.110726 Y80.400865 Z-1.000000 I-6.207081 J-2.116347
G03 X85.866235 Y80.799154 Z-1.000000 I-2.456680 J-1.233855
G03 X85.451027 Y81.295028 Z-1.000000 I-4.237623 J-3.126501
G02 X85.035019 Y81.785937 Z-1.000000 I4.205968 J3.985957
G02 X84.950864 Y81.956468 Z-1.000000 I0.403633 J0.305219
G03 X84.788976 Y82.274526 Z-1.000000 I-0.860353 J-0.237682
G03 X84.325208 Y82.742736 Z-1.000000 I-2.380183 J-1.893813
G02 X83.996419 Y83.046915 Z-1.000000 I2.175717 J2.681530
G02 X83.787285 Y83.309452 Z-1.000000 I1.405693 J1.334325
G03 X83.455999 Y83.673640 Z-1.000000 I-1.353423 J-0.898378
G03 X82.934822 Y83.999569 Z-1.000000 I-1.593217 J-1.967976
G02 X82.634334 Y84.180321 Z-1.000000 I0.712588 J1.524774
G02 X82.127493 Y84.608103 Z-1.000000 I3.624282 J4.808239
G03 X81.621971 Y85.040945 Z-1.000000 I-4.755998 J-5.042971
G03 X81.163644 Y85.356288 Z-1.000000 I-2.971661 J-3.828337
G02 X80.032595 Y86.280291 Z-1.000000 I2.717825 J4.481066
G02 X79.829092 Y86.800324 Z-1.000000 I0.562695 J0.520033
G03 X79.801554 Y87.232326 Z-1.000000 I-3.402260 J-0.000000
G01 X79.768582 Y87.272693 Z-1.000000
G03 X79.712788 Y87.266209 Z-1.000000 I-0.021107 J-0.061673
G03 X79.371593 Y87.023288 Z-1.000000 I1.935867 J-3.080093
G02 X79.029165 Y86.770093 Z-1.000000 I-3.367572 J4.196242
G02 X78.974388 Y86.753235 Z-1.000000 I-0.054777 J0.080567
G02 X78.916797 Y86.765990 Z-1.000000 I-0.000000 J0.136392
G02 X78.393568 Y87.023773 Z-1.000000 I5.635261 J12.097945
G03 X77.874508 Y87.265909 Z-1.000000 I-3.064030 J-5.890868
G03 X77.820486 Y87.261568 Z-1.000000 I-0.022775 J-0.054885
G03 X77.785361 Y87.218892 Z-1.000000 I0.045389 J-0.073151
G03 X77.767526 Y87.121389 Z-1.000000 I0.257603 J-0.097503
G02 X77.546737 Y86.720034 Z-1.000000 I-0.475189 J0.000000
G02 X76.770737 Y86.489566 Z-1.000000 I-0.794483 J1.253418
G02 X76.339804 Y86.598661 Z-1.000000 I-0.010468 J0.864305
G02 X76.108308 Y86.858510 Z-1.000000 I0.257437 J0.462391
G03 X76.034756 Y87.011694 Z-1.000000 I-1.425446 J-0.590186
G01 X76.019068 Y87.020971 Z-1.000000
G03 X75.997717 Y87.017726 Z-1.000000 I-0.000000 J-0.071862
G03 X75.690901 Y86.918772 Z-1.000000 I4.641440 J-14.916357
G02 X75.379375 Y86.840913 Z-1.000000 I-0.658975 J1.974498
G02 X74.569797 Y86.728981 Z-1.000000 I-2.250445 J13.293244
G03 X73.406584 Y86.517851 Z-1.000000 I0.872500 J-8.116898
G03 X72.959894 Y86.314430 Z-1.000000 I0.350875 J-1.362636
G02 X72.718399 Y86.170863 Z-1.000000 I-1.204038 J1.750430
G02 X72.021327 Y85.837492 Z-1.000000 I-7.263821 J14.293023
G03 X70.646972 Y85.107990 Z-1.000000 I4.832103 J-10.762875
G03 X68.316458 Y83.545725 Z-1.000000 I20.179666 J-32.622489
G02 X66.720360 Y82.530421 Z-1.000000 I-9.170196 J12.653690
G02 X66.277478 Y82.415920 Z-1.000000 I-0.442882 J0.799270
G02 X66.055381 Y82.448018 Z-1.000000 I-0.000000 J0.784436
G02 X65.959923 Y82.509630 Z-1.000000 I0.056991 J0.193052
G02 X65.879739 Y82.603822 Z-1.000000 I7.424538 J6.401557
G02 X65.727678 Y82.785923 Z-1.000000 I28.550091 J23.995004
G03 X65.572476 Y82.783774 Z-1.000000 I-0.076734 J-0.063672
G03 X65.451664 Y82.433885 Z-1.000000 I0.446260 J-0.349889
G02 X65.292621 Y81.307102 Z-1.000000 I-4.071023 J-0.000000
G02 X64.956797 Y80.715800 Z-1.000000 I-1.396952 J0.402369
G02 X64.825931 Y80.636933 Z-1.000000 I-0.204744 J0.191730
G02 X64.515488 Y80.595317 Z-1.000000 I-0.310443 J1.137083
G03 X64.066675 Y80.502553 Z-1.000000 I-0.000000 J-1.132105
G03 X64.029891 Y80.385622 Z-1.000000 I0.032107 J-0.074351
G03 X64.083731 Y80.347184 Z-1.000000 I0.072773 J0.045007
G03 X64.249391 Y80.335792 Z-1.000000 I0.119412 J0.526284
G02 X64.422459 Y80.334943 Z-1.000000 I0.081662 J-0.993254
G02 X64.464740 Y80.314972 Z-1.000000 I-0.006264 J-0.068004
G02 X64.495784 Y80.209239 Z-1.000000 I-0.081104 J-0.081237
G02 X64.180915 Y79.015685 Z-1.000000 I-14.066345 J3.072505
G02 X64.078341 Y78.757181 Z-1.000000 I-1.728137 J0.536122
G02 X63.912085 Y78.465748 Z-1.000000 I-2.365596 J1.156377
G03 X63.766116 Y78.175786 Z-1.000000 I1.173106 J-0.772271
G03 X63.755455 Y78.037380 Z-1.000000 I0.241201 J-0.088193
G02 X63.783064 Y77.890860 Z-1.000000 I-6.898796 J-1.375814
G02 X63.976225 Y76.793477 Z-1.000000 I-387.534624 J-68.779403
G03 X64.254469 Y75.457324 Z-1.000000 I20.699440 J3.613464
G03 X64.359096 Y75.213830 Z-1.000000 I0.769976 J0.186624
G02 X64.441375 Y75.018359 Z-1.000000 I-0.509906 J-0.329685
G02 X64.622201 Y74.052972 Z-1.000000 I-12.702508 J-2.878928
G03 X64.857895 Y73.140462 Z-1.000000 I4.434184 J0.658620
G03 X65.077171 Y72.837160 Z-1.000000 I0.662124 J0.247776
G02 X65.436360 Y72.411863 Z-1.000000 I-0.911455 J-1.134106
G02 X65.595426 Y71.908081 Z-1.000000 I-1.144214 J-0.638281
G02 X65.578949 Y71.634259 Z-1.000000 I-0.840947 J-0.086805
G02 X65.483419 Y71.414230 Z-1.000000 I-0.630623 J0.143047
G03 X65.491757 Y71.251145 Z-1.000000 I0.112032 J-0.076028
G03 X65.646057 Y71.220516 Z-1.000000 I0.096226 J0.080788
G02 X65.955604 Y71.260955 Z-1.000000 I0.210062 J-0.402992
G02 X66.750183 Y70.972808 Z-1.000000 I-0.729308 J-3.250717
G02 X67.060432 Y70.636237 Z-1.000000 I-0.304502 J-0.591965
G02 X66.979022 Y70.421975 Z-1.000000 I-0.154133 J-0.064034
G02 X66.734866 Y70.358902 Z-1.000000 I-0.279221 J0.576766
G02 X66.441713 Y70.392525 Z-1.000000 I-0.048016 J0.876153
G03 X66.146972 Y70.458139 Z-1.000000 I-0.660452 J-2.271981
G03 X66.092398 Y70.447115 Z-1.000000 I-0.012395 J-0.079231
G03 X66.061928 Y70.403278 Z-1.000000 I0.035281 J-0.057031
G03 X66.040668 Y70.189272 Z-1.000000 I1.066484 J-0.214006
G02 X65.911098 Y69.854932 Z-1.000000 I-0.496148 J-0.000000
G02 X65.617555 Y69.725362 Z-1.000000 I-0.293543 J0.267728
G02 X65.283144 Y69.824584 Z-1.000000 I0.000000 J0.613147
G02 X65.183913 Y70.007543 Z-1.000000 I0.119051 J0.182959
G02 X65.257494 Y70.090234 Z-1.000000 I0.083255 J0.000000
G02 X65.450868 Y70.038783 Z-1.000000 I0.031619 J-0.270279
G03 X65.609926 Y69.960330 Z-1.000000 I0.296997 J0.401676
G03 X65.669940 Y69.975853 Z-1.000000 I0.016847 J0.058639
G03 X65.721496 Y70.176587 Z-1.000000 I-0.143943 J0.143958
G03 X65.472998 Y70.653957 Z-1.000000 I-1.318167 J-0.382817
G02 X65.125766 Y71.204024 Z-1.000000 I2.225281 J1.789344
G02 X64.991364 Y71.653745 Z-1.000000 I1.339370 J0.645225
G03 X64.830940 Y72.024824 Z-1.000000 I-0.734909 J-0.097498
G03 X64.598781 Y72.135055 Z-1.000000 I-0.232159 J-0.189360
G03 X64.344486 Y72.010630 Z-1.000000 I0.000000 J-0.322071
G03 X64.220063 Y71.647792 Z-1.000000 I0.466835 J-0.362838
G03 X64.256087 Y71.464291 Z-1.000000 I0.485372 J-0.000000
G03 X64.327244 Y71.385344 Z-1.000000 I0.145128 J0.059266
G02 X64.489952 Y71.201625 Z-1.000000 I-0.166624 J-0.311478
G02 X64.632125 Y70.599479 Z-1.000000 I-2.093604 J-0.812180
G02 X64.617424 Y70.278931 Z-1.000000 I-1.149078 J-0.107912
G02 X64.526725 Y70.037235 Z-1.000000 I-0.734056 J0.137597
G02 X64.376815 Y69.816444 Z-1.000000 I-1.802430 J1.062502
G02 X64.224837 Y69.648478 Z-1.000000 I-1.190950 J0.924853
G03 X64.073077 Y69.485334 Z-1.000000 I1.255401 J-1.319955
G03 X64.059419 Y69.447212 Z-1.000000 I0.046372 J-0.038122
G01 X64.079718 Y69.425853 Z-1.000000
G03 X64.340542 Y69.433032 Z-1.000000 I0.084726 J1.663368
G02 X64.625943 Y69.383549 Z-1.000000 I0.055677 J-0.526665
G02 X64.882525 Y69.172065 Z-1.000000 I-0.302553 J-0.628462
G03 X65.056390 Y68.992965 Z-1.000000 I0.773427 J0.576875
G03 X65.265934 Y68.868004 Z-1.000000 I0.572517 J0.721874
G02 X65.636884 Y68.535082 Z-1.000000 I-0.306186 J-0.714282
G02 X65.803265 Y67.913932 Z-1.000000 I-1.127046 J-0.634747
G03 X65.860667 Y67.601506 Z-1.000000 I0.931984 J0.009748
G03 X65.977281 Y67.441519 Z-1.000000 I0.339766 J0.125161
G02 X66.112056 Y67.287091 Z-1.000000 I-0.335889 J-0.429169
G02 X66.182666 Y67.089660 Z-1.000000 I-0.492475 J-0.287473
G03 X66.322231 Y66.758880 Z-1.000000 I0.743441 J0.118845
G03 X66.492656 Y66.673296 Z-1.000000 I0.170425 J0.126892
G03 X66.578494 Y66.749199 Z-1.000000 I0.000000 J0.086489
G03 X66.526446 Y66.947272 Z-1.000000 I-0.274217 J0.033818
G02 X66.587820 Y67.103246 Z-1.000000 I0.079501 J0.058779
G02 X66.896098 Y67.016222 Z-1.000000 I0.066208 J-0.355003
G02 X67.095883 Y66.812466 Z-1.000000 I-1.581097 J-1.750111
G02 X67.222704 Y66.640087 Z-1.000000 I-1.001817 J-0.869886
G03 X67.482765 Y66.386304 Z-1.000000 I0.639663 J0.395348
G03 X67.806846 Y66.298501 Z-1.000000 I0.324081 J0.554189
G02 X67.966366 Y66.274914 Z-1.000000 I-0.000000 J-0.551212
G02 X68.224491 Y66.172298 Z-1.000000 I-0.474616 J-1.569830
G03 X68.664466 Y66.042272 Z-1.000000 I0.585447 J1.171606
G03 X69.283215 Y66.053971 Z-1.000000 I0.264703 J2.368470
G02 X69.800021 Y66.108450 Z-1.000000 I0.877433 J-5.845035
G02 X70.056651 Y66.101111 Z-1.000000 I0.087488 J-1.431216
G03 X70.305095 Y66.104914 Z-1.000000 I0.110001 J0.930878
G03 X70.438052 Y66.157851 Z-1.000000 I-0.046223 J0.309531
G02 X70.572044 Y66.214620 Z-1.000000 I0.200027 J-0.285609
G02 X70.890300 Y66.245031 Z-1.000000 I0.318256 J-1.650097
G03 X71.201046 Y66.283620 Z-1.000000 I-0.000000 J1.270473
G03 X71.315065 Y66.352127 Z-1.000000 I-0.056148 J0.222585
G02 X71.475008 Y66.427149 Z-1.000000 I0.169530 J-0.153422
G02 X71.753513 Y66.370537 Z-1.000000 I0.024815 J-0.591286
G02 X72.050746 Y66.109497 Z-1.000000 I-0.309413 J-0.652054
G02 X72.229132 Y65.632613 Z-1.000000 I-1.004883 J-0.647699
G03 X72.296230 Y65.382750 Z-1.000000 I1.077308 J0.155360
G03 X72.380201 Y65.255717 Z-1.000000 I0.351190 J0.140872
G03 X72.875261 Y64.966675 Z-1.000000 I0.801251 J0.803872
G03 X73.152608 Y65.039315 Z-1.000000 I0.076588 J0.273371
G03 X73.172713 Y65.081105 Z-1.000000 I-0.049636 J0.049611
G03 X73.188608 Y65.359734 Z-1.000000 I-2.536898 J0.284492
G02 X73.223715 Y65.631463 Z-1.000000 I1.094660 J-0.003295
G02 X73.292392 Y65.758789 Z-1.000000 I0.293708 J-0.076237
G01 X73.395598 Y65.872825 Z-1.000000
G01 X73.573323 Y65.700558 Z-1.000000
G01 X73.751058 Y65.528302 Z-1.000000
G01 X73.866242 Y65.651935 Z-1.000000
G02 X74.001212 Y65.724059 Z-1.000000 I0.172769 J-0.160961
G02 X74.402163 Y65.738845 Z-1.000000 I0.259832 J-1.602223
G03 X74.795263 Y65.747480 Z-1.000000 I0.157100 J1.800192
G03 X74.862825 Y65.799535 Z-1.000000 I-0.011102 J0.084281
G03 X74.944974 Y66.279503 Z-1.000000 I-1.036727 J0.424455
G03 X74.823325 Y66.591917 Z-1.000000 I-0.529453 J-0.026269
G03 X74.592471 Y66.700734 Z-1.000000 I-0.231655 J-0.192167
G03 X74.407885 Y66.592671 Z-1.000000 I-0.000561 J-0.210721
G02 X73.947257 Y66.299018 Z-1.000000 I-0.503719 J0.282041
G02 X72.688705 Y66.464019 Z-1.000000 I-0.232631 J3.107930
G02 X72.550166 Y66.555136 Z-1.000000 I0.112059 J0.321262
G02 X72.413875 Y66.763312 Z-1.000000 I0.563925 J0.517897
G03 X72.284435 Y66.976858 Z-1.000000 I-0.892950 J-0.395257
G03 X72.199467 Y67.032135 Z-1.000000 I-0.125639 J-0.100181
G02 X72.123774 Y67.085268 Z-1.000000 I0.033421 J0.128093
G02 X72.091474 Y67.189328 Z-1.000000 I0.151472 J0.104060
G02 X72.131306 Y67.285662 Z-1.000000 I0.136408 J-0.000000
G02 X72.252114 Y67.350417 Z-1.000000 I0.167105 J-0.166687
G03 X72.381806 Y67.407959 Z-1.000000 I-0.063558 J0.318176
G03 X72.412881 Y67.469570 Z-1.000000 I-0.045768 J0.061727
G03 X72.274962 Y67.790114 Z-1.000000 I-0.441455 J0.000000
G03 X71.346845 Y68.478578 Z-1.000000 I-3.320596 J-3.506660
G02 X71.069550 Y68.789397 Z-1.000000 I0.324017 J0.568173
G02 X71.157053 Y68.922028 Z-1.000000 I0.087503 J0.037450
G03 X71.526360 Y68.993292 Z-1.000000 I0.000000 J0.992554
G03 X71.863895 Y69.205369 Z-1.000000 I-0.414851 J1.034906
G03 X71.941364 Y69.380570 Z-1.000000 I-0.160754 J0.175809
G03 X71.864722 Y69.523946 Z-1.000000 I-0.171611 J0.000438
G02 X71.800499 Y69.611630 Z-1.000000 I0.087113 J0.131167
G02 X71.816952 Y69.690206 Z-1.000000 I0.082563 J0.023723
G02 X72.322917 Y69.983796 Z-1.000000 I0.652264 J-0.541316
G02 X72.651251 Y69.836429 Z-1.000000 I0.055382 J-0.316057
G01 X72.648700 Y69.793660 Z-1.000000
G02 X72.520552 Y69.672143 Z-1.000000 I-0.495040 J0.393727
G03 X72.395590 Y69.429401 Z-1.000000 I0.172604 J-0.242392
G03 X72.521171 Y69.126624 Z-1.000000 I0.429007 J0.000506
G03 X72.753566 Y69.042195 Z-1.000000 I0.206592 J0.206603
G03 X73.313086 Y69.196834 Z-1.000000 I-0.142227 J1.604169
G03 X73.625661 Y69.385488 Z-1.000000 I-0.864068 J1.784926
G03 X73.709907 Y69.489333 Z-1.000000 I-0.157867 J0.214167
G02 X74.110675 Y69.592065 Z-1.000000 I0.241791 J-0.110167
G02 X74.638482 Y68.795931 Z-1.000000 I-0.847397 J-1.134817
G02 X74.629062 Y68.659078 Z-1.000000 I-0.218066 J-0.053740
G02 X74.531722 Y68.527896 Z-1.000000 I-0.295933 J0.117882
G03 X74.487103 Y68.346355 Z-1.000000 I0.095460 J-0.119716
G03 X74.685871 Y68.178625 Z-1.000000 I0.271134 J0.119667
G02 X75.056101 Y67.932020 Z-1.000000 I-0.162423 J-0.645063
G02 X75.541564 Y67.034761 Z-1.000000 I-2.801581 J-2.095760
G03 X75.659894 Y66.797616 Z-1.000000 I1.104714 J0.403130
G03 X75.819699 Y66.606394 Z-1.000000 I0.870263 J0.564899
G02 X75.968833 Y66.421554 Z-1.000000 I-0.593070 J-0.631090
G02 X75.980966 Y66.338164 Z-1.000000 I-0.093423 J-0.056170
G03 X76.068109 Y66.192453 Z-1.000000 I0.115593 J-0.029783
G03 X76.305039 Y66.258634 Z-1.000000 I0.059726 J0.243376
G03 X76.345770 Y66.354470 Z-1.000000 I-0.098391 J0.098391
G03 X76.318759 Y67.008030 Z-1.000000 I-5.483381 J0.100711
G02 X76.269611 Y67.673575 Z-1.000000 I12.246530 J1.238956
G02 X76.283649 Y67.760937 Z-1.000000 I0.216125 J0.010079
G02 X76.340428 Y67.812330 Z-1.000000 I0.079239 J-0.030482
G02 X76.651785 Y67.861852 Z-1.000000 I0.379870 J-1.384779
G01 X76.987330 Y67.877832 Z-1.000000
G01 X76.694627 Y68.110133 Z-1.000000
G02 X76.411653 Y68.350769 Z-1.000000 I3.410573 J4.297339
G02 X76.361874 Y68.413081 Z-1.000000 I0.170439 J0.187197
G02 X76.367923 Y68.473657 Z-1.000000 I0.045814 J0.026015
G02 X76.591508 Y68.677487 Z-1.000000 I0.985809 J-0.856810
G03 X77.079869 Y69.149611 Z-1.000000 I-1.366797 J1.902444
G03 X77.178360 Y69.438661 Z-1.000000 I-0.374905 J0.289050
G01 X77.148785 Y69.472721 Z-1.000000
G03 X76.919845 Y69.475301 Z-1.000000 I-0.124380 J-0.877967
G01 X76.661319 Y69.444681 Z-1.000000
G01 X76.376335 Y69.772336 Z-1.000000
G03 X76.074056 Y70.062000 Z-1.000000 I-1.741033 J-1.514303
G03 X75.965520 Y70.099981 Z-1.000000 I-0.108536 J-0.136087
G03 X75.884515 Y70.055139 Z-1.000000 I0.000000 J-0.095586
G03 X75.839714 Y69.899184 Z-1.000000 I0.248885 J-0.155909
G03 X75.861312 Y69.702330 Z-1.000000 I0.908563 J0.000074
G03 X75.946809 Y69.416689 Z-1.000000 I2.013395 J0.447022
G02 X76.042827 Y69.132951 Z-1.000000 I-3.793528 J-1.441863
G02 X76.053880 Y69.057100 Z-1.000000 I-0.254743 J-0.075851
G02 X75.925061 Y68.729483 Z-1.000000 I-0.481012 J0.000000
G02 X75.629283 Y68.600659 Z-1.000000 I-0.295778 J0.275138
G02 X75.470703 Y68.678446 Z-1.000000 I-0.000000 J0.200537
G02 X75.112466 Y69.268339 Z-1.000000 I2.420897 J1.873916
G02 X74.917031 Y69.964261 Z-1.000000 I2.071554 J0.957153
G02 X75.004750 Y70.203029 Z-1.000000 I0.280757 J0.032352
G03 X75.114538 Y70.421763 Z-1.000000 I-0.241311 J0.258040
G03 X75.056470 Y70.665072 Z-1.000000 I-0.366743 J0.041057
G02 X75.032422 Y70.790294 Z-1.000000 I0.140268 J0.091857
G02 X75.109980 Y70.928355 Z-1.000000 I0.253169 J-0.051406
G03 X75.219694 Y71.072225 Z-1.000000 I-0.360416 J0.388618
G03 X75.250636 Y71.198669 Z-1.000000 I-0.242883 J0.126444
G02 X75.301184 Y71.412270 Z-1.000000 I0.476581 J0.000000
G02 X75.526336 Y71.748550 Z-1.000000 I1.448067 J-0.726020
G03 X75.664797 Y71.933539 Z-1.000000 I-1.197356 J1.040512
G03 X75.754524 Y72.104764 Z-1.000000 I-0.937317 J0.600304
G02 X75.862847 Y72.256006 Z-1.000000 I0.383150 J-0.160006
G02 X76.210068 Y72.507025 Z-1.000000 I1.458395 J-1.651668
G03 X76.566944 Y72.947905 Z-1.000000 I-0.404186 J0.692053
G03 X76.791291 Y74.268148 Z-1.000000 I-4.242184 J1.400051
G03 X76.692183 Y75.951691 Z-1.000000 I-11.011723 J0.196441
G03 X76.458088 Y76.713059 Z-1.000000 I-2.433944 J-0.331682
G03 X76.246571 Y77.070803 Z-1.000000 I-2.553141 J-1.268147
G03 X75.919039 Y77.489450 Z-1.000000 I-3.833945 J-2.662073
G02 X75.579543 Y77.900890 Z-1.000000 I6.400750 J5.627310
G02 X75.421722 Y78.131998 Z-1.000000 I1.862967 J1.441638
G02 X75.329558 Y78.387406 Z-1.000000 I0.605784 J0.362929
G02 X75.277360 Y79.069077 Z-1.000000 I4.424943 J0.681671
G01 X75.277360 Y79.765190 Z-1.000000
G01 X74.973524 Y80.380988 Z-1.000000
G02 X74.626176 Y81.348197 Z-1.000000 I4.065726 J2.006077
G02 X74.631657 Y81.833257 Z-1.000000 I0.983194 J0.231450
G02 X74.743416 Y82.095464 Z-1.000000 I0.928519 J-0.240836
G02 X74.948143 Y82.347148 Z-1.000000 I1.058614 J-0.652000
G02 X75.210251 Y82.527526 Z-1.000000 I0.711001 J-0.752536
G02 X75.424650 Y82.576424 Z-1.000000 I0.214399 J-0.445576
G02 X75.649807 Y82.550576 Z-1.000000 I-0.000000 J-0.993572
G02 X75.762432 Y82.497784 Z-1.000000 I-0.067694 J-0.290947
G03 X75.996046 Y82.426971 Z-1.000000 I0.212823 J0.281354
G03 X76.753071 Y82.556224 Z-1.000000 I-0.205889 J3.487426
G02 X77.248055 Y82.653335 Z-1.000000 I0.813217 J-2.834990
G02 X77.813019 Y82.671266 Z-1.000000 I0.399627 J-3.682041
G02 X78.583006 Y82.498488 Z-1.000000 I-0.100712 J-2.250940
G02 X78.942402 Y82.198036 Z-1.000000 I-0.306720 J-0.732071
G03 X79.121294 Y81.953492 Z-1.000000 I2.248044 J1.456810
G03 X79.709206 Y81.265474 Z-1.000000 I18.453098 J15.173005
G02 X80.861092 Y79.749097 Z-1.000000 I-9.328287 J-8.281741
G02 X81.318515 Y78.772496 Z-1.000000 I-3.361014 J-2.169666
G03 X81.544754 Y78.172090 Z-1.000000 I5.329385 J1.665335
G03 X81.700512 Y77.912161 Z-1.000000 I1.137764 J0.505155
G02 X81.856946 Y77.654891 Z-1.000000 I-1.029831 J-0.802386
G02 X81.943955 Y77.382407 Z-1.000000 I-1.070825 J-0.492069
G03 X82.019503 Y77.105698 Z-1.000000 I1.774218 J0.335735
G03 X82.079780 Y77.005303 Z-1.000000 I0.284724 J0.102655
G02 X82.179869 Y76.768744 Z-1.000000 I-0.289405 J-0.261903
G02 X82.267786 Y74.115891 Z-1.000000 I-41.590966 J-2.706225
G02 X82.166811 Y71.774151 Z-1.000000 I-26.393853 J-0.034954
G02 X82.028732 Y71.389930 Z-1.000000 I-0.798563 J0.070061
G03 X81.863163 Y71.063221 Z-1.000000 I1.133805 J-0.779894
G03 X81.759334 Y70.617513 Z-1.000000 I2.028591 J-0.707515
G02 X81.161951 Y68.875919 Z-1.000000 I-4.419475 J0.542671
G02 X79.962739 Y67.611382 Z-1.000000 I-3.424364 J2.046564
G03 X79.472710 Y67.195139 Z-1.000000 I1.597703 J-2.377493
G03 X79.187549 Y66.786203 Z-1.000000 I1.255275 J-1.179226
G02 X78.590838 Y66.091779 Z-1.000000 I-1.680135 J0.840136
G02 X77.392480 Y65.518868 Z-1.000000 I-2.280104 J3.229537
G03 X76.604636 Y65.191170 Z-1.000000 I1.000141 J-3.515423
G03 X76.369753 Y64.945222 Z-1.000000 I0.284028 J-0.506381
G02 X76.120536 Y64.588264 Z-1.000000 I-1.352565 J0.678841
G02 X75.812824 Y64.351967 Z-1.000000 I-0.876335 J0.822684
G02 X75.588420 Y64.277592 Z-1.000000 I-0.325426 J0.606150
G02 X75.036396 Y64.236709 Z-1.000000 I-0.553827 J3.730800
G02 X74.488490 Y64.281345 Z-1.000000 I-0.001394 J3.367956
G02 X74.305242 Y64.356914 Z-1.000000 I0.071105 J0.432389
G03 X74.131479 Y64.462189 Z-1.000000 I-0.788415 J-1.105281
G03 X74.067904 Y64.477405 Z-1.000000 I-0.063575 J-0.125211
G03 X74.009019 Y64.454831 Z-1.000000 I0.000000 J-0.088087
G03 X73.513928 Y63.979467 Z-1.000000 I6.972693 J-7.757558
G02 X72.834871 Y63.436028 Z-1.000000 I-2.536195 J2.473136
G02 X72.317931 Y63.243162 Z-1.000000 I-0.747363 J1.213951
G02 X71.740241 Y63.242476 Z-1.000000 I-0.290953 J1.775776
G02 X71.471941 Y63.379678 Z-1.000000 I0.078052 J0.483566
G03 X71.119370 Y63.511896 Z-1.000000 I-0.321730 J-0.321730
G03 X70.719823 Y63.328588 Z-1.000000 I0.042035 J-0.618711
G02 X70.351247 Y63.122553 Z-1.000000 I-0.538816 J0.531199
G02 X69.501132 Y63.047161 Z-1.000000 I-0.695515 J3.011966
G02 X68.156778 Y63.337293 Z-1.000000 I0.212645 J4.244965
G02 X67.070340 Y64.004169 Z-1.000000 I1.337617 J3.397595
G03 X66.645644 Y64.351962 Z-1.000000 I-4.580157 J-5.159714
G03 X66.543452 Y64.401708 Z-1.000000 I-0.178129 J-0.236086
G03 X66.435035 Y64.401257 Z-1.000000 I-0.053375 J-0.200784
G03 X66.248945 Y64.320898 Z-1.000000 I0.193104 J-0.702823
G02 X65.627395 Y64.212747 Z-1.000000 I-0.448073 J0.734983
G02 X64.611691 Y64.657773 Z-1.000000 I0.535953 J2.604840
G03 X64.335993 Y64.836934 Z-1.000000 I-2.053049 J-2.857592
G03 X64.279339 Y64.852294 Z-1.000000 I-0.056654 J-0.096798
G02 X62.531263 Y65.507675 Z-1.000000 I0.000000 J2.658981
G02 X61.011157 Y67.703676 Z-1.000000 I3.577685 J4.100651
G03 X60.932434 Y67.816789 Z-1.000000 I-0.260521 J-0.097364
G03 X60.840653 Y67.850939 Z-1.000000 I-0.091781 J-0.106259
G02 X60.437826 Y68.027400 Z-1.000000 I0.000000 J0.548021
G02 X59.825029 Y68.952032 Z-1.000000 I2.562764 J2.363843
G03 X59.655581 Y69.322977 Z-1.000000 I-63.245259 J-28.666231
G03 X59.522714 Y69.608698 Z-1.000000 I-37.192670 J-17.121779
G03 X59.362168 Y69.875910 Z-1.000000 I-1.387404 J-0.651744
G03 X58.988493 Y70.321895 Z-1.000000 I-4.272540 J-3.200271
G02 X58.617995 Y70.769544 Z-1.000000 I3.507550 J3.280183
G02 X58.453711 Y71.054082 Z-1.000000 I1.239582 J0.905393
G02 X58.220867 Y71.781176 Z-1.000000 I3.284172 J1.452551
G02 X58.079455 Y72.868426 Z-1.000000 I7.254216 J1.496332
G02 X58.085187 Y73.457827 Z-1.000000 I4.532284 J0.250652
G02 X58.134425 Y73.602820 Z-1.000000 I0.305405 J-0.022855
G03 X58.216364 Y73.739200 Z-1.000000 I-1.698619 J1.113356
G03 X58.222575 Y73.763432 Z-1.000000 I-0.044163 J0.024232
G01 X58.212528 Y73.784273 Z-1.000000
G03 X57.981683 Y73.955264 Z-1.000000 I-2.567232 J-3.224553
G02 X57.760851 Y74.138693 Z-1.000000 I0.900422 J1.308673
G02 X57.661513 Y74.274307 Z-1.000000 I0.384386 J0.385755
G02 X57.538027 Y74.653438 Z-1.000000 I1.095364 J0.566445
G02 X57.364914 Y76.204286 Z-1.000000 I18.667361 J2.868824
G02 X57.258885 Y79.777507 Z-1.000000 I44.385684 J3.105249
G02 X57.412284 Y80.713978 Z-1.000000 I3.136596 J-0.032991
G02 X57.645079 Y81.105889 Z-1.000000 I0.985633 J-0.320371
G02 X57.930171 Y81.261365 Z-1.000000 I0.382091 J-0.361507
G03 X58.101599 Y81.416118 Z-1.000000 I-0.040832 J0.217557
G03 X58.186908 Y82.129098 Z-1.000000 I-2.051814 J0.607097
G02 X58.244056 Y83.098426 Z-1.000000 I4.482941 J0.222053
G02 X58.468353 Y83.795883 Z-1.000000 I2.519152 J-0.425348
G02 X58.867395 Y84.383218 Z-1.000000 I2.257134 J-1.104299
G02 X59.454686 Y84.879282 Z-1.000000 I2.178098 J-1.982973
G02 X59.733067 Y85.000010 Z-1.000000 I0.510109 J-0.794918
G02 X60.054827 Y85.031169 Z-1.000000 I0.263041 J-1.039377
G03 X60.356880 Y85.054752 Z-1.000000 I0.062646 J1.143797
G03 X60.407777 Y85.106669 Z-1.000000 I-0.013763 J0.064400
G03 X60.377494 Y85.222553 Z-1.000000 I-0.136189 J0.026310
G03 X60.002901 Y85.585330 Z-1.000000 I-2.006618 J-1.697191
G02 X59.816709 Y86.065942 Z-1.000000 I0.315937 J0.398768
G02 X60.179911 Y86.671332 Z-1.000000 I0.942080 J-0.153553
G03 X60.451003 Y86.971276 Z-1.000000 I-0.668948 J0.877080
G03 X60.525087 Y87.233540 Z-1.000000 I-0.427176 J0.262264
G02 X60.553276 Y87.333450 Z-1.000000 I0.191148 J-0.000000
G02 X60.731988 Y87.570873 Z-1.000000 I1.331992 J-0.816639
G03 X60.919475 Y87.809900 Z-1.000000 I-1.489693 J1.361521
G03 X61.044763 Y88.038215 Z-1.000000 I-1.232408 J0.824819
G02 X61.289489 Y88.387230 Z-1.000000 I0.994304 J-0.436889
G02 X62.554462 Y89.478123 Z-1.000000 I11.509501 J-12.067274
G03 X63.262953 Y90.041971 Z-1.000000 I-26.012795 J33.412827
G03 X63.839578 Y90.523499 Z-1.000000 I-18.412749 J22.635138
G02 X65.623759 Y91.898874 Z-1.000000 I14.128677 J-16.483232
G02 X66.909261 Y92.645351 Z-1.000000 I5.374284 J-7.774901
G02 X67.371319 Y92.827385 Z-1.000000 I1.491206 J-3.107692
G02 X67.918539 Y92.961083 Z-1.000000 I1.323854 J-4.231772
G03 X68.642468 Y93.212298 Z-1.000000 I-0.426709 J2.398337
G03 X68.879602 Y93.476105 Z-1.000000 I-0.246586 J0.460136
G02 X69.104376 Y93.790863 Z-1.000000 I0.770960 J-0.312918
G02 X69.521014 Y94.034237 Z-1.000000 I0.849997 J-0.976817
G03 X69.864900 Y94.168087 Z-1.000000 I-2.055224 J5.788962
G03 X70.565183 Y94.477167 Z-1.000000 I-10.362224 J24.425534
G02 X71.949680 Y95.048387 Z-1.000000 I8.054711 J-17.559182
G02 X72.275608 Y95.106440 Z-1.000000 I0.325928 J-0.885909
G02 X72.536831 Y95.057618 Z-1.000000 I0.000000 J-0.723254
G02 X72.890444 Y94.868331 Z-1.000000 I-0.595412 J-1.537248
G03 X73.237581 Y94.650590 Z-1.000000 I2.213649 J3.143558
G03 X73.378595 Y94.597272 Z-1.000000 I0.252548 J0.454799
G03 X73.841003 Y94.626502 Z-1.000000 I0.180271 J0.820351
G03 X74.511139 Y95.001139 Z-1.000000 I-0.774846 J2.172691
G02 X74.885601 Y95.177282 Z-1.000000 I0.551446 J-0.686213
G02 X75.866358 Y95.279272 Z-1.000000 I1.004829 J-4.896039
G02 X77.149595 Y95.183503 Z-1.000000 I0.040574 J-8.101371
G02 X77.353990 Y95.048642 Z-1.000000 I-0.045126 J-0.290714
G03 X77.475695 Y95.006555 Z-1.000000 I0.086893 J0.054262
G03 X77.729919 Y95.184476 Z-1.000000 I-0.202108 J0.559370
G02 X78.071771 Y95.380294 Z-1.000000 I0.435559 J-0.364080
G02 X79.213054 Y95.432703 Z-1.000000 I0.788079 J-4.708756
G02 X81.633515 Y95.154737 Z-1.000000 I-2.237725 J-30.162916
G02 X82.013083 Y94.996256 Z-1.000000 I-0.132763 J-0.851752
G03 X82.170732 Y94.902260 Z-1.000000 I0.550184 J0.743560
G03 X82.402837 Y94.813485 Z-1.000000 I0.723358 J1.543438
G02 X83.450707 Y94.345477 Z-1.000000 I-1.298132 J-4.313611
G02 X86.040217 Y92.594528 Z-1.000000 I-17.407125 J-28.534027
G03 X87.665570 Y91.452956 Z-1.000000 I20.466798 J27.412430
G03 X87.995281 Y91.304461 Z-1.000000 I0.624633 J0.946624
G02 X89.029506 Y90.791067 Z-1.000000 I-0.764094 J-2.837668
G02 X89.644685 Y90.028274 Z-1.000000 I-1.295222 J-1.674035
G03 X89.760535 Y89.869508 Z-1.000000 I0.481149 J0.229441
G03 X89.889331 Y89.798020 Z-1.000000 I0.205385 J0.218264
G02 X90.100401 Y89.682240 Z-1.000000 I-0.127693 J-0.483070
G02 X90.547181 Y89.191272 Z-1.000000 I-2.576036 J-2.792959
G03 X90.815603 Y88.885187 Z-1.000000 I2.343955 J1.784804
G03 X91.106220 Y88.636325 Z-1.000000 I1.833866 J1.847434
G02 X93.338498 Y86.640546 Z-1.000000 I-9.363567 J-12.719435
G02 X94.267588 Y85.217832 Z-1.000000 I-3.734123 J-3.453258
G03 X94.408276 Y84.978003 Z-1.000000 I1.068296 J0.465501
G03 X94.775158 Y84.550413 Z-1.000000 I3.801314 J2.890426
G02 X95.132708 Y84.126455 Z-1.000000 I-2.957540 J-2.857028
G02 X95.170119 Y84.012254 Z-1.000000 I-0.155600 J-0.114201
G03 X95.194934 Y83.888991 Z-1.000000 I0.318552 J-0.000000
G03 X95.462975 Y83.314418 Z-1.000000 I7.463725 J3.132060
G02 X95.727713 Y82.735637 Z-1.000000 I-6.063129 J-3.123249
G02 X95.839522 Y82.377960 Z-1.000000 I-2.193273 J-0.881926
G03 X95.955287 Y82.023964 Z-1.000000 I1.968158 J0.447707
G03 X96.131768 Y81.702720 Z-1.000000 I1.793691 J0.776297
G02 X96.392772 Y81.190742 Z-1.000000 I-1.909406 J-1.295924
G02 X96.744555 Y80.006137 Z-1.000000 I-10.034119 J-3.624292
G03 X96.890662 Y79.448166 Z-1.000000 I11.062227 J2.598576
G03 X97.007776 Y79.095831 Z-1.000000 I4.525372 J1.308574
G02 X97.120751 Y78.743180 Z-1.000000 I-3.426324 J-1.292071
G02 X97.178436 Y78.453271 Z-1.000000 I-2.267858 J-0.601947
G03 X97.233070 Y78.162071 Z-1.000000 I2.815704 J0.377546
G03 X97.368550 Y77.668295 Z-1.000000 I8.252023 J1.998683
G02 X97.487171 Y77.171725 Z-1.000000 I-3.851029 J-1.182386
G02 X97.576215 Y76.466167 Z-1.000000 I-7.697444 J-1.329848
G02 X97.623023 Y71.872222 Z-1.000000 I-32.818669 J-2.631603
G02 X97.114621 Y68.734462 Z-1.000000 I-15.735795 J0.939557
G03 X97.051621 Y68.409542 Z-1.000000 I2.283184 J-0.611266
G03 X96.994463 Y67.749856 Z-1.000000 I9.386500 J-1.145600
G02 X96.900589 Y67.116047 Z-1.000000 I-3.351555 J0.172544
G02 X96.795649 Y66.946645 Z-1.000000 I-0.315108 J0.077997
G03 X96.588992 Y66.661746 Z-1.000000 I0.481026 J-0.566321
G03 X96.447967 Y66.097058 Z-1.000000 I1.880682 J-0.769636
G02 X96.385747 Y65.655460 Z-1.000000 I-5.733535 J0.582652
G02 X96.349157 Y65.550272 Z-1.000000 I-0.352505 J0.063663
G02 X96.275722 Y65.473845 Z-1.000000 I-0.172645 J0.092393
G02 X96.027373 Y65.361154 Z-1.000000 I-0.657172 J1.118276
G03 X95.789404 Y65.250226 Z-1.000000 I0.358540 J-1.079873
G03 X95.759134 Y65.196044 Z-1.000000 I0.033356 J-0.054182
G03 X95.775987 Y65.136831 Z-1.000000 I0.112452 J-0.000000
G01 X95.806184 Y65.120014 Z-1.000000
G02 X96.100371 Y64.833712 Z-1.000000 I0.000000 J-0.294296
G02 X95.837424 Y63.970943 Z-1.000000 I-1.420283 J-0.038592
G03 X95.540645 Y63.472707 Z-1.000000 I2.898179 J-2.063834
G03 X95.492291 Y63.266607 Z-1.000000 I0.425683 J-0.208594
G02 X95.458773 Y63.111454 Z-1.000000 I-0.387694 J0.002557
G02 X95.325158 Y62.891782 Z-1.000000 I-0.923363 J0.411163
G03 X95.175209 Y62.673203 Z-1.000000 I1.429152 J-1.141144
G03 X94.890704 Y62.148141 Z-1.000000 I8.012726 J-4.681312
G02 X93.967712 Y60.684867 Z-1.000000 I-7.874636 J3.944362
G02 X93.620262 Y60.514950 Z-1.000000 I-0.347450 J0.270279
G03 X93.516780 Y60.445558 Z-1.000000 I-0.000000 J-0.111856
G03 X93.437637 Y60.069885 Z-1.000000 I0.982420 J-0.403140
G02 X93.125938 Y59.068482 Z-1.000000 I-1.924736 J0.049886
G02 X92.521584 Y58.664426 Z-1.000000 I-0.774906 J0.505041
G03 X92.219048 Y58.504776 Z-1.000000 I0.106803 J-0.568870
G03 X92.117932 Y58.260611 Z-1.000000 I0.244236 J-0.244165
G02 X92.022857 Y58.029078 Z-1.000000 I-0.329459 J-0.000000
G02 X91.486658 Y57.621561 Z-1.000000 I-1.697058 J1.676422
G03 X90.911965 Y57.210819 Z-1.000000 I1.533638 J-2.753216
G03 X90.832803 Y57.033066 Z-1.000000 I0.159985 J-0.177753
G02 X90.707372 Y56.706864 Z-1.000000 I-0.486885 J0.000000
G02 X88.085654 Y53.989038 Z-1.000000 I-42.200408 J38.084702
G02 X86.706161 Y52.814458 Z-1.000000 I-9.734684 J10.035597
G02 X86.352218 Y52.697067 Z-1.000000 I-0.353943 J0.474886
G03 X86.157965 Y52.639678 Z-1.000000 I0.000000 J-0.357451
G03 X86.009722 Y52.475361 Z-1.000000 I0.231946 J-0.358287
G02 X85.753413 Y52.138784 Z-1.000000 I-1.057782 J0.539638
G02 X85.220114 Y51.753121 Z-1.000000 I-1.939377 J2.120233
G03 X84.890923 Y51.549921 Z-1.000000 I2.275124 J-4.054019
G03 X84.599890 Y51.333642 Z-1.000000 I2.285523 J-3.379444
G02 X84.176377 Y51.058130 Z-1.000000 I-1.496966 J1.837848
G02 X83.855629 Y50.955595 Z-1.000000 I-0.476910 J0.938915
G03 X83.519680 Y50.827981 Z-1.000000 I0.125331 J-0.835948
G03 X83.443296 Y50.687086 Z-1.000000 I0.091754 J-0.140895
G02 X83.200817 Y50.217844 Z-1.000000 I-0.575276 J0.000000
G02 X82.425894 Y49.965505 Z-1.000000 I-0.792338 J1.117192
G03 X82.108747 Y49.877296 Z-1.000000 I0.007601 J-0.641566
G03 X81.455150 Y49.396077 Z-1.000000 I1.979677 J-3.373291
G02 X80.690742 Y48.850843 Z-1.000000 I-2.662784 J2.924717
G02 X80.009443 Y48.605158 Z-1.000000 I-1.129367 J2.064316
G03 X79.460788 Y48.437245 Z-1.000000 I0.519079 J-2.676412
G03 X78.549542 Y47.983758 Z-1.000000 I3.360171 J-7.894275
G02 X77.598162 Y47.530038 Z-1.000000 I-3.449540 J6.008838
G02 X77.166572 Y47.449147 Z-1.000000 I-0.433617 J1.121736
G03 X76.758460 Y47.386412 Z-1.000000 I0.001874 J-1.371011
G03 X76.377422 Y47.201970 Z-1.000000 I0.431785 J-1.377834
G02 X76.178988 Y47.089153 Z-1.000000 I-0.793321 J1.164452
G02 X75.638619 Y46.857841 Z-1.000000 I-3.951026 J8.483174
G02 X73.010089 Y46.223815 Z-1.000000 I-3.624174 J9.259352
