
;Inkscape Lasertools G-code
;https://github.com/ChrisWag91/Inkscape-Lasertools-Plugin

G90	;Absolute programming
G21	;Programming in millimeters (mm)
M03 S1 ;Activate laser and set power to 0 (CUSTOM)

; START infill strategy
G01 F1200.0
G00 X-0.28 Y45.25 F3000.0
S90
G01 Y54.25 F1200.0
S1
G00 X-0.08 Y54.25 F3000.0
S90
G01 Y45.25 F1200.0
S1
G00 X0.12 Y45.25 F3000.0
S90
G01 Y54.25 F1200.0
S1
G00 X0.32 Y54.25 F3000.0
S90
G01 Y45.25 F1200.0
S1
G00 X0.52 Y45.25 F3000.0
S90
G01 Y54.25 F1200.0
S1
G00 X0.72 Y54.25 F3000.0
S90
G01 Y45.25 F1200.0
S1
G00 X0.92 Y45.25 F3000.0
S90
G01 Y54.25 F1200.0
S1
G00 X1.12 Y54.25 F3000.0
S90
G01 Y45.25 F1200.0
S1
G00 X1.32 Y45.25 F3000.0
S90
G01 Y54.25 F1200.0
S1
G00 X1.52 Y54.25 F3000.0
S90
G01 Y45.25 F1200.0
S1
G00 X1.72 Y45.25 F3000.0
S90
G01 Y54.25 F1200.0
S1
G00 X1.92 Y54.25 F3000.0
S90
G01 Y45.25 F1200.0
S1
G00 X2.12 Y45.25 F3000.0
S90
G01 Y54.25 F1200.0
S1
G00 X2.32 Y54.25 F3000.0
S90
G01 Y45.25 F1200.0
S1
G00 X2.52 Y45.25 F3000.0
S90
G01 Y54.25 F1200.0
S1
G00 X2.72 Y54.25 F3000.0
S90
G01 Y45.25 F1200.0
S1
G00 X2.92 Y45.25 F3000.0
S90
G01 Y54.25 F1200.0
S1
G00 X3.12 Y54.25 F3000.0
S90
G01 Y45.25 F1200.0
S1
G00 X3.32 Y45.25 F3000.0
S90
G01 Y54.25 F1200.0
S1
G00 X3.52 Y54.25 F3000.0
S90
G01 Y45.25 F1200.0
S1
G00 X3.72 Y45.25 F3000.0
S90
G01 Y54.25 F1200.0
S1
G00 X3.92 Y54.25 F3000.0
S90
G01 Y45.25 F1200.0
S1
G00 X4.12 Y45.25 F3000.0
S90
G01 Y54.25 F1200.0
S1
G00 X4.32 Y54.25 F3000.0
S90
G01 Y45.25 F1200.0
S1
G00 X4.52 Y45.25 F3000.0
S90
G01 Y54.25 F1200.0
S1
G00 X4.72 Y54.25 F3000.0
S90
G01 Y45.25 F1200.0
S1
G00 X4.92 Y45.25 F3000.0
S90
G01 Y54.25 F1200.0
S1
G00 X5.12 Y54.25 F3000.0
S90
G01 Y45.25 F1200.0
S1
G00 X5.32 Y45.25 F3000.0
S90
G01 Y54.25 F1200.0
S1
G00 X5.52 Y54.25 F3000.0
S90
G01 Y45.25 F1200.0
S1
G00 X5.72 Y45.25 F3000.0
S90
G01 Y54.25 F1200.0
S1
G00 X5.92 Y54.25 F3000.0
S90
G01 Y45.25 F1200.0
S1
G00 X6.12 Y45.25 F3000.0
S90
G01 Y54.25 F1200.0
S1
G00 X6.32 Y54.25 F3000.0
S90
G01 Y45.25 F1200.0
S1
G00 X6.52 Y45.25 F3000.0
S90
G01 Y54.25 F1200.0
S1
G00 X6.72 Y54.25 F3000.0
S90
G01 Y45.25 F1200.0
S1
G00 X6.92 Y45.25 F3000.0
S90
G01 Y54.25 F1200.0
S1
G00 X7.12 Y54.25 F3000.0
S90
G01 Y45.25 F1200.0
S1
G00 X7.32 Y45.25 F3000.0
S90
G01 Y54.25 F1200.0
S1
G00 X7.52 Y54.25 F3000.0
S90
G01 Y45.25 F1200.0
S1
G00 X7.72 Y45.25 F3000.0
S90
G01 Y54.25 F1200.0
S1
G00 X7.92 Y54.25 F3000.0
S90
G01 Y45.25 F1200.0
S1
G00 X8.12 Y45.25 F3000.0
S90
G01 Y54.25 F1200.0
S1
G00 X8.32 Y54.25 F3000.0
S90
G01 Y45.25 F1200.0
S1
G00 X8.52 Y45.25 F3000.0
S90
G01 Y54.25 F1200.0
S1
G00 X8.52 Y63.25 F3000.0
S90
G01 Y72.25 F1200.0
S1
G00 X8.72 Y72.25 F3000.0
S90
G01 Y81.25 F1200.0
S1
G00 X8.52 Y81.25 F3000.0
S90
G01 Y90.25 F1200.0
S1
G00 X8.32 Y90.25 F3000.0
S90
G01 Y81.25 F1200.0
S1
G00 X8.12 Y81.25 F3000.0
S90
G01 Y90.25 F1200.0
S1
G00 X7.92 Y90.25 F3000.0
S90
G01 Y81.25 F1200.0
S1
G00 X7.72 Y81.25 F3000.0
S90
G01 Y90.25 F1200.0
S1
G00 X7.52 Y90.25 F3000.0
S90
G01 Y81.25 F1200.0
S1
G00 X7.32 Y81.25 F3000.0
S90
G01 Y90.25 F1200.0
S1
G00 X7.12 Y90.25 F3000.0
S90
G01 Y81.25 F1200.0
S1
G00 X6.92 Y81.25 F3000.0
S90
G01 Y90.25 F1200.0
S1
G00 X6.72 Y90.25 F3000.0
S90
G01 Y81.25 F1200.0
S1
G00 X6.52 Y81.25 F3000.0
S90
G01 Y90.25 F1200.0
S1
G00 X6.32 Y90.25 F3000.0
S90
G01 Y81.25 F1200.0
S1
G00 X6.12 Y81.25 F3000.0
S90
G01 Y90.25 F1200.0
S1
G00 X5.92 Y90.25 F3000.0
S90
G01 Y81.25 F1200.0
S1
G00 X5.72 Y81.25 F3000.0
S90
G01 Y90.25 F1200.0
S1
G00 X5.52 Y90.25 F3000.0
S90
G01 Y81.25 F1200.0
S1
G00 X5.32 Y81.25 F3000.0
S90
G01 Y90.25 F1200.0
S1
G00 X5.12 Y90.25 F3000.0
S90
G01 Y81.25 F1200.0
S1
G00 X4.92 Y81.25 F3000.0
S90
G01 Y90.25 F1200.0
S1
G00 X4.72 Y90.25 F3000.0
S90
G01 Y81.25 F1200.0
S1
G00 X4.52 Y81.25 F3000.0
S90
G01 Y90.25 F1200.0
S1
G00 X4.32 Y90.25 F3000.0
S90
G01 Y81.25 F1200.0
S1
G00 X4.12 Y81.25 F3000.0
S90
G01 Y90.25 F1200.0
S1
G00 X3.92 Y90.25 F3000.0
S90
G01 Y81.25 F1200.0
S1
G00 X3.72 Y81.25 F3000.0
S90
G01 Y90.25 F1200.0
S1
G00 X3.52 Y90.25 F3000.0
S90
G01 Y81.25 F1200.0
S1
G00 X3.32 Y81.25 F3000.0
S90
G01 Y90.25 F1200.0
S1
G00 X3.12 Y90.25 F3000.0
S90
G01 Y81.25 F1200.0
S1
G00 X2.92 Y81.25 F3000.0
S90
G01 Y90.25 F1200.0
S1
G00 X2.72 Y90.25 F3000.0
S90
G01 Y81.25 F1200.0
S1
G00 X2.52 Y81.25 F3000.0
S90
G01 Y90.25 F1200.0
S1
G00 X2.32 Y90.25 F3000.0
S90
G01 Y81.25 F1200.0
S1
G00 X2.12 Y81.25 F3000.0
S90
G01 Y90.25 F1200.0
S1
G00 X1.92 Y90.25 F3000.0
S90
G01 Y81.25 F1200.0
S1
G00 X1.72 Y81.25 F3000.0
S90
G01 Y90.25 F1200.0
S1
G00 X1.52 Y90.25 F3000.0
S90
G01 Y81.25 F1200.0
S1
G00 X1.32 Y81.25 F3000.0
S90
G01 Y90.25 F1200.0
S1
G00 X1.12 Y90.25 F3000.0
S90
G01 Y81.25 F1200.0
S1
G00 X0.92 Y81.25 F3000.0
S90
G01 Y90.25 F1200.0
S1
G00 X0.72 Y90.25 F3000.0
S90
G01 Y81.25 F1200.0
S1
G00 X0.52 Y81.25 F3000.0
S90
G01 Y90.25 F1200.0
S1
G00 X0.32 Y90.25 F3000.0
S90
G01 Y81.25 F1200.0
S1
G00 X0.12 Y81.25 F3000.0
S90
G01 Y90.25 F1200.0
S1
G00 X-0.08 Y90.25 F3000.0
S90
G01 Y81.25 F1200.0
S1
G00 X-0.28 Y81.25 F3000.0
S90
G01 Y90.25 F1200.0
S1
G00 X17.72 Y90.25 F3000.0
S90
G01 Y99.25 F1200.0
S1
G00 X17.52 Y99.25 F3000.0
S90
G01 Y126.25 F1200.0
S1
G00 X17.32 Y126.25 F3000.0
S90
G01 Y99.25 F1200.0
S1
G00 X17.12 Y99.25 F3000.0
S90
G01 Y126.25 F1200.0
S1
G00 X16.92 Y126.25 F3000.0
S90
G01 Y99.25 F1200.0
S1
G00 X16.72 Y99.25 F3000.0
S90
G01 Y126.25 F1200.0
S1
G00 X16.52 Y126.25 F3000.0
S90
G01 Y99.25 F1200.0
S1
G00 X16.32 Y99.25 F3000.0
S90
G01 Y126.25 F1200.0
S1
G00 X16.12 Y126.25 F3000.0
S90
G01 Y99.25 F1200.0
S1
G00 X15.92 Y99.25 F3000.0
S90
G01 Y126.25 F1200.0
S1
G00 X15.72 Y126.25 F3000.0
S90
G01 Y99.25 F1200.0
S1
G00 X15.52 Y99.25 F3000.0
S90
G01 Y126.25 F1200.0
S1
G00 X15.32 Y126.25 F3000.0
S90
G01 Y99.25 F1200.0
S1
G00 X15.12 Y99.25 F3000.0
S90
G01 Y126.25 F1200.0
S1
G00 X14.92 Y126.25 F3000.0
S90
G01 Y99.25 F1200.0
S1
G00 X14.72 Y99.25 F3000.0
S90
G01 Y126.25 F1200.0
S1
G00 X14.52 Y126.25 F3000.0
S90
G01 Y99.25 F1200.0
S1
G00 X14.32 Y99.25 F3000.0
S90
G01 Y126.25 F1200.0
S1
G00 X14.12 Y126.25 F3000.0
S90
G01 Y99.25 F1200.0
S1
G00 X13.92 Y99.25 F3000.0
S90
G01 Y126.25 F1200.0
S1
G00 X13.72 Y126.25 F3000.0
S90
G01 Y99.25 F1200.0
S1
G00 X13.52 Y99.25 F3000.0
S90
G01 Y126.25 F1200.0
S1
G00 X13.32 Y126.25 F3000.0
S90
G01 Y99.25 F1200.0
S1
G00 X13.12 Y99.25 F3000.0
S90
G01 Y126.25 F1200.0
S1
G00 X12.92 Y126.25 F3000.0
S90
G01 Y99.25 F1200.0
S1
G00 X12.72 Y99.25 F3000.0
S90
G01 Y126.25 F1200.0
S1
G00 X12.52 Y126.25 F3000.0
S90
G01 Y99.25 F1200.0
S1
G00 X12.32 Y99.25 F3000.0
S90
G01 Y126.25 F1200.0
S1
G00 X12.12 Y126.25 F3000.0
S90
G01 Y99.25 F1200.0
S1
G00 X11.92 Y99.25 F3000.0
S90
G01 Y126.25 F1200.0
S1
G00 X11.72 Y126.25 F3000.0
S90
G01 Y99.25 F1200.0
S1
G00 X11.52 Y99.25 F3000.0
S90
G01 Y126.25 F1200.0
S1
G00 X11.32 Y126.25 F3000.0
S90
G01 Y99.25 F1200.0
S1
G00 X11.12 Y99.25 F3000.0
S90
G01 Y126.25 F1200.0
S1
G00 X10.92 Y126.25 F3000.0
S90
G01 Y99.25 F1200.0
S1
G00 X10.72 Y99.25 F3000.0
S90
G01 Y126.25 F1200.0
S1
G00 X10.52 Y126.25 F3000.0
S90
G01 Y99.25 F1200.0
S1
G00 X10.32 Y99.25 F3000.0
S90
G01 Y126.25 F1200.0
S1
G00 X10.12 Y126.25 F3000.0
S90
G01 Y99.25 F1200.0
S1
G00 X9.92 Y99.25 F3000.0
S90
G01 Y126.25 F1200.0
S1
G00 X9.72 Y126.25 F3000.0
S90
G01 Y99.25 F1200.0
S1
G00 X9.52 Y99.25 F3000.0
S90
G01 Y126.25 F1200.0
S1
G00 X9.32 Y126.25 F3000.0
S90
G01 Y99.25 F1200.0
S1
G00 X9.12 Y99.25 F3000.0
S90
G01 Y126.25 F1200.0
S1
G00 X8.92 Y126.25 F3000.0
S90
G01 Y99.25 F1200.0
S1
G00 X8.72 Y99.25 F3000.0
S90
G01 Y126.25 F1200.0
S1
G00 X8.52 Y126.25 F3000.0
S90
G01 Y117.25 F1200.0
S1
G00 X8.32 Y117.25 F3000.0
S90
G01 Y126.25 F1200.0
S1
G00 X8.12 Y126.25 F3000.0
S90
G01 Y117.25 F1200.0
S1
G00 X7.92 Y117.25 F3000.0
S90
G01 Y126.25 F1200.0
S1
G00 X7.72 Y126.25 F3000.0
S90
G01 Y117.25 F1200.0
S1
G00 X7.52 Y117.25 F3000.0
S90
G01 Y126.25 F1200.0
S1
G00 X7.32 Y126.25 F3000.0
S90
G01 Y117.25 F1200.0
S1
G00 X7.12 Y117.25 F3000.0
S90
G01 Y126.25 F1200.0
S1
G00 X6.92 Y126.25 F3000.0
S90
G01 Y117.25 F1200.0
S1
G00 X6.72 Y117.25 F3000.0
S90
G01 Y126.25 F1200.0
S1
G00 X6.52 Y126.25 F3000.0
S90
G01 Y117.25 F1200.0
S1
G00 X6.32 Y117.25 F3000.0
S90
G01 Y126.25 F1200.0
S1
G00 X6.12 Y126.25 F3000.0
S90
G01 Y117.25 F1200.0
S1
G00 X5.92 Y117.25 F3000.0
S90
G01 Y126.25 F1200.0
S1
G00 X5.72 Y126.25 F3000.0
S90
G01 Y117.25 F1200.0
S1
G00 X5.52 Y117.25 F3000.0
S90
G01 Y126.25 F1200.0
S1
G00 X5.32 Y126.25 F3000.0
S90
G01 Y117.25 F1200.0
S1
G00 X5.12 Y117.25 F3000.0
S90
G01 Y126.25 F1200.0
S1
G00 X4.92 Y126.25 F3000.0
S90
G01 Y117.25 F1200.0
S1
G00 X4.72 Y117.25 F3000.0
S90
G01 Y126.25 F1200.0
S1
G00 X4.52 Y126.25 F3000.0
S90
G01 Y117.25 F1200.0
S1
G00 X4.32 Y117.25 F3000.0
S90
G01 Y126.25 F1200.0
S1
G00 X4.12 Y126.25 F3000.0
S90
G01 Y117.25 F1200.0
S1
G00 X3.92 Y117.25 F3000.0
S90
G01 Y126.25 F1200.0
S1
G00 X3.72 Y126.25 F3000.0
S90
G01 Y117.25 F1200.0
S1
G00 X3.52 Y117.25 F3000.0
S90
G01 Y126.25 F1200.0
S1
G00 X3.32 Y126.25 F3000.0
S90
G01 Y117.25 F1200.0
S1
G00 X3.12 Y117.25 F3000.0
S90
G01 Y126.25 F1200.0
S1
G00 X2.92 Y126.25 F3000.0
S90
G01 Y117.25 F1200.0
S1
G00 X2.72 Y117.25 F3000.0
S90
G01 Y126.25 F1200.0
S1
G00 X2.52 Y126.25 F3000.0
S90
G01 Y117.25 F1200.0
S1
G00 X2.32 Y117.25 F3000.0
S90
G01 Y126.25 F1200.0
S1
G00 X2.12 Y126.25 F3000.0
S90
G01 Y117.25 F1200.0
S1
G00 X1.92 Y117.25 F3000.0
S90
G01 Y126.25 F1200.0
S1
G00 X1.72 Y126.25 F3000.0
S90
G01 Y117.25 F1200.0
S1
G00 X1.52 Y117.25 F3000.0
S90
G01 Y126.25 F1200.0
S1
G00 X1.32 Y126.25 F3000.0
S90
G01 Y117.25 F1200.0
S1
G00 X1.12 Y117.25 F3000.0
S90
G01 Y126.25 F1200.0
S1
G00 X0.92 Y126.25 F3000.0
S90
G01 Y117.25 F1200.0
S1
G00 X0.72 Y117.25 F3000.0
S90
G01 Y126.25 F1200.0
S1
G00 X0.52 Y126.25 F3000.0
S90
G01 Y117.25 F1200.0
S1
G00 X0.32 Y117.25 F3000.0
S90
G01 Y126.25 F1200.0
S1
G00 X0.12 Y126.25 F3000.0
S90
G01 Y117.25 F1200.0
S1
G00 X-0.08 Y117.25 F3000.0
S90
G01 Y126.25 F1200.0
S1
G00 X-0.28 Y126.25 F3000.0
S90
G01 Y117.25 F1200.0
S1
G00 X-0.28 Y135.25 F3000.0
S90
G01 Y162.25 F1200.0
S1
G00 X-0.08 Y162.25 F3000.0
S90
G01 Y135.25 F1200.0
S1
G00 X0.12 Y135.25 F3000.0
S90
G01 Y162.25 F1200.0
S1
G00 X0.32 Y162.25 F3000.0
S90
G01 Y135.25 F1200.0
S1
G00 X0.52 Y135.25 F3000.0
S90
G01 Y162.25 F1200.0
S1
G00 X0.72 Y162.25 F3000.0
S90
G01 Y135.25 F1200.0
S1
G00 X0.92 Y135.25 F3000.0
S90
G01 Y162.25 F1200.0
S1
G00 X1.12 Y162.25 F3000.0
S90
G01 Y135.25 F1200.0
S1
G00 X1.32 Y135.25 F3000.0
S90
G01 Y162.25 F1200.0
S1
G00 X1.52 Y162.25 F3000.0
S90
G01 Y135.25 F1200.0
S1
G00 X1.72 Y135.25 F3000.0
S90
G01 Y162.25 F1200.0
S1
G00 X1.92 Y162.25 F3000.0
S90
G01 Y135.25 F1200.0
S1
G00 X2.12 Y135.25 F3000.0
S90
G01 Y162.25 F1200.0
S1
G00 X2.32 Y162.25 F3000.0
S90
G01 Y135.25 F1200.0
S1
G00 X2.52 Y135.25 F3000.0
S90
G01 Y162.25 F1200.0
S1
G00 X2.72 Y162.25 F3000.0
S90
G01 Y135.25 F1200.0
S1
G00 X2.92 Y135.25 F3000.0
S90
G01 Y162.25 F1200.0
S1
G00 X3.12 Y162.25 F3000.0
S90
G01 Y135.25 F1200.0
S1
G00 X3.32 Y135.25 F3000.0
S90
G01 Y162.25 F1200.0
S1
G00 X3.52 Y162.25 F3000.0
S90
G01 Y135.25 F1200.0
S1
G00 X3.72 Y135.25 F3000.0
S90
G01 Y162.25 F1200.0
S1
G00 X3.92 Y162.25 F3000.0
S90
G01 Y135.25 F1200.0
S1
G00 X4.12 Y135.25 F3000.0
S90
G01 Y162.25 F1200.0
S1
G00 X4.32 Y162.25 F3000.0
S90
G01 Y135.25 F1200.0
S1
G00 X4.52 Y135.25 F3000.0
S90
G01 Y162.25 F1200.0
S1
G00 X4.72 Y162.25 F3000.0
S90
G01 Y135.25 F1200.0
S1
G00 X4.92 Y135.25 F3000.0
S90
G01 Y162.25 F1200.0
S1
G00 X5.12 Y162.25 F3000.0
S90
G01 Y135.25 F1200.0
S1
G00 X5.32 Y135.25 F3000.0
S90
G01 Y162.25 F1200.0
S1
G00 X5.52 Y162.25 F3000.0
S90
G01 Y135.25 F1200.0
S1
G00 X5.72 Y135.25 F3000.0
S90
G01 Y162.25 F1200.0
S1
G00 X5.92 Y162.25 F3000.0
S90
G01 Y135.25 F1200.0
S1
G00 X6.12 Y135.25 F3000.0
S90
G01 Y162.25 F1200.0
S1
G00 X6.32 Y162.25 F3000.0
S90
G01 Y135.25 F1200.0
S1
G00 X6.52 Y135.25 F3000.0
S90
G01 Y162.25 F1200.0
S1
G00 X6.72 Y162.25 F3000.0
S90
G01 Y135.25 F1200.0
S1
G00 X6.92 Y135.25 F3000.0
S90
G01 Y162.25 F1200.0
S1
G00 X7.12 Y162.25 F3000.0
S90
G01 Y135.25 F1200.0
S1
G00 X7.32 Y135.25 F3000.0
S90
G01 Y162.25 F1200.0
S1
G00 X7.52 Y162.25 F3000.0
S90
G01 Y135.25 F1200.0
S1
G00 X7.72 Y135.25 F3000.0
S90
G01 Y162.25 F1200.0
S1
G00 X7.92 Y162.25 F3000.0
S90
G01 Y135.25 F1200.0
S1
G00 X8.12 Y135.25 F3000.0
S90
G01 Y162.25 F1200.0
S1
G00 X8.32 Y162.25 F3000.0
S90
G01 Y135.25 F1200.0
S1
G00 X8.52 Y135.25 F3000.0
S90
G01 Y162.25 F1200.0
S1
G00 X8.72 Y162.25 F3000.0
S90
G01 Y144.25 F1200.0
S1
G00 X8.92 Y144.25 F3000.0
S90
G01 Y162.25 F1200.0
S1
G00 X9.12 Y162.25 F3000.0
S90
G01 Y144.25 F1200.0
S1
G00 X9.32 Y144.25 F3000.0
S90
G01 Y162.25 F1200.0
S1
G00 X9.52 Y162.25 F3000.0
S90
G01 Y144.25 F1200.0
S1
G00 X9.72 Y144.25 F3000.0
S90
G01 Y162.25 F1200.0
S1
G00 X9.92 Y162.25 F3000.0
S90
G01 Y144.25 F1200.0
S1
G00 X10.12 Y144.25 F3000.0
S90
G01 Y162.25 F1200.0
S1
G00 X10.32 Y162.25 F3000.0
S90
G01 Y144.25 F1200.0
S1
G00 X10.52 Y144.25 F3000.0
S90
G01 Y162.25 F1200.0
S1
G00 X10.72 Y162.25 F3000.0
S90
G01 Y144.25 F1200.0
S1
G00 X10.92 Y144.25 F3000.0
S90
G01 Y162.25 F1200.0
S1
G00 X11.12 Y162.25 F3000.0
S90
G01 Y144.25 F1200.0
S1
G00 X11.32 Y144.25 F3000.0
S90
G01 Y162.25 F1200.0
S1
G00 X11.52 Y162.25 F3000.0
S90
G01 Y144.25 F1200.0
S1
G00 X11.72 Y144.25 F3000.0
S90
G01 Y162.25 F1200.0
S1
G00 X11.92 Y162.25 F3000.0
S90
G01 Y144.25 F1200.0
S1
G00 X12.12 Y144.25 F3000.0
S90
G01 Y162.25 F1200.0
S1
G00 X12.32 Y162.25 F3000.0
S90
G01 Y144.25 F1200.0
S1
G00 X12.52 Y144.25 F3000.0
S90
G01 Y162.25 F1200.0
S1
G00 X12.72 Y162.25 F3000.0
S90
G01 Y144.25 F1200.0
S1
G00 X12.92 Y144.25 F3000.0
S90
G01 Y162.25 F1200.0
S1
G00 X13.12 Y162.25 F3000.0
S90
G01 Y144.25 F1200.0
S1
G00 X13.32 Y144.25 F3000.0
S90
G01 Y162.25 F1200.0
S1
G00 X13.52 Y162.25 F3000.0
S90
G01 Y144.25 F1200.0
S1
G00 X13.72 Y144.25 F3000.0
S90
G01 Y162.25 F1200.0
S1
G00 X13.92 Y162.25 F3000.0
S90
G01 Y144.25 F1200.0
S1
G00 X14.12 Y144.25 F3000.0
S90
G01 Y162.25 F1200.0
S1
G00 X14.32 Y162.25 F3000.0
S90
G01 Y144.25 F1200.0
S1
G00 X14.52 Y144.25 F3000.0
S90
G01 Y162.25 F1200.0
S1
G00 X14.72 Y162.25 F3000.0
S90
G01 Y144.25 F1200.0
S1
G00 X14.92 Y144.25 F3000.0
S90
G01 Y162.25 F1200.0
S1
G00 X15.12 Y162.25 F3000.0
S90
G01 Y144.25 F1200.0
S1
G00 X15.32 Y144.25 F3000.0
S90
G01 Y162.25 F1200.0
S1
G00 X15.52 Y162.25 F3000.0
S90
G01 Y144.25 F1200.0
S1
G00 X15.72 Y144.25 F3000.0
S90
G01 Y162.25 F1200.0
S1
G00 X15.92 Y162.25 F3000.0
S90
G01 Y144.25 F1200.0
S1
G00 X16.12 Y144.25 F3000.0
S90
G01 Y162.25 F1200.0
S1
G00 X16.32 Y162.25 F3000.0
S90
G01 Y144.25 F1200.0
S1
G00 X16.52 Y144.25 F3000.0
S90
G01 Y162.25 F1200.0
S1
G00 X16.72 Y162.25 F3000.0
S90
G01 Y144.25 F1200.0
S1
G00 X16.92 Y144.25 F3000.0
S90
G01 Y162.25 F1200.0
S1
G00 X17.12 Y162.25 F3000.0
S90
G01 Y144.25 F1200.0
S1
G00 X17.32 Y144.25 F3000.0
S90
G01 Y162.25 F1200.0
S1
G00 X17.52 Y162.25 F3000.0
S90
G01 Y144.25 F1200.0
S1
G00 X17.72 Y144.25 F3000.0
S90
G01 Y153.25 F1200.0
S1
G00 X17.92 Y153.25 F3000.0
S90
G01 Y144.25 F1200.0
S1
G00 X18.12 Y144.25 F3000.0
S90
G01 Y153.25 F1200.0
S1
G00 X18.32 Y153.25 F3000.0
S90
G01 Y144.25 F1200.0
S1
G00 X18.52 Y144.25 F3000.0
S90
G01 Y153.25 F1200.0
S1
G00 X18.72 Y153.25 F3000.0
S90
G01 Y144.25 F1200.0
S1
G00 X18.92 Y144.25 F3000.0
S90
G01 Y153.25 F1200.0
S1
G00 X19.12 Y153.25 F3000.0
S90
G01 Y144.25 F1200.0
S1
G00 X19.32 Y144.25 F3000.0
S90
G01 Y153.25 F1200.0
S1
G00 X19.52 Y153.25 F3000.0
S90
G01 Y144.25 F1200.0
S1
G00 X19.72 Y144.25 F3000.0
S90
G01 Y153.25 F1200.0
S1
G00 X19.92 Y153.25 F3000.0
S90
G01 Y144.25 F1200.0
S1
G00 X20.12 Y144.25 F3000.0
S90
G01 Y153.25 F1200.0
S1
G00 X20.32 Y153.25 F3000.0
S90
G01 Y144.25 F1200.0
S1
G00 X20.52 Y144.25 F3000.0
S90
G01 Y153.25 F1200.0
S1
G00 X20.72 Y153.25 F3000.0
S90
G01 Y144.25 F1200.0
S1
G00 X20.92 Y144.25 F3000.0
S90
G01 Y153.25 F1200.0
S1
G00 X21.12 Y153.25 F3000.0
S90
G01 Y144.25 F1200.0
S1
G00 X21.32 Y144.25 F3000.0
S90
G01 Y153.25 F1200.0
S1
G00 X21.52 Y153.25 F3000.0
S90
G01 Y144.25 F1200.0
S1
G00 X21.72 Y144.25 F3000.0
S90
G01 Y153.25 F1200.0
S1
G00 X21.92 Y153.25 F3000.0
S90
G01 Y144.25 F1200.0
S1
G00 X22.12 Y144.25 F3000.0
S90
G01 Y153.25 F1200.0
S1
G00 X22.32 Y153.25 F3000.0
S90
G01 Y144.25 F1200.0
S1
G00 X22.52 Y144.25 F3000.0
S90
G01 Y153.25 F1200.0
S1
G00 X22.72 Y153.25 F3000.0
S90
G01 Y144.25 F1200.0
S1
G00 X22.92 Y144.25 F3000.0
S90
G01 Y153.25 F1200.0
S1
G00 X23.12 Y153.25 F3000.0
S90
G01 Y144.25 F1200.0
S1
G00 X23.32 Y144.25 F3000.0
S90
G01 Y153.25 F1200.0
S1
G00 X23.52 Y153.25 F3000.0
S90
G01 Y144.25 F1200.0
S1
G00 X23.72 Y144.25 F3000.0
S90
G01 Y153.25 F1200.0
S1
G00 X23.92 Y153.25 F3000.0
S90
G01 Y144.25 F1200.0
S1
G00 X24.12 Y144.25 F3000.0
S90
G01 Y153.25 F1200.0
S1
G00 X24.32 Y153.25 F3000.0
S90
G01 Y144.25 F1200.0
S1
G00 X24.52 Y144.25 F3000.0
S90
G01 Y153.25 F1200.0
S1
G00 X24.72 Y153.25 F3000.0
S90
G01 Y144.25 F1200.0
S1
G00 X24.92 Y144.25 F3000.0
S90
G01 Y153.25 F1200.0
S1
G00 X25.12 Y153.25 F3000.0
S90
G01 Y144.25 F1200.0
S1
G00 X25.32 Y144.25 F3000.0
S90
G01 Y153.25 F1200.0
S1
G00 X25.52 Y153.25 F3000.0
S90
G01 Y144.25 F1200.0
S1
G00 X25.72 Y144.25 F3000.0
S90
G01 Y153.25 F1200.0
S1
G00 X25.92 Y153.25 F3000.0
S90
G01 Y144.25 F1200.0
S1
G00 X26.12 Y144.25 F3000.0
S90
G01 Y153.25 F1200.0
S1
G00 X26.32 Y153.25 F3000.0
S90
G01 Y144.25 F1200.0
S1
G00 X26.52 Y144.25 F3000.0
S90
G01 Y153.25 F1200.0
S1
G00 X26.72 Y153.25 F3000.0
S90
G01 Y135.25 F1200.0
S1
G00 X26.92 Y135.25 F3000.0
S90
G01 Y153.25 F1200.0
S1
G00 X27.12 Y153.25 F3000.0
S90
G01 Y135.25 F1200.0
S1
G00 X27.32 Y135.25 F3000.0
S90
G01 Y153.25 F1200.0
S1
G00 X27.52 Y153.25 F3000.0
S90
G01 Y135.25 F1200.0
S1
G00 X27.72 Y135.25 F3000.0
S90
G01 Y153.25 F1200.0
S1
G00 X27.92 Y153.25 F3000.0
S90
G01 Y135.25 F1200.0
S1
G00 X28.12 Y135.25 F3000.0
S90
G01 Y153.25 F1200.0
S1
G00 X28.32 Y153.25 F3000.0
S90
G01 Y135.25 F1200.0
S1
G00 X28.52 Y135.25 F3000.0
S90
G01 Y153.25 F1200.0
S1
G00 X28.72 Y153.25 F3000.0
S90
G01 Y135.25 F1200.0
S1
G00 X28.92 Y135.25 F3000.0
S90
G01 Y153.25 F1200.0
S1
G00 X29.12 Y153.25 F3000.0
S90
G01 Y135.25 F1200.0
S1
G00 X29.32 Y135.25 F3000.0
S90
G01 Y153.25 F1200.0
S1
G00 X29.52 Y153.25 F3000.0
S90
G01 Y135.25 F1200.0
S1
G00 X29.72 Y135.25 F3000.0
S90
G01 Y153.25 F1200.0
S1
G00 X29.92 Y153.25 F3000.0
S90
G01 Y135.25 F1200.0
S1
G00 X30.12 Y135.25 F3000.0
S90
G01 Y153.25 F1200.0
S1
G00 X30.32 Y153.25 F3000.0
S90
G01 Y135.25 F1200.0
S1
G00 X30.52 Y135.25 F3000.0
S90
G01 Y153.25 F1200.0
S1
G00 X30.72 Y153.25 F3000.0
S90
G01 Y135.25 F1200.0
S1
G00 X30.92 Y135.25 F3000.0
S90
G01 Y153.25 F1200.0
S1
G00 X31.12 Y153.25 F3000.0
S90
G01 Y135.25 F1200.0
S1
G00 X31.32 Y135.25 F3000.0
S90
G01 Y153.25 F1200.0
S1
G00 X31.52 Y153.25 F3000.0
S90
G01 Y135.25 F1200.0
S1
G00 X31.72 Y135.25 F3000.0
S90
G01 Y153.25 F1200.0
S1
G00 X31.92 Y153.25 F3000.0
S90
G01 Y135.25 F1200.0
S1
G00 X32.12 Y135.25 F3000.0
S90
G01 Y153.25 F1200.0
S1
G00 X32.32 Y153.25 F3000.0
S90
G01 Y135.25 F1200.0
S1
G00 X32.52 Y135.25 F3000.0
S90
G01 Y153.25 F1200.0
S1
G00 X32.72 Y153.25 F3000.0
S90
G01 Y135.25 F1200.0
S1
G00 X32.92 Y135.25 F3000.0
S90
G01 Y153.25 F1200.0
S1
G00 X33.12 Y153.25 F3000.0
S90
G01 Y135.25 F1200.0
S1
G00 X33.32 Y135.25 F3000.0
S90
G01 Y153.25 F1200.0
S1
G00 X33.52 Y153.25 F3000.0
S90
G01 Y135.25 F1200.0
S1
G00 X33.72 Y135.25 F3000.0
S90
G01 Y153.25 F1200.0
S1
G00 X33.92 Y153.25 F3000.0
S90
G01 Y135.25 F1200.0
S1
G00 X34.12 Y135.25 F3000.0
S90
G01 Y153.25 F1200.0
S1
G00 X34.32 Y153.25 F3000.0
S90
G01 Y135.25 F1200.0
S1
G00 X34.52 Y135.25 F3000.0
S90
G01 Y153.25 F1200.0
S1
G00 X34.72 Y153.25 F3000.0
S90
G01 Y135.25 F1200.0
S1
G00 X34.92 Y135.25 F3000.0
S90
G01 Y153.25 F1200.0
S1
G00 X35.12 Y153.25 F3000.0
S90
G01 Y135.25 F1200.0
S1
G00 X35.32 Y135.25 F3000.0
S90
G01 Y153.25 F1200.0
S1
G00 X35.52 Y153.25 F3000.0
S90
G01 Y135.25 F1200.0
S1
G00 X35.72 Y135.25 F3000.0
S90
G01 Y162.25 F1200.0
S1
G00 X35.92 Y162.25 F3000.0
S90
G01 Y135.25 F1200.0
S1
G00 X36.12 Y135.25 F3000.0
S90
G01 Y162.25 F1200.0
S1
G00 X36.32 Y162.25 F3000.0
S90
G01 Y135.25 F1200.0
S1
G00 X36.52 Y135.25 F3000.0
S90
G01 Y162.25 F1200.0
S1
G00 X36.72 Y162.25 F3000.0
S90
G01 Y135.25 F1200.0
S1
G00 X36.92 Y135.25 F3000.0
S90
G01 Y162.25 F1200.0
S1
G00 X37.12 Y162.25 F3000.0
S90
G01 Y135.25 F1200.0
S1
G00 X37.32 Y135.25 F3000.0
S90
G01 Y162.25 F1200.0
S1
G00 X37.52 Y162.25 F3000.0
S90
G01 Y135.25 F1200.0
S1
G00 X37.72 Y135.25 F3000.0
S90
G01 Y162.25 F1200.0
S1
G00 X37.92 Y162.25 F3000.0
S90
G01 Y135.25 F1200.0
S1
G00 X38.12 Y135.25 F3000.0
S90
G01 Y162.25 F1200.0
S1
G00 X38.32 Y162.25 F3000.0
S90
G01 Y135.25 F1200.0
S1
G00 X38.52 Y135.25 F3000.0
S90
G01 Y162.25 F1200.0
S1
G00 X38.72 Y162.25 F3000.0
S90
G01 Y135.25 F1200.0
S1
G00 X38.92 Y135.25 F3000.0
S90
G01 Y162.25 F1200.0
S1
G00 X39.12 Y162.25 F3000.0
S90
G01 Y135.25 F1200.0
S1
G00 X39.32 Y135.25 F3000.0
S90
G01 Y162.25 F1200.0
S1
G00 X39.52 Y162.25 F3000.0
S90
G01 Y135.25 F1200.0
S1
G00 X39.72 Y135.25 F3000.0
S90
G01 Y162.25 F1200.0
S1
G00 X39.92 Y162.25 F3000.0
S90
G01 Y135.25 F1200.0
S1
G00 X40.12 Y135.25 F3000.0
S90
G01 Y162.25 F1200.0
S1
G00 X40.32 Y162.25 F3000.0
S90
G01 Y135.25 F1200.0
S1
G00 X40.52 Y135.25 F3000.0
S90
G01 Y162.25 F1200.0
S1
G00 X40.72 Y162.25 F3000.0
S90
G01 Y135.25 F1200.0
S1
G00 X40.92 Y135.25 F3000.0
S90
G01 Y162.25 F1200.0
S1
G00 X41.12 Y162.25 F3000.0
S90
G01 Y135.25 F1200.0
S1
G00 X41.32 Y135.25 F3000.0
S90
G01 Y162.25 F1200.0
S1
G00 X41.52 Y162.25 F3000.0
S90
G01 Y135.25 F1200.0
S1
G00 X41.72 Y135.25 F3000.0
S90
G01 Y162.25 F1200.0
S1
G00 X41.92 Y162.25 F3000.0
S90
G01 Y135.25 F1200.0
S1
G00 X42.12 Y135.25 F3000.0
S90
G01 Y162.25 F1200.0
S1
G00 X42.32 Y162.25 F3000.0
S90
G01 Y135.25 F1200.0
S1
G00 X42.52 Y135.25 F3000.0
S90
G01 Y162.25 F1200.0
S1
G00 X42.72 Y162.25 F3000.0
S90
G01 Y135.25 F1200.0
S1
G00 X42.92 Y135.25 F3000.0
S90
G01 Y162.25 F1200.0
S1
G00 X43.12 Y162.25 F3000.0
S90
G01 Y135.25 F1200.0
S1
G00 X43.32 Y135.25 F3000.0
S90
G01 Y162.25 F1200.0
S1
G00 X43.52 Y162.25 F3000.0
S90
G01 Y135.25 F1200.0
S1
G00 X43.72 Y135.25 F3000.0
S90
G01 Y162.25 F1200.0
S1
G00 X43.92 Y162.25 F3000.0
S90
G01 Y135.25 F1200.0
S1
G00 X44.12 Y135.25 F3000.0
S90
G01 Y162.25 F1200.0
S1
G00 X44.32 Y162.25 F3000.0
S90
G01 Y135.25 F1200.0
S1
G00 X44.52 Y135.25 F3000.0
S90
G01 Y162.25 F1200.0
S1
G00 X44.72 Y162.25 F3000.0
S90
G01 Y126.25 F1200.0
S1
G00 X44.92 Y126.25 F3000.0
S90
G01 Y162.25 F1200.0
S1
G00 X45.12 Y162.25 F3000.0
S90
G01 Y126.25 F1200.0
S1
G00 X45.32 Y126.25 F3000.0
S90
G01 Y162.25 F1200.0
S1
G00 X45.52 Y162.25 F3000.0
S90
G01 Y126.25 F1200.0
S1
G00 X45.72 Y126.25 F3000.0
S90
G01 Y162.25 F1200.0
S1
G00 X45.92 Y162.25 F3000.0
S90
G01 Y126.25 F1200.0
S1
G00 X46.12 Y126.25 F3000.0
S90
G01 Y162.25 F1200.0
S1
G00 X46.32 Y162.25 F3000.0
S90
G01 Y126.25 F1200.0
S1
G00 X46.52 Y126.25 F3000.0
S90
G01 Y162.25 F1200.0
S1
G00 X46.72 Y162.25 F3000.0
S90
G01 Y126.25 F1200.0
S1
G00 X46.92 Y126.25 F3000.0
S90
G01 Y162.25 F1200.0
S1
G00 X47.12 Y162.25 F3000.0
S90
G01 Y126.25 F1200.0
S1
G00 X47.32 Y126.25 F3000.0
S90
G01 Y162.25 F1200.0
S1
G00 X47.52 Y162.25 F3000.0
S90
G01 Y126.25 F1200.0
S1
G00 X47.72 Y126.25 F3000.0
S90
G01 Y162.25 F1200.0
S1
G00 X47.92 Y162.25 F3000.0
S90
G01 Y126.25 F1200.0
S1
G00 X48.12 Y126.25 F3000.0
S90
G01 Y162.25 F1200.0
S1
G00 X48.32 Y162.25 F3000.0
S90
G01 Y126.25 F1200.0
S1
G00 X48.52 Y126.25 F3000.0
S90
G01 Y162.25 F1200.0
S1
G00 X48.72 Y162.25 F3000.0
S90
G01 Y126.25 F1200.0
S1
G00 X48.92 Y126.25 F3000.0
S90
G01 Y162.25 F1200.0
S1
G00 X49.12 Y162.25 F3000.0
S90
G01 Y126.25 F1200.0
S1
G00 X49.32 Y126.25 F3000.0
S90
G01 Y162.25 F1200.0
S1
G00 X49.52 Y162.25 F3000.0
S90
G01 Y126.25 F1200.0
S1
G00 X49.72 Y126.25 F3000.0
S90
G01 Y162.25 F1200.0
S1
G00 X49.92 Y162.25 F3000.0
S90
G01 Y126.25 F1200.0
S1
G00 X50.12 Y126.25 F3000.0
S90
G01 Y162.25 F1200.0
S1
G00 X50.32 Y162.25 F3000.0
S90
G01 Y126.25 F1200.0
S1
G00 X50.52 Y126.25 F3000.0
S90
G01 Y162.25 F1200.0
S1
G00 X50.72 Y162.25 F3000.0
S90
G01 Y126.25 F1200.0
S1
G00 X50.92 Y126.25 F3000.0
S90
G01 Y162.25 F1200.0
S1
G00 X51.12 Y162.25 F3000.0
S90
G01 Y126.25 F1200.0
S1
G00 X51.32 Y126.25 F3000.0
S90
G01 Y162.25 F1200.0
S1
G00 X51.52 Y162.25 F3000.0
S90
G01 Y126.25 F1200.0
S1
G00 X51.72 Y126.25 F3000.0
S90
G01 Y162.25 F1200.0
S1
G00 X51.92 Y162.25 F3000.0
S90
G01 Y126.25 F1200.0
S1
G00 X52.12 Y126.25 F3000.0
S90
G01 Y162.25 F1200.0
S1
G00 X52.32 Y162.25 F3000.0
S90
G01 Y126.25 F1200.0
S1
G00 X52.52 Y126.25 F3000.0
S90
G01 Y162.25 F1200.0
S1
G00 X52.72 Y162.25 F3000.0
S90
G01 Y126.25 F1200.0
S1
G00 X52.92 Y126.25 F3000.0
S90
G01 Y162.25 F1200.0
S1
G00 X53.12 Y162.25 F3000.0
S90
G01 Y126.25 F1200.0
S1
G00 X53.32 Y126.25 F3000.0
S90
G01 Y162.25 F1200.0
S1
G00 X53.52 Y162.25 F3000.0
S90
G01 Y126.25 F1200.0
S1
G00 X53.72 Y126.25 F3000.0
S90
G01 Y117.25 F1200.0
S1
G00 X53.92 Y117.25 F3000.0
S90
G01 Y126.25 F1200.0
S1
G00 X54.12 Y126.25 F3000.0
S90
G01 Y117.25 F1200.0
S1
G00 X54.32 Y117.25 F3000.0
S90
G01 Y126.25 F1200.0
S1
G00 X54.52 Y126.25 F3000.0
S90
G01 Y117.25 F1200.0
S1
G00 X54.72 Y117.25 F3000.0
S90
G01 Y126.25 F1200.0
S1
G00 X54.92 Y126.25 F3000.0
S90
G01 Y117.25 F1200.0
S1
G00 X55.12 Y117.25 F3000.0
S90
G01 Y126.25 F1200.0
S1
G00 X55.32 Y126.25 F3000.0
S90
G01 Y117.25 F1200.0
S1
G00 X55.52 Y117.25 F3000.0
S90
G01 Y126.25 F1200.0
S1
G00 X55.72 Y126.25 F3000.0
S90
G01 Y117.25 F1200.0
S1
G00 X55.92 Y117.25 F3000.0
S90
G01 Y126.25 F1200.0
S1
G00 X56.12 Y126.25 F3000.0
S90
G01 Y117.25 F1200.0
S1
G00 X56.32 Y117.25 F3000.0
S90
G01 Y126.25 F1200.0
S1
G00 X56.52 Y126.25 F3000.0
S90
G01 Y117.25 F1200.0
S1
G00 X56.72 Y117.25 F3000.0
S90
G01 Y126.25 F1200.0
S1
G00 X56.92 Y126.25 F3000.0
S90
G01 Y117.25 F1200.0
S1
G00 X57.12 Y117.25 F3000.0
S90
G01 Y126.25 F1200.0
S1
G00 X57.32 Y126.25 F3000.0
S90
G01 Y117.25 F1200.0
S1
G00 X57.52 Y117.25 F3000.0
S90
G01 Y126.25 F1200.0
S1
G00 X57.72 Y126.25 F3000.0
S90
G01 Y117.25 F1200.0
S1
G00 X57.92 Y117.25 F3000.0
S90
G01 Y126.25 F1200.0
S1
G00 X58.12 Y126.25 F3000.0
S90
G01 Y117.25 F1200.0
S1
G00 X58.32 Y117.25 F3000.0
S90
G01 Y126.25 F1200.0
S1
G00 X58.52 Y126.25 F3000.0
S90
G01 Y117.25 F1200.0
S1
G00 X58.72 Y117.25 F3000.0
S90
G01 Y126.25 F1200.0
S1
G00 X58.92 Y126.25 F3000.0
S90
G01 Y117.25 F1200.0
S1
G00 X59.12 Y117.25 F3000.0
S90
G01 Y126.25 F1200.0
S1
G00 X59.32 Y126.25 F3000.0
S90
G01 Y117.25 F1200.0
S1
G00 X59.52 Y117.25 F3000.0
S90
G01 Y126.25 F1200.0
S1
G00 X59.72 Y126.25 F3000.0
S90
G01 Y117.25 F1200.0
S1
G00 X59.92 Y117.25 F3000.0
S90
G01 Y126.25 F1200.0
S1
G00 X60.12 Y126.25 F3000.0
S90
G01 Y117.25 F1200.0
S1
G00 X60.32 Y117.25 F3000.0
S90
G01 Y126.25 F1200.0
S1
G00 X60.52 Y126.25 F3000.0
S90
G01 Y117.25 F1200.0
S1
G00 X60.72 Y117.25 F3000.0
S90
G01 Y126.25 F1200.0
S1
G00 X60.92 Y126.25 F3000.0
S90
G01 Y117.25 F1200.0
S1
G00 X61.12 Y117.25 F3000.0
S90
G01 Y126.25 F1200.0
S1
G00 X61.32 Y126.25 F3000.0
S90
G01 Y117.25 F1200.0
S1
G00 X61.52 Y117.25 F3000.0
S90
G01 Y126.25 F1200.0
S1
G00 X61.72 Y126.25 F3000.0
S90
G01 Y117.25 F1200.0
S1
G00 X61.92 Y117.25 F3000.0
S90
G01 Y126.25 F1200.0
S1
G00 X62.12 Y126.25 F3000.0
S90
G01 Y117.25 F1200.0
S1
G00 X62.32 Y117.25 F3000.0
S90
G01 Y126.25 F1200.0
S1
G00 X62.52 Y126.25 F3000.0
S90
G01 Y117.25 F1200.0
S1
G00 X62.72 Y117.25 F3000.0
S90
G01 Y108.25 F1200.0
S1
G00 X62.92 Y108.25 F3000.0
S90
G01 Y117.25 F1200.0
S1
G00 X63.12 Y117.25 F3000.0
S90
G01 Y108.25 F1200.0
S1
G00 X63.32 Y108.25 F3000.0
S90
G01 Y117.25 F1200.0
S1
G00 X63.52 Y117.25 F3000.0
S90
G01 Y108.25 F1200.0
S1
G00 X63.72 Y108.25 F3000.0
S90
G01 Y117.25 F1200.0
S1
G00 X63.92 Y117.25 F3000.0
S90
G01 Y108.25 F1200.0
S1
G00 X64.12 Y108.25 F3000.0
S90
G01 Y117.25 F1200.0
S1
G00 X64.32 Y117.25 F3000.0
S90
G01 Y108.25 F1200.0
S1
G00 X64.52 Y108.25 F3000.0
S90
G01 Y117.25 F1200.0
S1
G00 X64.72 Y117.25 F3000.0
S90
G01 Y108.25 F1200.0
S1
G00 X64.92 Y108.25 F3000.0
S90
G01 Y117.25 F1200.0
S1
G00 X65.12 Y117.25 F3000.0
S90
G01 Y108.25 F1200.0
S1
G00 X65.32 Y108.25 F3000.0
S90
G01 Y117.25 F1200.0
S1
G00 X65.52 Y117.25 F3000.0
S90
G01 Y108.25 F1200.0
S1
G00 X65.72 Y108.25 F3000.0
S90
G01 Y117.25 F1200.0
S1
G00 X65.92 Y117.25 F3000.0
S90
G01 Y108.25 F1200.0
S1
G00 X66.12 Y108.25 F3000.0
S90
G01 Y117.25 F1200.0
S1
G00 X66.32 Y117.25 F3000.0
S90
G01 Y108.25 F1200.0
S1
G00 X66.52 Y108.25 F3000.0
S90
G01 Y117.25 F1200.0
S1
G00 X66.72 Y117.25 F3000.0
S90
G01 Y108.25 F1200.0
S1
G00 X66.92 Y108.25 F3000.0
S90
G01 Y117.25 F1200.0
S1
G00 X67.12 Y117.25 F3000.0
S90
G01 Y108.25 F1200.0
S1
G00 X67.32 Y108.25 F3000.0
S90
G01 Y117.25 F1200.0
S1
G00 X67.52 Y117.25 F3000.0
S90
G01 Y108.25 F1200.0
S1
G00 X67.72 Y108.25 F3000.0
S90
G01 Y117.25 F1200.0
S1
G00 X67.92 Y117.25 F3000.0
S90
G01 Y108.25 F1200.0
S1
G00 X68.12 Y108.25 F3000.0
S90
G01 Y117.25 F1200.0
S1
G00 X68.32 Y117.25 F3000.0
S90
G01 Y108.25 F1200.0
S1
G00 X68.52 Y108.25 F3000.0
S90
G01 Y117.25 F1200.0
S1
G00 X68.72 Y117.25 F3000.0
S90
G01 Y108.25 F1200.0
S1
G00 X68.92 Y108.25 F3000.0
S90
G01 Y117.25 F1200.0
S1
G00 X69.12 Y117.25 F3000.0
S90
G01 Y108.25 F1200.0
S1
G00 X69.32 Y108.25 F3000.0
S90
G01 Y117.25 F1200.0
S1
G00 X69.52 Y117.25 F3000.0
S90
G01 Y108.25 F1200.0
S1
G00 X69.72 Y108.25 F3000.0
S90
G01 Y117.25 F1200.0
S1
G00 X69.92 Y117.25 F3000.0
S90
G01 Y108.25 F1200.0
S1
G00 X70.12 Y108.25 F3000.0
S90
G01 Y117.25 F1200.0
S1
G00 X70.32 Y117.25 F3000.0
S90
G01 Y108.25 F1200.0
S1
G00 X70.52 Y108.25 F3000.0
S90
G01 Y117.25 F1200.0
S1
G00 X70.72 Y117.25 F3000.0
S90
G01 Y108.25 F1200.0
S1
G00 X70.92 Y108.25 F3000.0
S90
G01 Y117.25 F1200.0
S1
G00 X71.12 Y117.25 F3000.0
S90
G01 Y108.25 F1200.0
S1
G00 X71.32 Y108.25 F3000.0
S90
G01 Y117.25 F1200.0
S1
G00 X71.52 Y117.25 F3000.0
S90
G01 Y108.25 F1200.0
S1
G00 X62.52 Y108.25 F3000.0
S90
G01 Y99.25 F1200.0
S1
G00 X62.32 Y99.25 F3000.0
S90
G01 Y108.25 F1200.0
S1
G00 X62.12 Y108.25 F3000.0
S90
G01 Y99.25 F1200.0
S1
G00 X61.92 Y99.25 F3000.0
S90
G01 Y108.25 F1200.0
S1
G00 X61.72 Y108.25 F3000.0
S90
G01 Y99.25 F1200.0
S1
G00 X61.52 Y99.25 F3000.0
S90
G01 Y108.25 F1200.0
S1
G00 X61.32 Y108.25 F3000.0
S90
G01 Y99.25 F1200.0
S1
G00 X61.12 Y99.25 F3000.0
S90
G01 Y108.25 F1200.0
S1
G00 X60.92 Y108.25 F3000.0
S90
G01 Y99.25 F1200.0
S1
G00 X60.72 Y99.25 F3000.0
S90
G01 Y108.25 F1200.0
S1
G00 X60.52 Y108.25 F3000.0
S90
G01 Y99.25 F1200.0
S1
G00 X60.32 Y99.25 F3000.0
S90
G01 Y108.25 F1200.0
S1
G00 X60.12 Y108.25 F3000.0
S90
G01 Y99.25 F1200.0
S1
G00 X59.92 Y99.25 F3000.0
S90
G01 Y108.25 F1200.0
S1
G00 X59.72 Y108.25 F3000.0
S90
G01 Y99.25 F1200.0
S1
G00 X59.52 Y99.25 F3000.0
S90
G01 Y108.25 F1200.0
S1
G00 X59.32 Y108.25 F3000.0
S90
G01 Y99.25 F1200.0
S1
G00 X59.12 Y99.25 F3000.0
S90
G01 Y108.25 F1200.0
S1
G00 X58.92 Y108.25 F3000.0
S90
G01 Y99.25 F1200.0
S1
G00 X58.72 Y99.25 F3000.0
S90
G01 Y108.25 F1200.0
S1
G00 X58.52 Y108.25 F3000.0
S90
G01 Y99.25 F1200.0
S1
G00 X58.32 Y99.25 F3000.0
S90
G01 Y108.25 F1200.0
S1
G00 X58.12 Y108.25 F3000.0
S90
G01 Y99.25 F1200.0
S1
G00 X57.92 Y99.25 F3000.0
S90
G01 Y108.25 F1200.0
S1
G00 X57.72 Y108.25 F3000.0
S90
G01 Y99.25 F1200.0
S1
G00 X57.52 Y99.25 F3000.0
S90
G01 Y108.25 F1200.0
S1
G00 X57.32 Y108.25 F3000.0
S90
G01 Y99.25 F1200.0
S1
G00 X57.12 Y99.25 F3000.0
S90
G01 Y108.25 F1200.0
S1
G00 X56.92 Y108.25 F3000.0
S90
G01 Y99.25 F1200.0
S1
G00 X56.72 Y99.25 F3000.0
S90
G01 Y108.25 F1200.0
S1
G00 X56.52 Y108.25 F3000.0
S90
G01 Y99.25 F1200.0
S1
G00 X56.32 Y99.25 F3000.0
S90
G01 Y108.25 F1200.0
S1
G00 X56.12 Y108.25 F3000.0
S90
G01 Y99.25 F1200.0
S1
G00 X55.92 Y99.25 F3000.0
S90
G01 Y108.25 F1200.0
S1
G00 X55.72 Y108.25 F3000.0
S90
G01 Y99.25 F1200.0
S1
G00 X55.52 Y99.25 F3000.0
S90
G01 Y108.25 F1200.0
S1
G00 X55.32 Y108.25 F3000.0
S90
G01 Y99.25 F1200.0
S1
G00 X55.12 Y99.25 F3000.0
S90
G01 Y108.25 F1200.0
S1
G00 X54.92 Y108.25 F3000.0
S90
G01 Y99.25 F1200.0
S1
G00 X54.72 Y99.25 F3000.0
S90
G01 Y108.25 F1200.0
S1
G00 X54.52 Y108.25 F3000.0
S90
G01 Y99.25 F1200.0
S1
G00 X54.32 Y99.25 F3000.0
S90
G01 Y108.25 F1200.0
S1
G00 X54.12 Y108.25 F3000.0
S90
G01 Y99.25 F1200.0
S1
G00 X53.92 Y99.25 F3000.0
S90
G01 Y108.25 F1200.0
S1
G00 X53.72 Y108.25 F3000.0
S90
G01 Y99.25 F1200.0
S1
G00 X53.52 Y90.25 F3000.0
S90
G01 Y108.25 F1200.0
S1
G00 X53.32 Y108.25 F3000.0
S90
G01 Y90.25 F1200.0
S1
G00 X53.12 Y90.25 F3000.0
S90
G01 Y108.25 F1200.0
S1
G00 X52.92 Y108.25 F3000.0
S90
G01 Y90.25 F1200.0
S1
G00 X52.72 Y90.25 F3000.0
S90
G01 Y108.25 F1200.0
S1
G00 X52.52 Y108.25 F3000.0
S90
G01 Y90.25 F1200.0
S1
G00 X52.32 Y90.25 F3000.0
S90
G01 Y108.25 F1200.0
S1
G00 X52.12 Y108.25 F3000.0
S90
G01 Y90.25 F1200.0
S1
G00 X51.92 Y90.25 F3000.0
S90
G01 Y108.25 F1200.0
S1
G00 X51.72 Y108.25 F3000.0
S90
G01 Y90.25 F1200.0
S1
G00 X51.52 Y90.25 F3000.0
S90
G01 Y108.25 F1200.0
S1
G00 X51.32 Y108.25 F3000.0
S90
G01 Y90.25 F1200.0
S1
G00 X51.12 Y90.25 F3000.0
S90
G01 Y108.25 F1200.0
S1
G00 X50.92 Y108.25 F3000.0
S90
G01 Y90.25 F1200.0
S1
G00 X50.72 Y90.25 F3000.0
S90
G01 Y108.25 F1200.0
S1
G00 X50.52 Y108.25 F3000.0
S90
G01 Y90.25 F1200.0
S1
G00 X50.32 Y90.25 F3000.0
S90
G01 Y108.25 F1200.0
S1
G00 X50.12 Y108.25 F3000.0
S90
G01 Y90.25 F1200.0
S1
G00 X49.92 Y90.25 F3000.0
S90
G01 Y108.25 F1200.0
S1
G00 X49.72 Y108.25 F3000.0
S90
G01 Y90.25 F1200.0
S1
G00 X49.52 Y90.25 F3000.0
S90
G01 Y108.25 F1200.0
S1
G00 X49.32 Y108.25 F3000.0
S90
G01 Y90.25 F1200.0
S1
G00 X49.12 Y90.25 F3000.0
S90
G01 Y108.25 F1200.0
S1
G00 X48.92 Y108.25 F3000.0
S90
G01 Y90.25 F1200.0
S1
G00 X48.72 Y90.25 F3000.0
S90
G01 Y108.25 F1200.0
S1
G00 X48.52 Y108.25 F3000.0
S90
G01 Y90.25 F1200.0
S1
G00 X48.32 Y90.25 F3000.0
S90
G01 Y108.25 F1200.0
S1
G00 X48.12 Y108.25 F3000.0
S90
G01 Y90.25 F1200.0
S1
G00 X47.92 Y90.25 F3000.0
S90
G01 Y108.25 F1200.0
S1
G00 X47.72 Y108.25 F3000.0
S90
G01 Y90.25 F1200.0
S1
G00 X47.52 Y90.25 F3000.0
S90
G01 Y108.25 F1200.0
S1
G00 X47.32 Y108.25 F3000.0
S90
G01 Y90.25 F1200.0
S1
G00 X47.12 Y90.25 F3000.0
S90
G01 Y108.25 F1200.0
S1
G00 X46.92 Y108.25 F3000.0
S90
G01 Y90.25 F1200.0
S1
G00 X46.72 Y90.25 F3000.0
S90
G01 Y108.25 F1200.0
S1
G00 X46.52 Y108.25 F3000.0
S90
G01 Y90.25 F1200.0
S1
G00 X46.32 Y90.25 F3000.0
S90
G01 Y108.25 F1200.0
S1
G00 X46.12 Y108.25 F3000.0
S90
G01 Y90.25 F1200.0
S1
G00 X45.92 Y90.25 F3000.0
S90
G01 Y108.25 F1200.0
S1
G00 X45.72 Y108.25 F3000.0
S90
G01 Y90.25 F1200.0
S1
G00 X45.52 Y90.25 F3000.0
S90
G01 Y108.25 F1200.0
S1
G00 X45.32 Y108.25 F3000.0
S90
G01 Y90.25 F1200.0
S1
G00 X45.12 Y90.25 F3000.0
S90
G01 Y108.25 F1200.0
S1
G00 X44.92 Y108.25 F3000.0
S90
G01 Y90.25 F1200.0
S1
G00 X44.72 Y90.25 F3000.0
S90
G01 Y108.25 F1200.0
S1
G00 X44.52 Y117.25 F3000.0
S90
G01 Y18.25 F1200.0
S1
G00 X44.32 Y18.25 F3000.0
S90
G01 Y117.25 F1200.0
S1
G00 X44.12 Y117.25 F3000.0
S90
G01 Y18.25 F1200.0
S1
G00 X43.92 Y18.25 F3000.0
S90
G01 Y117.25 F1200.0
S1
G00 X43.72 Y117.25 F3000.0
S90
G01 Y18.25 F1200.0
S1
G00 X43.52 Y18.25 F3000.0
S90
G01 Y117.25 F1200.0
S1
G00 X43.32 Y117.25 F3000.0
S90
G01 Y18.25 F1200.0
S1
G00 X43.12 Y18.25 F3000.0
S90
G01 Y117.25 F1200.0
S1
G00 X42.92 Y117.25 F3000.0
S90
G01 Y18.25 F1200.0
S1
G00 X42.72 Y18.25 F3000.0
S90
G01 Y117.25 F1200.0
S1
G00 X42.52 Y117.25 F3000.0
S90
G01 Y18.25 F1200.0
S1
G00 X42.32 Y18.25 F3000.0
S90
G01 Y117.25 F1200.0
S1
G00 X42.12 Y117.25 F3000.0
S90
G01 Y18.25 F1200.0
S1
G00 X41.92 Y18.25 F3000.0
S90
G01 Y117.25 F1200.0
S1
G00 X41.72 Y117.25 F3000.0
S90
G01 Y18.25 F1200.0
S1
G00 X41.52 Y18.25 F3000.0
S90
G01 Y117.25 F1200.0
S1
G00 X41.32 Y117.25 F3000.0
S90
G01 Y18.25 F1200.0
S1
G00 X41.12 Y18.25 F3000.0
S90
G01 Y117.25 F1200.0
S1
G00 X40.92 Y117.25 F3000.0
S90
G01 Y18.25 F1200.0
S1
G00 X40.72 Y18.25 F3000.0
S90
G01 Y117.25 F1200.0
S1
G00 X40.52 Y117.25 F3000.0
S90
G01 Y18.25 F1200.0
S1
G00 X40.32 Y18.25 F3000.0
S90
G01 Y117.25 F1200.0
S1
G00 X40.12 Y117.25 F3000.0
S90
G01 Y18.25 F1200.0
S1
G00 X39.92 Y18.25 F3000.0
S90
G01 Y117.25 F1200.0
S1
G00 X39.72 Y117.25 F3000.0
S90
G01 Y18.25 F1200.0
S1
G00 X39.52 Y18.25 F3000.0
S90
G01 Y117.25 F1200.0
S1
G00 X39.32 Y117.25 F3000.0
S90
G01 Y18.25 F1200.0
S1
G00 X39.12 Y18.25 F3000.0
S90
G01 Y117.25 F1200.0
S1
G00 X38.92 Y117.25 F3000.0
S90
G01 Y18.25 F1200.0
S1
G00 X38.72 Y18.25 F3000.0
S90
G01 Y117.25 F1200.0
S1
G00 X38.52 Y117.25 F3000.0
S90
G01 Y18.25 F1200.0
S1
G00 X38.32 Y18.25 F3000.0
S90
G01 Y117.25 F1200.0
S1
G00 X38.12 Y117.25 F3000.0
S90
G01 Y18.25 F1200.0
S1
G00 X37.92 Y18.25 F3000.0
S90
G01 Y117.25 F1200.0
S1
G00 X37.72 Y117.25 F3000.0
S90
G01 Y18.25 F1200.0
S1
G00 X37.52 Y18.25 F3000.0
S90
G01 Y117.25 F1200.0
S1
G00 X37.32 Y117.25 F3000.0
S90
G01 Y18.25 F1200.0
S1
G00 X37.12 Y18.25 F3000.0
S90
G01 Y117.25 F1200.0
S1
G00 X36.92 Y117.25 F3000.0
S90
G01 Y18.25 F1200.0
S1
G00 X36.72 Y18.25 F3000.0
S90
G01 Y117.25 F1200.0
S1
G00 X36.52 Y117.25 F3000.0
S90
G01 Y18.25 F1200.0
S1
G00 X36.32 Y18.25 F3000.0
S90
G01 Y117.25 F1200.0
S1
G00 X36.12 Y117.25 F3000.0
S90
G01 Y18.25 F1200.0
S1
G00 X35.92 Y18.25 F3000.0
S90
G01 Y117.25 F1200.0
S1
G00 X35.72 Y117.25 F3000.0
S90
G01 Y18.25 F1200.0
S1
G00 X35.52 Y18.25 F3000.0
S90
G01 Y9.25 F1200.0
S1
G00 X35.32 Y9.25 F3000.0
S90
G01 Y18.25 F1200.0
S1
G00 X35.12 Y18.25 F3000.0
S90
G01 Y9.25 F1200.0
S1
G00 X34.92 Y9.25 F3000.0
S90
G01 Y18.25 F1200.0
S1
G00 X34.72 Y18.25 F3000.0
S90
G01 Y9.25 F1200.0
S1
G00 X34.52 Y9.25 F3000.0
S90
G01 Y18.25 F1200.0
S1
G00 X34.32 Y18.25 F3000.0
S90
G01 Y9.25 F1200.0
S1
G00 X34.12 Y9.25 F3000.0
S90
G01 Y18.25 F1200.0
S1
G00 X33.92 Y18.25 F3000.0
S90
G01 Y9.25 F1200.0
S1
G00 X33.72 Y9.25 F3000.0
S90
G01 Y18.25 F1200.0
S1
G00 X33.52 Y18.25 F3000.0
S90
G01 Y9.25 F1200.0
S1
G00 X33.32 Y9.25 F3000.0
S90
G01 Y18.25 F1200.0
S1
G00 X33.12 Y18.25 F3000.0
S90
G01 Y9.25 F1200.0
S1
G00 X32.92 Y9.25 F3000.0
S90
G01 Y18.25 F1200.0
S1
G00 X32.72 Y18.25 F3000.0
S90
G01 Y9.25 F1200.0
S1
G00 X32.52 Y9.25 F3000.0
S90
G01 Y18.25 F1200.0
S1
G00 X32.32 Y18.25 F3000.0
S90
G01 Y9.25 F1200.0
S1
G00 X32.12 Y9.25 F3000.0
S90
G01 Y18.25 F1200.0
S1
G00 X31.92 Y18.25 F3000.0
S90
G01 Y9.25 F1200.0
S1
G00 X31.72 Y9.25 F3000.0
S90
G01 Y18.25 F1200.0
S1
G00 X31.52 Y18.25 F3000.0
S90
G01 Y9.25 F1200.0
S1
G00 X31.32 Y9.25 F3000.0
S90
G01 Y18.25 F1200.0
S1
G00 X31.12 Y18.25 F3000.0
S90
G01 Y9.25 F1200.0
S1
G00 X30.92 Y9.25 F3000.0
S90
G01 Y18.25 F1200.0
S1
G00 X30.72 Y18.25 F3000.0
S90
G01 Y9.25 F1200.0
S1
G00 X30.52 Y9.25 F3000.0
S90
G01 Y18.25 F1200.0
S1
G00 X30.32 Y18.25 F3000.0
S90
G01 Y9.25 F1200.0
S1
G00 X30.12 Y9.25 F3000.0
S90
G01 Y18.25 F1200.0
S1
G00 X29.92 Y18.25 F3000.0
S90
G01 Y9.25 F1200.0
S1
G00 X29.72 Y9.25 F3000.0
S90
G01 Y18.25 F1200.0
S1
G00 X29.52 Y18.25 F3000.0
S90
G01 Y9.25 F1200.0
S1
G00 X29.32 Y9.25 F3000.0
S90
G01 Y18.25 F1200.0
S1
G00 X29.12 Y18.25 F3000.0
S90
G01 Y9.25 F1200.0
S1
G00 X28.92 Y9.25 F3000.0
S90
G01 Y18.25 F1200.0
S1
G00 X28.72 Y18.25 F3000.0
S90
G01 Y9.25 F1200.0
S1
G00 X28.52 Y9.25 F3000.0
S90
G01 Y18.25 F1200.0
S1
G00 X28.32 Y18.25 F3000.0
S90
G01 Y9.25 F1200.0
S1
G00 X28.12 Y9.25 F3000.0
S90
G01 Y18.25 F1200.0
S1
G00 X27.92 Y18.25 F3000.0
S90
G01 Y9.25 F1200.0
S1
G00 X27.72 Y9.25 F3000.0
S90
G01 Y18.25 F1200.0
S1
G00 X27.52 Y18.25 F3000.0
S90
G01 Y9.25 F1200.0
S1
G00 X27.32 Y9.25 F3000.0
S90
G01 Y18.25 F1200.0
S1
G00 X27.12 Y18.25 F3000.0
S90
G01 Y9.25 F1200.0
S1
G00 X26.92 Y9.25 F3000.0
S90
G01 Y18.25 F1200.0
S1
G00 X26.72 Y18.25 F3000.0
S90
G01 Y9.25 F1200.0
S1
G00 X26.52 Y18.25 F3000.0
S90
G01 Y45.25 F1200.0
S1
G00 X26.72 Y45.25 F3000.0
S90
G01 Y90.25 F1200.0
S1
G00 X26.52 Y90.25 F3000.0
S90
G01 Y99.25 F1200.0
S1
G00 X26.72 Y99.25 F3000.0
S90
G01 Y126.25 F1200.0
S1
G00 X26.92 Y126.25 F3000.0
S90
G01 Y99.25 F1200.0
S1
G00 X27.12 Y99.25 F3000.0
S90
G01 Y126.25 F1200.0
S1
G00 X27.32 Y126.25 F3000.0
S90
G01 Y99.25 F1200.0
S1
G00 X27.52 Y99.25 F3000.0
S90
G01 Y126.25 F1200.0
S1
G00 X27.72 Y126.25 F3000.0
S90
G01 Y99.25 F1200.0
S1
G00 X27.92 Y99.25 F3000.0
S90
G01 Y126.25 F1200.0
S1
G00 X28.12 Y126.25 F3000.0
S90
G01 Y99.25 F1200.0
S1
G00 X28.32 Y99.25 F3000.0
S90
G01 Y126.25 F1200.0
S1
G00 X28.52 Y126.25 F3000.0
S90
G01 Y99.25 F1200.0
S1
G00 X28.72 Y99.25 F3000.0
S90
G01 Y126.25 F1200.0
S1
G00 X28.92 Y126.25 F3000.0
S90
G01 Y99.25 F1200.0
S1
G00 X29.12 Y99.25 F3000.0
S90
G01 Y126.25 F1200.0
S1
G00 X29.32 Y126.25 F3000.0
S90
G01 Y99.25 F1200.0
S1
G00 X29.52 Y99.25 F3000.0
S90
G01 Y126.25 F1200.0
S1
G00 X29.72 Y126.25 F3000.0
S90
G01 Y99.25 F1200.0
S1
G00 X29.92 Y99.25 F3000.0
S90
G01 Y126.25 F1200.0
S1
G00 X30.12 Y126.25 F3000.0
S90
G01 Y99.25 F1200.0
S1
G00 X30.32 Y99.25 F3000.0
S90
G01 Y126.25 F1200.0
S1
G00 X30.52 Y126.25 F3000.0
S90
G01 Y99.25 F1200.0
S1
G00 X30.72 Y99.25 F3000.0
S90
G01 Y126.25 F1200.0
S1
G00 X30.92 Y126.25 F3000.0
S90
G01 Y99.25 F1200.0
S1
G00 X31.12 Y99.25 F3000.0
S90
G01 Y126.25 F1200.0
S1
G00 X31.32 Y126.25 F3000.0
S90
G01 Y99.25 F1200.0
S1
G00 X31.52 Y99.25 F3000.0
S90
G01 Y126.25 F1200.0
S1
G00 X31.72 Y126.25 F3000.0
S90
G01 Y99.25 F1200.0
S1
G00 X31.92 Y99.25 F3000.0
S90
G01 Y126.25 F1200.0
S1
G00 X32.12 Y126.25 F3000.0
S90
G01 Y99.25 F1200.0
S1
G00 X32.32 Y99.25 F3000.0
S90
G01 Y126.25 F1200.0
S1
G00 X32.52 Y126.25 F3000.0
S90
G01 Y99.25 F1200.0
S1
G00 X32.72 Y99.25 F3000.0
S90
G01 Y126.25 F1200.0
S1
G00 X32.92 Y126.25 F3000.0
S90
G01 Y99.25 F1200.0
S1
G00 X33.12 Y99.25 F3000.0
S90
G01 Y126.25 F1200.0
S1
G00 X33.32 Y126.25 F3000.0
S90
G01 Y99.25 F1200.0
S1
G00 X33.52 Y99.25 F3000.0
S90
G01 Y126.25 F1200.0
S1
G00 X33.72 Y126.25 F3000.0
S90
G01 Y99.25 F1200.0
S1
G00 X33.92 Y99.25 F3000.0
S90
G01 Y126.25 F1200.0
S1
G00 X34.12 Y126.25 F3000.0
S90
G01 Y99.25 F1200.0
S1
G00 X34.32 Y99.25 F3000.0
S90
G01 Y126.25 F1200.0
S1
G00 X34.52 Y126.25 F3000.0
S90
G01 Y99.25 F1200.0
S1
G00 X34.72 Y99.25 F3000.0
S90
G01 Y126.25 F1200.0
S1
G00 X34.92 Y126.25 F3000.0
S90
G01 Y99.25 F1200.0
S1
G00 X35.12 Y99.25 F3000.0
S90
G01 Y126.25 F1200.0
S1
G00 X35.32 Y126.25 F3000.0
S90
G01 Y99.25 F1200.0
S1
G00 X35.52 Y99.25 F3000.0
S90
G01 Y126.25 F1200.0
S1
G00 X53.72 Y135.25 F3000.0
S90
G01 Y144.25 F1200.0
S1
G00 X53.92 Y144.25 F3000.0
S90
G01 Y135.25 F1200.0
S1
G00 X54.12 Y135.25 F3000.0
S90
G01 Y144.25 F1200.0
S1
G00 X54.32 Y144.25 F3000.0
S90
G01 Y135.25 F1200.0
S1
G00 X54.52 Y135.25 F3000.0
S90
G01 Y144.25 F1200.0
S1
G00 X54.72 Y144.25 F3000.0
S90
G01 Y135.25 F1200.0
S1
G00 X54.92 Y135.25 F3000.0
S90
G01 Y144.25 F1200.0
S1
G00 X55.12 Y144.25 F3000.0
S90
G01 Y135.25 F1200.0
S1
G00 X55.32 Y135.25 F3000.0
S90
G01 Y144.25 F1200.0
S1
G00 X55.52 Y144.25 F3000.0
S90
G01 Y135.25 F1200.0
S1
G00 X55.72 Y135.25 F3000.0
S90
G01 Y144.25 F1200.0
S1
G00 X55.92 Y144.25 F3000.0
S90
G01 Y135.25 F1200.0
S1
G00 X56.12 Y135.25 F3000.0
S90
G01 Y144.25 F1200.0
S1
G00 X56.32 Y144.25 F3000.0
S90
G01 Y135.25 F1200.0
S1
G00 X56.52 Y135.25 F3000.0
S90
G01 Y144.25 F1200.0
S1
G00 X56.72 Y144.25 F3000.0
S90
G01 Y135.25 F1200.0
S1
G00 X56.92 Y135.25 F3000.0
S90
G01 Y144.25 F1200.0
S1
G00 X57.12 Y144.25 F3000.0
S90
G01 Y135.25 F1200.0
S1
G00 X57.32 Y135.25 F3000.0
S90
G01 Y144.25 F1200.0
S1
G00 X57.52 Y144.25 F3000.0
S90
G01 Y135.25 F1200.0
S1
G00 X57.72 Y135.25 F3000.0
S90
G01 Y144.25 F1200.0
S1
G00 X57.92 Y144.25 F3000.0
S90
G01 Y135.25 F1200.0
S1
G00 X58.12 Y135.25 F3000.0
S90
G01 Y144.25 F1200.0
S1
G00 X58.32 Y144.25 F3000.0
S90
G01 Y135.25 F1200.0
S1
G00 X58.52 Y135.25 F3000.0
S90
G01 Y144.25 F1200.0
S1
G00 X58.72 Y144.25 F3000.0
S90
G01 Y135.25 F1200.0
S1
G00 X58.92 Y135.25 F3000.0
S90
G01 Y144.25 F1200.0
S1
G00 X59.12 Y144.25 F3000.0
S90
G01 Y135.25 F1200.0
S1
G00 X59.32 Y135.25 F3000.0
S90
G01 Y144.25 F1200.0
S1
G00 X59.52 Y144.25 F3000.0
S90
G01 Y135.25 F1200.0
S1
G00 X59.72 Y135.25 F3000.0
S90
G01 Y144.25 F1200.0
S1
G00 X59.92 Y144.25 F3000.0
S90
G01 Y135.25 F1200.0
S1
G00 X60.12 Y135.25 F3000.0
S90
G01 Y144.25 F1200.0
S1
G00 X60.32 Y144.25 F3000.0
S90
G01 Y135.25 F1200.0
S1
G00 X60.52 Y135.25 F3000.0
S90
G01 Y144.25 F1200.0
S1
G00 X60.72 Y144.25 F3000.0
S90
G01 Y135.25 F1200.0
S1
G00 X60.92 Y135.25 F3000.0
S90
G01 Y144.25 F1200.0
S1
G00 X61.12 Y144.25 F3000.0
S90
G01 Y135.25 F1200.0
S1
G00 X61.32 Y135.25 F3000.0
S90
G01 Y144.25 F1200.0
S1
G00 X61.52 Y144.25 F3000.0
S90
G01 Y135.25 F1200.0
S1
G00 X61.72 Y135.25 F3000.0
S90
G01 Y144.25 F1200.0
S1
G00 X61.92 Y144.25 F3000.0
S90
G01 Y135.25 F1200.0
S1
G00 X62.12 Y135.25 F3000.0
S90
G01 Y144.25 F1200.0
S1
G00 X62.32 Y144.25 F3000.0
S90
G01 Y135.25 F1200.0
S1
G00 X62.52 Y135.25 F3000.0
S90
G01 Y144.25 F1200.0
S1
G00 X62.52 Y153.25 F3000.0
S90
G01 Y162.25 F1200.0
S1
G00 X62.32 Y162.25 F3000.0
S90
G01 Y153.25 F1200.0
S1
G00 X62.12 Y153.25 F3000.0
S90
G01 Y162.25 F1200.0
S1
G00 X61.92 Y162.25 F3000.0
S90
G01 Y153.25 F1200.0
S1
G00 X61.72 Y153.25 F3000.0
S90
G01 Y162.25 F1200.0
S1
G00 X61.52 Y162.25 F3000.0
S90
G01 Y153.25 F1200.0
S1
G00 X61.32 Y153.25 F3000.0
S90
G01 Y162.25 F1200.0
S1
G00 X61.12 Y162.25 F3000.0
S90
G01 Y153.25 F1200.0
S1
G00 X60.92 Y153.25 F3000.0
S90
G01 Y162.25 F1200.0
S1
G00 X60.72 Y162.25 F3000.0
S90
G01 Y153.25 F1200.0
S1
G00 X60.52 Y153.25 F3000.0
S90
G01 Y162.25 F1200.0
S1
G00 X60.32 Y162.25 F3000.0
S90
G01 Y153.25 F1200.0
S1
G00 X60.12 Y153.25 F3000.0
S90
G01 Y162.25 F1200.0
S1
G00 X59.92 Y162.25 F3000.0
S90
G01 Y153.25 F1200.0
S1
G00 X59.72 Y153.25 F3000.0
S90
G01 Y162.25 F1200.0
S1
G00 X59.52 Y162.25 F3000.0
S90
G01 Y153.25 F1200.0
S1
G00 X59.32 Y153.25 F3000.0
S90
G01 Y162.25 F1200.0
S1
G00 X59.12 Y162.25 F3000.0
S90
G01 Y153.25 F1200.0
S1
G00 X58.92 Y153.25 F3000.0
S90
G01 Y162.25 F1200.0
S1
G00 X58.72 Y162.25 F3000.0
S90
G01 Y153.25 F1200.0
S1
G00 X58.52 Y153.25 F3000.0
S90
G01 Y162.25 F1200.0
S1
G00 X58.32 Y162.25 F3000.0
S90
G01 Y153.25 F1200.0
S1
G00 X58.12 Y153.25 F3000.0
S90
G01 Y162.25 F1200.0
S1
G00 X57.92 Y162.25 F3000.0
S90
G01 Y153.25 F1200.0
S1
G00 X57.72 Y153.25 F3000.0
S90
G01 Y162.25 F1200.0
S1
G00 X57.52 Y162.25 F3000.0
S90
G01 Y153.25 F1200.0
S1
G00 X57.32 Y153.25 F3000.0
S90
G01 Y162.25 F1200.0
S1
G00 X57.12 Y162.25 F3000.0
S90
G01 Y153.25 F1200.0
S1
G00 X56.92 Y153.25 F3000.0
S90
G01 Y162.25 F1200.0
S1
G00 X56.72 Y162.25 F3000.0
S90
G01 Y153.25 F1200.0
S1
G00 X56.52 Y153.25 F3000.0
S90
G01 Y162.25 F1200.0
S1
G00 X56.32 Y162.25 F3000.0
S90
G01 Y153.25 F1200.0
S1
G00 X56.12 Y153.25 F3000.0
S90
G01 Y162.25 F1200.0
S1
G00 X55.92 Y162.25 F3000.0
S90
G01 Y153.25 F1200.0
S1
G00 X55.72 Y153.25 F3000.0
S90
G01 Y162.25 F1200.0
S1
G00 X55.52 Y162.25 F3000.0
S90
G01 Y153.25 F1200.0
S1
G00 X55.32 Y153.25 F3000.0
S90
G01 Y162.25 F1200.0
S1
G00 X55.12 Y162.25 F3000.0
S90
G01 Y153.25 F1200.0
S1
G00 X54.92 Y153.25 F3000.0
S90
G01 Y162.25 F1200.0
S1
G00 X54.72 Y162.25 F3000.0
S90
G01 Y153.25 F1200.0
S1
G00 X54.52 Y153.25 F3000.0
S90
G01 Y162.25 F1200.0
S1
G00 X54.32 Y162.25 F3000.0
S90
G01 Y153.25 F1200.0
S1
G00 X54.12 Y153.25 F3000.0
S90
G01 Y162.25 F1200.0
S1
G00 X53.92 Y162.25 F3000.0
S90
G01 Y153.25 F1200.0
S1
G00 X53.72 Y153.25 F3000.0
S90
G01 Y162.25 F1200.0
S1
G00 X53.72 Y171.25 F3000.0
S90
G01 Y189.25 F1200.0
S1
G00 X53.52 Y189.25 F3000.0
S90
G01 Y171.25 F1200.0
S1
G00 X53.32 Y171.25 F3000.0
S90
G01 Y189.25 F1200.0
S1
G00 X53.12 Y189.25 F3000.0
S90
G01 Y171.25 F1200.0
S1
G00 X52.92 Y171.25 F3000.0
S90
G01 Y189.25 F1200.0
S1
G00 X52.72 Y189.25 F3000.0
S90
G01 Y171.25 F1200.0
S1
G00 X52.52 Y171.25 F3000.0
S90
G01 Y189.25 F1200.0
S1
G00 X52.32 Y189.25 F3000.0
S90
G01 Y171.25 F1200.0
S1
G00 X52.12 Y171.25 F3000.0
S90
G01 Y189.25 F1200.0
S1
G00 X51.92 Y189.25 F3000.0
S90
G01 Y171.25 F1200.0
S1
G00 X51.72 Y171.25 F3000.0
S90
G01 Y189.25 F1200.0
S1
G00 X51.52 Y189.25 F3000.0
S90
G01 Y171.25 F1200.0
S1
G00 X51.32 Y171.25 F3000.0
S90
G01 Y189.25 F1200.0
S1
G00 X51.12 Y189.25 F3000.0
S90
G01 Y171.25 F1200.0
S1
G00 X50.92 Y171.25 F3000.0
S90
G01 Y189.25 F1200.0
S1
G00 X50.72 Y189.25 F3000.0
S90
G01 Y171.25 F1200.0
S1
G00 X50.52 Y171.25 F3000.0
S90
G01 Y189.25 F1200.0
S1
G00 X50.32 Y189.25 F3000.0
S90
G01 Y171.25 F1200.0
S1
G00 X50.12 Y171.25 F3000.0
S90
G01 Y189.25 F1200.0
S1
G00 X49.92 Y189.25 F3000.0
S90
G01 Y171.25 F1200.0
S1
G00 X49.72 Y171.25 F3000.0
S90
G01 Y189.25 F1200.0
S1
G00 X49.52 Y189.25 F3000.0
S90
G01 Y171.25 F1200.0
S1
G00 X49.32 Y171.25 F3000.0
S90
G01 Y189.25 F1200.0
S1
G00 X49.12 Y189.25 F3000.0
S90
G01 Y171.25 F1200.0
S1
G00 X48.92 Y171.25 F3000.0
S90
G01 Y189.25 F1200.0
S1
G00 X48.72 Y189.25 F3000.0
S90
G01 Y171.25 F1200.0
S1
G00 X48.52 Y171.25 F3000.0
S90
G01 Y189.25 F1200.0
S1
G00 X48.32 Y189.25 F3000.0
S90
G01 Y171.25 F1200.0
S1
G00 X48.12 Y171.25 F3000.0
S90
G01 Y189.25 F1200.0
S1
G00 X47.92 Y189.25 F3000.0
S90
G01 Y171.25 F1200.0
S1
G00 X47.72 Y171.25 F3000.0
S90
G01 Y189.25 F1200.0
S1
G00 X47.52 Y189.25 F3000.0
S90
G01 Y171.25 F1200.0
S1
G00 X47.32 Y171.25 F3000.0
S90
G01 Y189.25 F1200.0
S1
G00 X47.12 Y189.25 F3000.0
S90
G01 Y171.25 F1200.0
S1
G00 X46.92 Y171.25 F3000.0
S90
G01 Y189.25 F1200.0
S1
G00 X46.72 Y189.25 F3000.0
S90
G01 Y171.25 F1200.0
S1
G00 X46.52 Y171.25 F3000.0
S90
G01 Y189.25 F1200.0
S1
G00 X46.32 Y189.25 F3000.0
S90
G01 Y171.25 F1200.0
S1
G00 X46.12 Y171.25 F3000.0
S90
G01 Y189.25 F1200.0
S1
G00 X45.92 Y189.25 F3000.0
S90
G01 Y171.25 F1200.0
S1
G00 X45.72 Y171.25 F3000.0
S90
G01 Y189.25 F1200.0
S1
G00 X45.52 Y189.25 F3000.0
S90
G01 Y171.25 F1200.0
S1
G00 X45.32 Y171.25 F3000.0
S90
G01 Y189.25 F1200.0
S1
G00 X45.12 Y189.25 F3000.0
S90
G01 Y171.25 F1200.0
S1
G00 X44.92 Y171.25 F3000.0
S90
G01 Y189.25 F1200.0
S1
G00 X44.72 Y189.25 F3000.0
S90
G01 Y171.25 F1200.0
S1
G00 X44.52 Y171.25 F3000.0
S90
G01 Y189.25 F1200.0
S1
G00 X44.32 Y189.25 F3000.0
S90
G01 Y171.25 F1200.0
S1
G00 X44.12 Y171.25 F3000.0
S90
G01 Y189.25 F1200.0
S1
G00 X43.92 Y189.25 F3000.0
S90
G01 Y171.25 F1200.0
S1
G00 X43.72 Y171.25 F3000.0
S90
G01 Y189.25 F1200.0
S1
G00 X43.52 Y189.25 F3000.0
S90
G01 Y171.25 F1200.0
S1
G00 X43.32 Y171.25 F3000.0
S90
G01 Y189.25 F1200.0
S1
G00 X43.12 Y189.25 F3000.0
S90
G01 Y171.25 F1200.0
S1
G00 X42.92 Y171.25 F3000.0
S90
G01 Y189.25 F1200.0
S1
G00 X42.72 Y189.25 F3000.0
S90
G01 Y171.25 F1200.0
S1
G00 X42.52 Y171.25 F3000.0
S90
G01 Y189.25 F1200.0
S1
G00 X42.32 Y189.25 F3000.0
S90
G01 Y171.25 F1200.0
S1
G00 X42.12 Y171.25 F3000.0
S90
G01 Y189.25 F1200.0
S1
G00 X41.92 Y189.25 F3000.0
S90
G01 Y171.25 F1200.0
S1
G00 X41.72 Y171.25 F3000.0
S90
G01 Y189.25 F1200.0
S1
G00 X41.52 Y189.25 F3000.0
S90
G01 Y171.25 F1200.0
S1
G00 X41.32 Y171.25 F3000.0
S90
G01 Y189.25 F1200.0
S1
G00 X41.12 Y189.25 F3000.0
S90
G01 Y171.25 F1200.0
S1
G00 X40.92 Y171.25 F3000.0
S90
G01 Y189.25 F1200.0
S1
G00 X40.72 Y189.25 F3000.0
S90
G01 Y171.25 F1200.0
S1
G00 X40.52 Y171.25 F3000.0
S90
G01 Y189.25 F1200.0
S1
G00 X40.32 Y189.25 F3000.0
S90
G01 Y171.25 F1200.0
S1
G00 X40.12 Y171.25 F3000.0
S90
G01 Y189.25 F1200.0
S1
G00 X39.92 Y189.25 F3000.0
S90
G01 Y171.25 F1200.0
S1
G00 X39.72 Y171.25 F3000.0
S90
G01 Y189.25 F1200.0
S1
G00 X39.52 Y189.25 F3000.0
S90
G01 Y171.25 F1200.0
S1
G00 X39.32 Y171.25 F3000.0
S90
G01 Y189.25 F1200.0
S1
G00 X39.12 Y189.25 F3000.0
S90
G01 Y171.25 F1200.0
S1
G00 X38.92 Y171.25 F3000.0
S90
G01 Y189.25 F1200.0
S1
G00 X38.72 Y189.25 F3000.0
S90
G01 Y171.25 F1200.0
S1
G00 X38.52 Y171.25 F3000.0
S90
G01 Y189.25 F1200.0
S1
G00 X38.32 Y189.25 F3000.0
S90
G01 Y171.25 F1200.0
S1
G00 X38.12 Y171.25 F3000.0
S90
G01 Y189.25 F1200.0
S1
G00 X37.92 Y189.25 F3000.0
S90
G01 Y171.25 F1200.0
S1
G00 X37.72 Y171.25 F3000.0
S90
G01 Y189.25 F1200.0
S1
G00 X37.52 Y189.25 F3000.0
S90
G01 Y171.25 F1200.0
S1
G00 X37.32 Y171.25 F3000.0
S90
G01 Y189.25 F1200.0
S1
G00 X37.12 Y189.25 F3000.0
S90
G01 Y171.25 F1200.0
S1
G00 X36.92 Y171.25 F3000.0
S90
G01 Y189.25 F1200.0
S1
G00 X36.72 Y189.25 F3000.0
S90
G01 Y171.25 F1200.0
S1
G00 X36.52 Y171.25 F3000.0
S90
G01 Y189.25 F1200.0
S1
G00 X36.32 Y189.25 F3000.0
S90
G01 Y171.25 F1200.0
S1
G00 X36.12 Y171.25 F3000.0
S90
G01 Y189.25 F1200.0
S1
G00 X35.92 Y189.25 F3000.0
S90
G01 Y171.25 F1200.0
S1
G00 X35.72 Y171.25 F3000.0
S90
G01 Y189.25 F1200.0
S1
G00 X35.52 Y189.25 F3000.0
S90
G01 Y162.25 F1200.0
S1
G00 X35.32 Y162.25 F3000.0
S90
G01 Y189.25 F1200.0
S1
G00 X35.12 Y189.25 F3000.0
S90
G01 Y162.25 F1200.0
S1
G00 X34.92 Y162.25 F3000.0
S90
G01 Y189.25 F1200.0
S1
G00 X34.72 Y189.25 F3000.0
S90
G01 Y162.25 F1200.0
S1
G00 X34.52 Y162.25 F3000.0
S90
G01 Y189.25 F1200.0
S1
G00 X34.32 Y189.25 F3000.0
S90
G01 Y162.25 F1200.0
S1
G00 X34.12 Y162.25 F3000.0
S90
G01 Y189.25 F1200.0
S1
G00 X33.92 Y189.25 F3000.0
S90
G01 Y162.25 F1200.0
S1
G00 X33.72 Y162.25 F3000.0
S90
G01 Y189.25 F1200.0
S1
G00 X33.52 Y189.25 F3000.0
S90
G01 Y162.25 F1200.0
S1
G00 X33.32 Y162.25 F3000.0
S90
G01 Y189.25 F1200.0
S1
G00 X33.12 Y189.25 F3000.0
S90
G01 Y162.25 F1200.0
S1
G00 X32.92 Y162.25 F3000.0
S90
G01 Y189.25 F1200.0
S1
G00 X32.72 Y189.25 F3000.0
S90
G01 Y162.25 F1200.0
S1
G00 X32.52 Y162.25 F3000.0
S90
G01 Y189.25 F1200.0
S1
G00 X32.32 Y189.25 F3000.0
S90
G01 Y162.25 F1200.0
S1
G00 X32.12 Y162.25 F3000.0
S90
G01 Y189.25 F1200.0
S1
G00 X31.92 Y189.25 F3000.0
S90
G01 Y162.25 F1200.0
S1
G00 X31.72 Y162.25 F3000.0
S90
G01 Y189.25 F1200.0
S1
G00 X31.52 Y189.25 F3000.0
S90
G01 Y162.25 F1200.0
S1
G00 X31.32 Y162.25 F3000.0
S90
G01 Y189.25 F1200.0
S1
G00 X31.12 Y189.25 F3000.0
S90
G01 Y162.25 F1200.0
S1
G00 X30.92 Y162.25 F3000.0
S90
G01 Y189.25 F1200.0
S1
G00 X30.72 Y189.25 F3000.0
S90
G01 Y162.25 F1200.0
S1
G00 X30.52 Y162.25 F3000.0
S90
G01 Y189.25 F1200.0
S1
G00 X30.32 Y189.25 F3000.0
S90
G01 Y162.25 F1200.0
S1
G00 X30.12 Y162.25 F3000.0
S90
G01 Y189.25 F1200.0
S1
G00 X29.92 Y189.25 F3000.0
S90
G01 Y162.25 F1200.0
S1
G00 X29.72 Y162.25 F3000.0
S90
G01 Y189.25 F1200.0
S1
G00 X29.52 Y189.25 F3000.0
S90
G01 Y162.25 F1200.0
S1
G00 X29.32 Y162.25 F3000.0
S90
G01 Y189.25 F1200.0
S1
G00 X29.12 Y189.25 F3000.0
S90
G01 Y162.25 F1200.0
S1
G00 X28.92 Y162.25 F3000.0
S90
G01 Y189.25 F1200.0
S1
G00 X28.72 Y189.25 F3000.0
S90
G01 Y162.25 F1200.0
S1
G00 X28.52 Y162.25 F3000.0
S90
G01 Y189.25 F1200.0
S1
G00 X28.32 Y189.25 F3000.0
S90
G01 Y162.25 F1200.0
S1
G00 X28.12 Y162.25 F3000.0
S90
G01 Y189.25 F1200.0
S1
G00 X27.92 Y189.25 F3000.0
S90
G01 Y162.25 F1200.0
S1
G00 X27.72 Y162.25 F3000.0
S90
G01 Y189.25 F1200.0
S1
G00 X27.52 Y189.25 F3000.0
S90
G01 Y162.25 F1200.0
S1
G00 X27.32 Y162.25 F3000.0
S90
G01 Y189.25 F1200.0
S1
G00 X27.12 Y189.25 F3000.0
S90
G01 Y162.25 F1200.0
S1
G00 X26.92 Y162.25 F3000.0
S90
G01 Y189.25 F1200.0
S1
G00 X26.72 Y189.25 F3000.0
S90
G01 Y162.25 F1200.0
S1
G00 X26.52 Y162.25 F3000.0
S90
G01 Y171.25 F1200.0
S1
G00 X26.32 Y171.25 F3000.0
S90
G01 Y162.25 F1200.0
S1
G00 X26.12 Y162.25 F3000.0
S90
G01 Y171.25 F1200.0
S1
G00 X25.92 Y171.25 F3000.0
S90
G01 Y162.25 F1200.0
S1
G00 X25.72 Y162.25 F3000.0
S90
G01 Y171.25 F1200.0
S1
G00 X25.52 Y171.25 F3000.0
S90
G01 Y162.25 F1200.0
S1
G00 X25.32 Y162.25 F3000.0
S90
G01 Y171.25 F1200.0
S1
G00 X25.12 Y171.25 F3000.0
S90
G01 Y162.25 F1200.0
S1
G00 X24.92 Y162.25 F3000.0
S90
G01 Y171.25 F1200.0
S1
G00 X24.72 Y171.25 F3000.0
S90
G01 Y162.25 F1200.0
S1
G00 X24.52 Y162.25 F3000.0
S90
G01 Y171.25 F1200.0
S1
G00 X24.32 Y171.25 F3000.0
S90
G01 Y162.25 F1200.0
S1
G00 X24.12 Y162.25 F3000.0
S90
G01 Y171.25 F1200.0
S1
G00 X23.92 Y171.25 F3000.0
S90
G01 Y162.25 F1200.0
S1
G00 X23.72 Y162.25 F3000.0
S90
G01 Y171.25 F1200.0
S1
G00 X23.52 Y171.25 F3000.0
S90
G01 Y162.25 F1200.0
S1
G00 X23.32 Y162.25 F3000.0
S90
G01 Y171.25 F1200.0
S1
G00 X23.12 Y171.25 F3000.0
S90
G01 Y162.25 F1200.0
S1
G00 X22.92 Y162.25 F3000.0
S90
G01 Y171.25 F1200.0
S1
G00 X22.72 Y171.25 F3000.0
S90
G01 Y162.25 F1200.0
S1
G00 X22.52 Y162.25 F3000.0
S90
G01 Y171.25 F1200.0
S1
G00 X22.32 Y171.25 F3000.0
S90
G01 Y162.25 F1200.0
S1
G00 X22.12 Y162.25 F3000.0
S90
G01 Y171.25 F1200.0
S1
G00 X21.92 Y171.25 F3000.0
S90
G01 Y162.25 F1200.0
S1
G00 X21.72 Y162.25 F3000.0
S90
G01 Y171.25 F1200.0
S1
G00 X21.52 Y171.25 F3000.0
S90
G01 Y162.25 F1200.0
S1
G00 X21.32 Y162.25 F3000.0
S90
G01 Y171.25 F1200.0
S1
G00 X21.12 Y171.25 F3000.0
S90
G01 Y162.25 F1200.0
S1
G00 X20.92 Y162.25 F3000.0
S90
G01 Y171.25 F1200.0
S1
G00 X20.72 Y171.25 F3000.0
S90
G01 Y162.25 F1200.0
S1
G00 X20.52 Y162.25 F3000.0
S90
G01 Y171.25 F1200.0
S1
G00 X20.32 Y171.25 F3000.0
S90
G01 Y162.25 F1200.0
S1
G00 X20.12 Y162.25 F3000.0
S90
G01 Y171.25 F1200.0
S1
G00 X19.92 Y171.25 F3000.0
S90
G01 Y162.25 F1200.0
S1
G00 X19.72 Y162.25 F3000.0
S90
G01 Y171.25 F1200.0
S1
G00 X19.52 Y171.25 F3000.0
S90
G01 Y162.25 F1200.0
S1
G00 X19.32 Y162.25 F3000.0
S90
G01 Y171.25 F1200.0
S1
G00 X19.12 Y171.25 F3000.0
S90
G01 Y162.25 F1200.0
S1
G00 X18.92 Y162.25 F3000.0
S90
G01 Y171.25 F1200.0
S1
G00 X18.72 Y171.25 F3000.0
S90
G01 Y162.25 F1200.0
S1
G00 X18.52 Y162.25 F3000.0
S90
G01 Y171.25 F1200.0
S1
G00 X18.32 Y171.25 F3000.0
S90
G01 Y162.25 F1200.0
S1
G00 X18.12 Y162.25 F3000.0
S90
G01 Y171.25 F1200.0
S1
G00 X17.92 Y171.25 F3000.0
S90
G01 Y162.25 F1200.0
S1
G00 X17.72 Y162.25 F3000.0
S90
G01 Y171.25 F1200.0
S1
G00 X17.52 Y171.25 F3000.0
S90
G01 Y180.25 F1200.0
S1
G00 X17.72 Y180.25 F3000.0
S90
G01 Y189.25 F1200.0
S1
G00 X17.92 Y189.25 F3000.0
S90
G01 Y180.25 F1200.0
S1
G00 X18.12 Y180.25 F3000.0
S90
G01 Y189.25 F1200.0
S1
G00 X18.32 Y189.25 F3000.0
S90
G01 Y180.25 F1200.0
S1
G00 X18.52 Y180.25 F3000.0
S90
G01 Y189.25 F1200.0
S1
G00 X18.72 Y189.25 F3000.0
S90
G01 Y180.25 F1200.0
S1
G00 X18.92 Y180.25 F3000.0
S90
G01 Y189.25 F1200.0
S1
G00 X19.12 Y189.25 F3000.0
S90
G01 Y180.25 F1200.0
S1
G00 X19.32 Y180.25 F3000.0
S90
G01 Y189.25 F1200.0
S1
G00 X19.52 Y189.25 F3000.0
S90
G01 Y180.25 F1200.0
S1
G00 X19.72 Y180.25 F3000.0
S90
G01 Y189.25 F1200.0
S1
G00 X19.92 Y189.25 F3000.0
S90
G01 Y180.25 F1200.0
S1
G00 X20.12 Y180.25 F3000.0
S90
G01 Y189.25 F1200.0
S1
G00 X20.32 Y189.25 F3000.0
S90
G01 Y180.25 F1200.0
S1
G00 X20.52 Y180.25 F3000.0
S90
G01 Y189.25 F1200.0
S1
G00 X20.72 Y189.25 F3000.0
S90
G01 Y180.25 F1200.0
S1
G00 X20.92 Y180.25 F3000.0
S90
G01 Y189.25 F1200.0
S1
G00 X21.12 Y189.25 F3000.0
S90
G01 Y180.25 F1200.0
S1
G00 X21.32 Y180.25 F3000.0
S90
G01 Y189.25 F1200.0
S1
G00 X21.52 Y189.25 F3000.0
S90
G01 Y180.25 F1200.0
S1
G00 X21.72 Y180.25 F3000.0
S90
G01 Y189.25 F1200.0
S1
G00 X21.92 Y189.25 F3000.0
S90
G01 Y180.25 F1200.0
S1
G00 X22.12 Y180.25 F3000.0
S90
G01 Y189.25 F1200.0
S1
G00 X22.32 Y189.25 F3000.0
S90
G01 Y180.25 F1200.0
S1
G00 X22.52 Y180.25 F3000.0
S90
G01 Y189.25 F1200.0
S1
G00 X22.72 Y189.25 F3000.0
S90
G01 Y180.25 F1200.0
S1
G00 X22.92 Y180.25 F3000.0
S90
G01 Y189.25 F1200.0
S1
G00 X23.12 Y189.25 F3000.0
S90
G01 Y180.25 F1200.0
S1
G00 X23.32 Y180.25 F3000.0
S90
G01 Y189.25 F1200.0
S1
G00 X23.52 Y189.25 F3000.0
S90
G01 Y180.25 F1200.0
S1
G00 X23.72 Y180.25 F3000.0
S90
G01 Y189.25 F1200.0
S1
G00 X23.92 Y189.25 F3000.0
S90
G01 Y180.25 F1200.0
S1
G00 X24.12 Y180.25 F3000.0
S90
G01 Y189.25 F1200.0
S1
G00 X24.32 Y189.25 F3000.0
S90
G01 Y180.25 F1200.0
S1
G00 X24.52 Y180.25 F3000.0
S90
G01 Y189.25 F1200.0
S1
G00 X24.72 Y189.25 F3000.0
S90
G01 Y180.25 F1200.0
S1
G00 X24.92 Y180.25 F3000.0
S90
G01 Y189.25 F1200.0
S1
G00 X25.12 Y189.25 F3000.0
S90
G01 Y180.25 F1200.0
S1
G00 X25.32 Y180.25 F3000.0
S90
G01 Y189.25 F1200.0
S1
G00 X25.52 Y189.25 F3000.0
S90
G01 Y180.25 F1200.0
S1
G00 X25.72 Y180.25 F3000.0
S90
G01 Y189.25 F1200.0
S1
G00 X25.92 Y189.25 F3000.0
S90
G01 Y180.25 F1200.0
S1
G00 X26.12 Y180.25 F3000.0
S90
G01 Y189.25 F1200.0
S1
G00 X26.32 Y189.25 F3000.0
S90
G01 Y180.25 F1200.0
S1
G00 X26.52 Y180.25 F3000.0
S90
G01 Y189.25 F1200.0
S1
G00 X26.52 Y198.25 F3000.0
S90
G01 Y207.25 F1200.0
S1
G00 X26.72 Y207.25 F3000.0
S90
G01 Y198.25 F1200.0
S1
G00 X26.92 Y198.25 F3000.0
S90
G01 Y207.25 F1200.0
S1
G00 X27.12 Y207.25 F3000.0
S90
G01 Y198.25 F1200.0
S1
G00 X27.32 Y198.25 F3000.0
S90
G01 Y207.25 F1200.0
S1
G00 X27.52 Y207.25 F3000.0
S90
G01 Y198.25 F1200.0
S1
G00 X27.72 Y198.25 F3000.0
S90
G01 Y207.25 F1200.0
S1
G00 X27.92 Y207.25 F3000.0
S90
G01 Y198.25 F1200.0
S1
G00 X28.12 Y198.25 F3000.0
S90
G01 Y207.25 F1200.0
S1
G00 X28.32 Y207.25 F3000.0
S90
G01 Y198.25 F1200.0
S1
G00 X28.52 Y198.25 F3000.0
S90
G01 Y207.25 F1200.0
S1
G00 X28.72 Y207.25 F3000.0
S90
G01 Y198.25 F1200.0
S1
G00 X28.92 Y198.25 F3000.0
S90
G01 Y207.25 F1200.0
S1
G00 X29.12 Y207.25 F3000.0
S90
G01 Y198.25 F1200.0
S1
G00 X29.32 Y198.25 F3000.0
S90
G01 Y207.25 F1200.0
S1
G00 X29.52 Y207.25 F3000.0
S90
G01 Y198.25 F1200.0
S1
G00 X29.72 Y198.25 F3000.0
S90
G01 Y207.25 F1200.0
S1
G00 X29.92 Y207.25 F3000.0
S90
G01 Y198.25 F1200.0
S1
G00 X30.12 Y198.25 F3000.0
S90
G01 Y207.25 F1200.0
S1
G00 X30.32 Y207.25 F3000.0
S90
G01 Y198.25 F1200.0
S1
G00 X30.52 Y198.25 F3000.0
S90
G01 Y207.25 F1200.0
S1
G00 X30.72 Y207.25 F3000.0
S90
G01 Y198.25 F1200.0
S1
G00 X30.92 Y198.25 F3000.0
S90
G01 Y207.25 F1200.0
S1
G00 X31.12 Y207.25 F3000.0
S90
G01 Y198.25 F1200.0
S1
G00 X31.32 Y198.25 F3000.0
S90
G01 Y207.25 F1200.0
S1
G00 X31.52 Y207.25 F3000.0
S90
G01 Y198.25 F1200.0
S1
G00 X31.72 Y198.25 F3000.0
S90
G01 Y207.25 F1200.0
S1
G00 X31.92 Y207.25 F3000.0
S90
G01 Y198.25 F1200.0
S1
G00 X32.12 Y198.25 F3000.0
S90
G01 Y207.25 F1200.0
S1
G00 X32.32 Y207.25 F3000.0
S90
G01 Y198.25 F1200.0
S1
G00 X32.52 Y198.25 F3000.0
S90
G01 Y207.25 F1200.0
S1
G00 X32.72 Y207.25 F3000.0
S90
G01 Y198.25 F1200.0
S1
G00 X32.92 Y198.25 F3000.0
S90
G01 Y207.25 F1200.0
S1
G00 X33.12 Y207.25 F3000.0
S90
G01 Y198.25 F1200.0
S1
G00 X33.32 Y198.25 F3000.0
S90
G01 Y207.25 F1200.0
S1
G00 X33.52 Y207.25 F3000.0
S90
G01 Y198.25 F1200.0
S1
G00 X33.72 Y198.25 F3000.0
S90
G01 Y207.25 F1200.0
S1
G00 X33.92 Y207.25 F3000.0
S90
G01 Y198.25 F1200.0
S1
G00 X34.12 Y198.25 F3000.0
S90
G01 Y207.25 F1200.0
S1
G00 X34.32 Y207.25 F3000.0
S90
G01 Y198.25 F1200.0
S1
G00 X34.52 Y198.25 F3000.0
S90
G01 Y207.25 F1200.0
S1
G00 X34.72 Y207.25 F3000.0
S90
G01 Y198.25 F1200.0
S1
G00 X34.92 Y198.25 F3000.0
S90
G01 Y207.25 F1200.0
S1
G00 X35.12 Y207.25 F3000.0
S90
G01 Y198.25 F1200.0
S1
G00 X35.32 Y198.25 F3000.0
S90
G01 Y207.25 F1200.0
S1
G00 X35.52 Y207.25 F3000.0
S90
G01 Y198.25 F1200.0
S1
G00 X35.72 Y198.25 F3000.0
S90
G01 Y207.25 F1200.0
S1
G00 X35.92 Y207.25 F3000.0
S90
G01 Y198.25 F1200.0
S1
G00 X36.12 Y198.25 F3000.0
S90
G01 Y207.25 F1200.0
S1
G00 X36.32 Y207.25 F3000.0
S90
G01 Y198.25 F1200.0
S1
G00 X36.52 Y198.25 F3000.0
S90
G01 Y207.25 F1200.0
S1
G00 X36.72 Y207.25 F3000.0
S90
G01 Y198.25 F1200.0
S1
G00 X36.92 Y198.25 F3000.0
S90
G01 Y207.25 F1200.0
S1
G00 X37.12 Y207.25 F3000.0
S90
G01 Y198.25 F1200.0
S1
G00 X37.32 Y198.25 F3000.0
S90
G01 Y207.25 F1200.0
S1
G00 X37.52 Y207.25 F3000.0
S90
G01 Y198.25 F1200.0
S1
G00 X37.72 Y198.25 F3000.0
S90
G01 Y207.25 F1200.0
S1
G00 X37.92 Y207.25 F3000.0
S90
G01 Y198.25 F1200.0
S1
G00 X38.12 Y198.25 F3000.0
S90
G01 Y207.25 F1200.0
S1
G00 X38.32 Y207.25 F3000.0
S90
G01 Y198.25 F1200.0
S1
G00 X38.52 Y198.25 F3000.0
S90
G01 Y207.25 F1200.0
S1
G00 X38.72 Y207.25 F3000.0
S90
G01 Y198.25 F1200.0
S1
G00 X38.92 Y198.25 F3000.0
S90
G01 Y207.25 F1200.0
S1
G00 X39.12 Y207.25 F3000.0
S90
G01 Y198.25 F1200.0
S1
G00 X39.32 Y198.25 F3000.0
S90
G01 Y207.25 F1200.0
S1
G00 X39.52 Y207.25 F3000.0
S90
G01 Y198.25 F1200.0
S1
G00 X39.72 Y198.25 F3000.0
S90
G01 Y207.25 F1200.0
S1
G00 X39.92 Y207.25 F3000.0
S90
G01 Y198.25 F1200.0
S1
G00 X40.12 Y198.25 F3000.0
S90
G01 Y207.25 F1200.0
S1
G00 X40.32 Y207.25 F3000.0
S90
G01 Y198.25 F1200.0
S1
G00 X40.52 Y198.25 F3000.0
S90
G01 Y207.25 F1200.0
S1
G00 X40.72 Y207.25 F3000.0
S90
G01 Y198.25 F1200.0
S1
G00 X40.92 Y198.25 F3000.0
S90
G01 Y207.25 F1200.0
S1
G00 X41.12 Y207.25 F3000.0
S90
G01 Y198.25 F1200.0
S1
G00 X41.32 Y198.25 F3000.0
S90
G01 Y207.25 F1200.0
S1
G00 X41.52 Y207.25 F3000.0
S90
G01 Y198.25 F1200.0
S1
G00 X41.72 Y198.25 F3000.0
S90
G01 Y207.25 F1200.0
S1
G00 X41.92 Y207.25 F3000.0
S90
G01 Y198.25 F1200.0
S1
G00 X42.12 Y198.25 F3000.0
S90
G01 Y207.25 F1200.0
S1
G00 X42.32 Y207.25 F3000.0
S90
G01 Y198.25 F1200.0
S1
G00 X42.52 Y198.25 F3000.0
S90
G01 Y207.25 F1200.0
S1
G00 X42.72 Y207.25 F3000.0
S90
G01 Y198.25 F1200.0
S1
G00 X42.92 Y198.25 F3000.0
S90
G01 Y207.25 F1200.0
S1
G00 X43.12 Y207.25 F3000.0
S90
G01 Y198.25 F1200.0
S1
G00 X43.32 Y198.25 F3000.0
S90
G01 Y207.25 F1200.0
S1
G00 X43.52 Y207.25 F3000.0
S90
G01 Y198.25 F1200.0
S1
G00 X43.72 Y198.25 F3000.0
S90
G01 Y207.25 F1200.0
S1
G00 X43.92 Y207.25 F3000.0
S90
G01 Y198.25 F1200.0
S1
G00 X44.12 Y198.25 F3000.0
S90
G01 Y207.25 F1200.0
S1
G00 X44.32 Y207.25 F3000.0
S90
G01 Y198.25 F1200.0
S1
G00 X44.52 Y198.25 F3000.0
S90
G01 Y207.25 F1200.0
S1
G00 X44.72 Y207.25 F3000.0
S90
G01 Y198.25 F1200.0
S1
G00 X44.92 Y198.25 F3000.0
S90
G01 Y207.25 F1200.0
S1
G00 X45.12 Y207.25 F3000.0
S90
G01 Y198.25 F1200.0
S1
G00 X45.32 Y198.25 F3000.0
S90
G01 Y207.25 F1200.0
S1
G00 X45.52 Y207.25 F3000.0
S90
G01 Y198.25 F1200.0
S1
G00 X45.72 Y198.25 F3000.0
S90
G01 Y207.25 F1200.0
S1
G00 X45.92 Y207.25 F3000.0
S90
G01 Y198.25 F1200.0
S1
G00 X46.12 Y198.25 F3000.0
S90
G01 Y207.25 F1200.0
S1
G00 X46.32 Y207.25 F3000.0
S90
G01 Y198.25 F1200.0
S1
G00 X46.52 Y198.25 F3000.0
S90
G01 Y207.25 F1200.0
S1
G00 X46.72 Y207.25 F3000.0
S90
G01 Y198.25 F1200.0
S1
G00 X46.92 Y198.25 F3000.0
S90
G01 Y207.25 F1200.0
S1
G00 X47.12 Y207.25 F3000.0
S90
G01 Y198.25 F1200.0
S1
G00 X47.32 Y198.25 F3000.0
S90
G01 Y207.25 F1200.0
S1
G00 X47.52 Y207.25 F3000.0
S90
G01 Y198.25 F1200.0
S1
G00 X47.72 Y198.25 F3000.0
S90
G01 Y207.25 F1200.0
S1
G00 X47.92 Y207.25 F3000.0
S90
G01 Y198.25 F1200.0
S1
G00 X48.12 Y198.25 F3000.0
S90
G01 Y207.25 F1200.0
S1
G00 X48.32 Y207.25 F3000.0
S90
G01 Y198.25 F1200.0
S1
G00 X48.52 Y198.25 F3000.0
S90
G01 Y207.25 F1200.0
S1
G00 X48.72 Y207.25 F3000.0
S90
G01 Y198.25 F1200.0
S1
G00 X48.92 Y198.25 F3000.0
S90
G01 Y207.25 F1200.0
S1
G00 X49.12 Y207.25 F3000.0
S90
G01 Y198.25 F1200.0
S1
G00 X49.32 Y198.25 F3000.0
S90
G01 Y207.25 F1200.0
S1
G00 X49.52 Y207.25 F3000.0
S90
G01 Y198.25 F1200.0
S1
G00 X49.72 Y198.25 F3000.0
S90
G01 Y207.25 F1200.0
S1
G00 X49.92 Y207.25 F3000.0
S90
G01 Y198.25 F1200.0
S1
G00 X50.12 Y198.25 F3000.0
S90
G01 Y207.25 F1200.0
S1
G00 X50.32 Y207.25 F3000.0
S90
G01 Y198.25 F1200.0
S1
G00 X50.52 Y198.25 F3000.0
S90
G01 Y207.25 F1200.0
S1
G00 X50.72 Y207.25 F3000.0
S90
G01 Y198.25 F1200.0
S1
G00 X50.92 Y198.25 F3000.0
S90
G01 Y207.25 F1200.0
S1
G00 X51.12 Y207.25 F3000.0
S90
G01 Y198.25 F1200.0
S1
G00 X51.32 Y198.25 F3000.0
S90
G01 Y207.25 F1200.0
S1
G00 X51.52 Y207.25 F3000.0
S90
G01 Y198.25 F1200.0
S1
G00 X51.72 Y198.25 F3000.0
S90
G01 Y207.25 F1200.0
S1
G00 X51.92 Y207.25 F3000.0
S90
G01 Y198.25 F1200.0
S1
G00 X52.12 Y198.25 F3000.0
S90
G01 Y207.25 F1200.0
S1
G00 X52.32 Y207.25 F3000.0
S90
G01 Y198.25 F1200.0
S1
G00 X52.52 Y198.25 F3000.0
S90
G01 Y207.25 F1200.0
S1
G00 X52.72 Y207.25 F3000.0
S90
G01 Y198.25 F1200.0
S1
G00 X52.92 Y198.25 F3000.0
S90
G01 Y207.25 F1200.0
S1
G00 X53.12 Y207.25 F3000.0
S90
G01 Y198.25 F1200.0
S1
G00 X53.32 Y198.25 F3000.0
S90
G01 Y207.25 F1200.0
S1
G00 X53.52 Y207.25 F3000.0
S90
G01 Y198.25 F1200.0
S1
G00 X53.72 Y198.25 F3000.0
S90
G01 Y261.25 F1200.0
S1
G00 X53.52 Y261.25 F3000.0
S90
G01 Y252.25 F1200.0
S1
G00 X53.32 Y252.25 F3000.0
S90
G01 Y261.25 F1200.0
S1
G00 X53.12 Y261.25 F3000.0
S90
G01 Y252.25 F1200.0
S1
G00 X52.92 Y252.25 F3000.0
S90
G01 Y261.25 F1200.0
S1
G00 X52.72 Y261.25 F3000.0
S90
G01 Y252.25 F1200.0
S1
G00 X52.52 Y252.25 F3000.0
S90
G01 Y261.25 F1200.0
S1
G00 X52.32 Y261.25 F3000.0
S90
G01 Y252.25 F1200.0
S1
G00 X52.12 Y252.25 F3000.0
S90
G01 Y261.25 F1200.0
S1
G00 X51.92 Y261.25 F3000.0
S90
G01 Y252.25 F1200.0
S1
G00 X51.72 Y252.25 F3000.0
S90
G01 Y261.25 F1200.0
S1
G00 X51.52 Y261.25 F3000.0
S90
G01 Y252.25 F1200.0
S1
G00 X51.32 Y252.25 F3000.0
S90
G01 Y261.25 F1200.0
S1
G00 X51.12 Y261.25 F3000.0
S90
G01 Y252.25 F1200.0
S1
G00 X50.92 Y252.25 F3000.0
S90
G01 Y261.25 F1200.0
S1
G00 X50.72 Y261.25 F3000.0
S90
G01 Y252.25 F1200.0
S1
G00 X50.52 Y252.25 F3000.0
S90
G01 Y261.25 F1200.0
S1
G00 X50.32 Y261.25 F3000.0
S90
G01 Y252.25 F1200.0
S1
G00 X50.12 Y252.25 F3000.0
S90
G01 Y261.25 F1200.0
S1
G00 X49.92 Y261.25 F3000.0
S90
G01 Y252.25 F1200.0
S1
G00 X49.72 Y252.25 F3000.0
S90
G01 Y261.25 F1200.0
S1
G00 X49.52 Y261.25 F3000.0
S90
G01 Y252.25 F1200.0
S1
G00 X49.32 Y252.25 F3000.0
S90
G01 Y261.25 F1200.0
S1
G00 X49.12 Y261.25 F3000.0
S90
G01 Y252.25 F1200.0
S1
G00 X48.92 Y252.25 F3000.0
S90
G01 Y261.25 F1200.0
S1
G00 X48.72 Y261.25 F3000.0
S90
G01 Y252.25 F1200.0
S1
G00 X48.52 Y252.25 F3000.0
S90
G01 Y261.25 F1200.0
S1
G00 X48.32 Y261.25 F3000.0
S90
G01 Y252.25 F1200.0
S1
G00 X48.12 Y252.25 F3000.0
S90
G01 Y261.25 F1200.0
S1
G00 X47.92 Y261.25 F3000.0
S90
G01 Y252.25 F1200.0
S1
G00 X47.72 Y252.25 F3000.0
S90
G01 Y261.25 F1200.0
S1
G00 X47.52 Y261.25 F3000.0
S90
G01 Y252.25 F1200.0
S1
G00 X47.32 Y252.25 F3000.0
S90
G01 Y261.25 F1200.0
S1
G00 X47.12 Y261.25 F3000.0
S90
G01 Y252.25 F1200.0
S1
G00 X46.92 Y252.25 F3000.0
S90
G01 Y261.25 F1200.0
S1
G00 X46.72 Y261.25 F3000.0
S90
G01 Y252.25 F1200.0
S1
G00 X46.52 Y252.25 F3000.0
S90
G01 Y261.25 F1200.0
S1
G00 X46.32 Y261.25 F3000.0
S90
G01 Y252.25 F1200.0
S1
G00 X46.12 Y252.25 F3000.0
S90
G01 Y261.25 F1200.0
S1
G00 X45.92 Y261.25 F3000.0
S90
G01 Y252.25 F1200.0
S1
G00 X45.72 Y252.25 F3000.0
S90
G01 Y261.25 F1200.0
S1
G00 X45.52 Y261.25 F3000.0
S90
G01 Y252.25 F1200.0
S1
G00 X45.32 Y252.25 F3000.0
S90
G01 Y261.25 F1200.0
S1
G00 X45.12 Y261.25 F3000.0
S90
G01 Y252.25 F1200.0
S1
G00 X44.92 Y252.25 F3000.0
S90
G01 Y261.25 F1200.0
S1
G00 X44.72 Y261.25 F3000.0
S90
G01 Y252.25 F1200.0
S1
G00 X44.52 Y252.25 F3000.0
S90
G01 Y261.25 F1200.0
S1
G00 X44.32 Y261.25 F3000.0
S90
G01 Y252.25 F1200.0
S1
G00 X44.12 Y252.25 F3000.0
S90
G01 Y261.25 F1200.0
S1
G00 X43.92 Y261.25 F3000.0
S90
G01 Y252.25 F1200.0
S1
G00 X43.72 Y252.25 F3000.0
S90
G01 Y261.25 F1200.0
S1
G00 X43.52 Y261.25 F3000.0
S90
G01 Y252.25 F1200.0
S1
G00 X43.32 Y252.25 F3000.0
S90
G01 Y261.25 F1200.0
S1
G00 X43.12 Y261.25 F3000.0
S90
G01 Y252.25 F1200.0
S1
G00 X42.92 Y252.25 F3000.0
S90
G01 Y261.25 F1200.0
S1
G00 X42.72 Y261.25 F3000.0
S90
G01 Y252.25 F1200.0
S1
G00 X42.52 Y252.25 F3000.0
S90
G01 Y261.25 F1200.0
S1
G00 X42.32 Y261.25 F3000.0
S90
G01 Y252.25 F1200.0
S1
G00 X42.12 Y252.25 F3000.0
S90
G01 Y261.25 F1200.0
S1
G00 X41.92 Y261.25 F3000.0
S90
G01 Y252.25 F1200.0
S1
G00 X41.72 Y252.25 F3000.0
S90
G01 Y261.25 F1200.0
S1
G00 X41.52 Y261.25 F3000.0
S90
G01 Y252.25 F1200.0
S1
G00 X41.32 Y252.25 F3000.0
S90
G01 Y261.25 F1200.0
S1
G00 X41.12 Y261.25 F3000.0
S90
G01 Y252.25 F1200.0
S1
G00 X40.92 Y252.25 F3000.0
S90
G01 Y261.25 F1200.0
S1
G00 X40.72 Y261.25 F3000.0
S90
G01 Y252.25 F1200.0
S1
G00 X40.52 Y252.25 F3000.0
S90
G01 Y261.25 F1200.0
S1
G00 X40.32 Y261.25 F3000.0
S90
G01 Y252.25 F1200.0
S1
G00 X40.12 Y252.25 F3000.0
S90
G01 Y261.25 F1200.0
S1
G00 X39.92 Y261.25 F3000.0
S90
G01 Y252.25 F1200.0
S1
G00 X39.72 Y252.25 F3000.0
S90
G01 Y261.25 F1200.0
S1
G00 X39.52 Y261.25 F3000.0
S90
G01 Y252.25 F1200.0
S1
G00 X39.32 Y252.25 F3000.0
S90
G01 Y261.25 F1200.0
S1
G00 X39.12 Y261.25 F3000.0
S90
G01 Y252.25 F1200.0
S1
G00 X38.92 Y252.25 F3000.0
S90
G01 Y261.25 F1200.0
S1
G00 X38.72 Y261.25 F3000.0
S90
G01 Y252.25 F1200.0
S1
G00 X38.52 Y252.25 F3000.0
S90
G01 Y261.25 F1200.0
S1
G00 X38.32 Y261.25 F3000.0
S90
G01 Y252.25 F1200.0
S1
G00 X38.12 Y252.25 F3000.0
S90
G01 Y261.25 F1200.0
S1
G00 X37.92 Y261.25 F3000.0
S90
G01 Y252.25 F1200.0
S1
G00 X37.72 Y252.25 F3000.0
S90
G01 Y261.25 F1200.0
S1
G00 X37.52 Y261.25 F3000.0
S90
G01 Y252.25 F1200.0
S1
G00 X37.32 Y252.25 F3000.0
S90
G01 Y261.25 F1200.0
S1
G00 X37.12 Y261.25 F3000.0
S90
G01 Y252.25 F1200.0
S1
G00 X36.92 Y252.25 F3000.0
S90
G01 Y261.25 F1200.0
S1
G00 X36.72 Y261.25 F3000.0
S90
G01 Y252.25 F1200.0
S1
G00 X36.52 Y252.25 F3000.0
S90
G01 Y261.25 F1200.0
S1
G00 X36.32 Y261.25 F3000.0
S90
G01 Y252.25 F1200.0
S1
G00 X36.12 Y252.25 F3000.0
S90
G01 Y261.25 F1200.0
S1
G00 X35.92 Y261.25 F3000.0
S90
G01 Y252.25 F1200.0
S1
G00 X35.72 Y252.25 F3000.0
S90
G01 Y261.25 F1200.0
S1
G00 X35.52 Y261.25 F3000.0
S90
G01 Y252.25 F1200.0
S1
G00 X35.32 Y252.25 F3000.0
S90
G01 Y261.25 F1200.0
S1
G00 X35.12 Y261.25 F3000.0
S90
G01 Y252.25 F1200.0
S1
G00 X34.92 Y252.25 F3000.0
S90
G01 Y261.25 F1200.0
S1
G00 X34.72 Y261.25 F3000.0
S90
G01 Y252.25 F1200.0
S1
G00 X34.52 Y252.25 F3000.0
S90
G01 Y261.25 F1200.0
S1
G00 X34.32 Y261.25 F3000.0
S90
G01 Y252.25 F1200.0
S1
G00 X34.12 Y252.25 F3000.0
S90
G01 Y261.25 F1200.0
S1
G00 X33.92 Y261.25 F3000.0
S90
G01 Y252.25 F1200.0
S1
G00 X33.72 Y252.25 F3000.0
S90
G01 Y261.25 F1200.0
S1
G00 X33.52 Y261.25 F3000.0
S90
G01 Y252.25 F1200.0
S1
G00 X33.32 Y252.25 F3000.0
S90
G01 Y261.25 F1200.0
S1
G00 X33.12 Y261.25 F3000.0
S90
G01 Y252.25 F1200.0
S1
G00 X32.92 Y252.25 F3000.0
S90
G01 Y261.25 F1200.0
S1
G00 X32.72 Y261.25 F3000.0
S90
G01 Y252.25 F1200.0
S1
G00 X32.52 Y252.25 F3000.0
S90
G01 Y261.25 F1200.0
S1
G00 X32.32 Y261.25 F3000.0
S90
G01 Y252.25 F1200.0
S1
G00 X32.12 Y252.25 F3000.0
S90
G01 Y261.25 F1200.0
S1
G00 X31.92 Y261.25 F3000.0
S90
G01 Y252.25 F1200.0
S1
G00 X31.72 Y252.25 F3000.0
S90
G01 Y261.25 F1200.0
S1
G00 X31.52 Y261.25 F3000.0
S90
G01 Y252.25 F1200.0
S1
G00 X31.32 Y252.25 F3000.0
S90
G01 Y261.25 F1200.0
S1
G00 X31.12 Y261.25 F3000.0
S90
G01 Y252.25 F1200.0
S1
G00 X30.92 Y252.25 F3000.0
S90
G01 Y261.25 F1200.0
S1
G00 X30.72 Y261.25 F3000.0
S90
G01 Y252.25 F1200.0
S1
G00 X30.52 Y252.25 F3000.0
S90
G01 Y261.25 F1200.0
S1
G00 X30.32 Y261.25 F3000.0
S90
G01 Y252.25 F1200.0
S1
G00 X30.12 Y252.25 F3000.0
S90
G01 Y261.25 F1200.0
S1
G00 X29.92 Y261.25 F3000.0
S90
G01 Y252.25 F1200.0
S1
G00 X29.72 Y252.25 F3000.0
S90
G01 Y261.25 F1200.0
S1
G00 X29.52 Y261.25 F3000.0
S90
G01 Y252.25 F1200.0
S1
G00 X29.32 Y252.25 F3000.0
S90
G01 Y261.25 F1200.0
S1
G00 X29.12 Y261.25 F3000.0
S90
G01 Y252.25 F1200.0
S1
G00 X28.92 Y252.25 F3000.0
S90
G01 Y261.25 F1200.0
S1
G00 X28.72 Y261.25 F3000.0
S90
G01 Y252.25 F1200.0
S1
G00 X28.52 Y252.25 F3000.0
S90
G01 Y261.25 F1200.0
S1
G00 X28.32 Y261.25 F3000.0
S90
G01 Y252.25 F1200.0
S1
G00 X28.12 Y252.25 F3000.0
S90
G01 Y261.25 F1200.0
S1
G00 X27.92 Y261.25 F3000.0
S90
G01 Y252.25 F1200.0
S1
G00 X27.72 Y252.25 F3000.0
S90
G01 Y261.25 F1200.0
S1
G00 X27.52 Y261.25 F3000.0
S90
G01 Y252.25 F1200.0
S1
G00 X27.32 Y252.25 F3000.0
S90
G01 Y261.25 F1200.0
S1
G00 X27.12 Y261.25 F3000.0
S90
G01 Y252.25 F1200.0
S1
G00 X26.92 Y252.25 F3000.0
S90
G01 Y261.25 F1200.0
S1
G00 X26.72 Y261.25 F3000.0
S90
G01 Y252.25 F1200.0
S1
G00 X26.52 Y252.25 F3000.0
S90
G01 Y261.25 F1200.0
S1
G00 X26.32 Y261.25 F3000.0
S90
G01 Y252.25 F1200.0
S1
G00 X26.12 Y252.25 F3000.0
S90
G01 Y261.25 F1200.0
S1
G00 X25.92 Y261.25 F3000.0
S90
G01 Y252.25 F1200.0
S1
G00 X25.72 Y252.25 F3000.0
S90
G01 Y261.25 F1200.0
S1
G00 X25.52 Y261.25 F3000.0
S90
G01 Y252.25 F1200.0
S1
G00 X25.32 Y252.25 F3000.0
S90
G01 Y261.25 F1200.0
S1
G00 X25.12 Y261.25 F3000.0
S90
G01 Y252.25 F1200.0
S1
G00 X24.92 Y252.25 F3000.0
S90
G01 Y261.25 F1200.0
S1
G00 X24.72 Y261.25 F3000.0
S90
G01 Y252.25 F1200.0
S1
G00 X24.52 Y252.25 F3000.0
S90
G01 Y261.25 F1200.0
S1
G00 X24.32 Y261.25 F3000.0
S90
G01 Y252.25 F1200.0
S1
G00 X24.12 Y252.25 F3000.0
S90
G01 Y261.25 F1200.0
S1
G00 X23.92 Y261.25 F3000.0
S90
G01 Y252.25 F1200.0
S1
G00 X23.72 Y252.25 F3000.0
S90
G01 Y261.25 F1200.0
S1
G00 X23.52 Y261.25 F3000.0
S90
G01 Y252.25 F1200.0
S1
G00 X23.32 Y252.25 F3000.0
S90
G01 Y261.25 F1200.0
S1
G00 X23.12 Y261.25 F3000.0
S90
G01 Y252.25 F1200.0
S1
G00 X22.92 Y252.25 F3000.0
S90
G01 Y261.25 F1200.0
S1
G00 X22.72 Y261.25 F3000.0
S90
G01 Y252.25 F1200.0
S1
G00 X22.52 Y252.25 F3000.0
S90
G01 Y261.25 F1200.0
S1
G00 X22.32 Y261.25 F3000.0
S90
G01 Y252.25 F1200.0
S1
G00 X22.12 Y252.25 F3000.0
S90
G01 Y261.25 F1200.0
S1
G00 X21.92 Y261.25 F3000.0
S90
G01 Y252.25 F1200.0
S1
G00 X21.72 Y252.25 F3000.0
S90
G01 Y261.25 F1200.0
S1
G00 X21.52 Y261.25 F3000.0
S90
G01 Y252.25 F1200.0
S1
G00 X21.32 Y252.25 F3000.0
S90
G01 Y261.25 F1200.0
S1
G00 X21.12 Y261.25 F3000.0
S90
G01 Y252.25 F1200.0
S1
G00 X20.92 Y252.25 F3000.0
S90
G01 Y261.25 F1200.0
S1
G00 X20.72 Y261.25 F3000.0
S90
G01 Y252.25 F1200.0
S1
G00 X20.52 Y252.25 F3000.0
S90
G01 Y261.25 F1200.0
S1
G00 X20.32 Y261.25 F3000.0
S90
G01 Y252.25 F1200.0
S1
G00 X20.12 Y252.25 F3000.0
S90
G01 Y261.25 F1200.0
S1
G00 X19.92 Y261.25 F3000.0
S90
G01 Y252.25 F1200.0
S1
G00 X19.72 Y252.25 F3000.0
S90
G01 Y261.25 F1200.0
S1
G00 X19.52 Y261.25 F3000.0
S90
G01 Y252.25 F1200.0
S1
G00 X19.32 Y252.25 F3000.0
S90
G01 Y261.25 F1200.0
S1
G00 X19.12 Y261.25 F3000.0
S90
G01 Y252.25 F1200.0
S1
G00 X18.92 Y252.25 F3000.0
S90
G01 Y261.25 F1200.0
S1
G00 X18.72 Y261.25 F3000.0
S90
G01 Y252.25 F1200.0
S1
G00 X18.52 Y252.25 F3000.0
S90
G01 Y261.25 F1200.0
S1
G00 X18.32 Y261.25 F3000.0
S90
G01 Y252.25 F1200.0
S1
G00 X18.12 Y252.25 F3000.0
S90
G01 Y261.25 F1200.0
S1
G00 X17.92 Y261.25 F3000.0
S90
G01 Y252.25 F1200.0
S1
G00 X17.72 Y252.25 F3000.0
S90
G01 Y261.25 F1200.0
S1
G00 X17.52 Y261.25 F3000.0
S90
G01 Y252.25 F1200.0
S1
G00 X17.32 Y252.25 F3000.0
S90
G01 Y261.25 F1200.0
S1
G00 X17.12 Y261.25 F3000.0
S90
G01 Y252.25 F1200.0
S1
G00 X16.92 Y252.25 F3000.0
S90
G01 Y261.25 F1200.0
S1
G00 X16.72 Y261.25 F3000.0
S90
G01 Y252.25 F1200.0
S1
G00 X16.52 Y252.25 F3000.0
S90
G01 Y261.25 F1200.0
S1
G00 X16.32 Y261.25 F3000.0
S90
G01 Y252.25 F1200.0
S1
G00 X16.12 Y252.25 F3000.0
S90
G01 Y261.25 F1200.0
S1
G00 X15.92 Y261.25 F3000.0
S90
G01 Y252.25 F1200.0
S1
G00 X15.72 Y252.25 F3000.0
S90
G01 Y261.25 F1200.0
S1
G00 X15.52 Y261.25 F3000.0
S90
G01 Y252.25 F1200.0
S1
G00 X15.32 Y252.25 F3000.0
S90
G01 Y261.25 F1200.0
S1
G00 X15.12 Y261.25 F3000.0
S90
G01 Y252.25 F1200.0
S1
G00 X14.92 Y252.25 F3000.0
S90
G01 Y261.25 F1200.0
S1
G00 X14.72 Y261.25 F3000.0
S90
G01 Y252.25 F1200.0
S1
G00 X14.52 Y252.25 F3000.0
S90
G01 Y261.25 F1200.0
S1
G00 X14.32 Y261.25 F3000.0
S90
G01 Y252.25 F1200.0
S1
G00 X14.12 Y252.25 F3000.0
S90
G01 Y261.25 F1200.0
S1
G00 X13.92 Y261.25 F3000.0
S90
G01 Y252.25 F1200.0
S1
G00 X13.72 Y252.25 F3000.0
S90
G01 Y261.25 F1200.0
S1
G00 X13.52 Y261.25 F3000.0
S90
G01 Y252.25 F1200.0
S1
G00 X13.32 Y252.25 F3000.0
S90
G01 Y261.25 F1200.0
S1
G00 X13.12 Y261.25 F3000.0
S90
G01 Y252.25 F1200.0
S1
G00 X12.92 Y252.25 F3000.0
S90
G01 Y261.25 F1200.0
S1
G00 X12.72 Y261.25 F3000.0
S90
G01 Y252.25 F1200.0
S1
G00 X12.52 Y252.25 F3000.0
S90
G01 Y261.25 F1200.0
S1
G00 X12.32 Y261.25 F3000.0
S90
G01 Y252.25 F1200.0
S1
G00 X12.12 Y252.25 F3000.0
S90
G01 Y261.25 F1200.0
S1
G00 X11.92 Y261.25 F3000.0
S90
G01 Y252.25 F1200.0
S1
G00 X11.72 Y252.25 F3000.0
S90
G01 Y261.25 F1200.0
S1
G00 X11.52 Y261.25 F3000.0
S90
G01 Y252.25 F1200.0
S1
G00 X11.32 Y252.25 F3000.0
S90
G01 Y261.25 F1200.0
S1
G00 X11.12 Y261.25 F3000.0
S90
G01 Y252.25 F1200.0
S1
G00 X10.92 Y252.25 F3000.0
S90
G01 Y261.25 F1200.0
S1
G00 X10.72 Y261.25 F3000.0
S90
G01 Y252.25 F1200.0
S1
G00 X10.52 Y252.25 F3000.0
S90
G01 Y261.25 F1200.0
S1
G00 X10.32 Y261.25 F3000.0
S90
G01 Y252.25 F1200.0
S1
G00 X10.12 Y252.25 F3000.0
S90
G01 Y261.25 F1200.0
S1
G00 X9.92 Y261.25 F3000.0
S90
G01 Y252.25 F1200.0
S1
G00 X9.72 Y252.25 F3000.0
S90
G01 Y261.25 F1200.0
S1
G00 X9.52 Y261.25 F3000.0
S90
G01 Y252.25 F1200.0
S1
G00 X9.32 Y252.25 F3000.0
S90
G01 Y261.25 F1200.0
S1
G00 X9.12 Y261.25 F3000.0
S90
G01 Y252.25 F1200.0
S1
G00 X8.92 Y252.25 F3000.0
S90
G01 Y261.25 F1200.0
S1
G00 X8.72 Y261.25 F3000.0
S90
G01 Y252.25 F1200.0
S1
G00 X8.52 Y261.25 F3000.0
S90
G01 Y198.25 F1200.0
S1
G00 X8.72 Y198.25 F3000.0
S90
G01 Y207.25 F1200.0
S1
G00 X8.92 Y207.25 F3000.0
S90
G01 Y198.25 F1200.0
S1
G00 X9.12 Y198.25 F3000.0
S90
G01 Y207.25 F1200.0
S1
G00 X9.32 Y207.25 F3000.0
S90
G01 Y198.25 F1200.0
S1
G00 X9.52 Y198.25 F3000.0
S90
G01 Y207.25 F1200.0
S1
G00 X9.72 Y207.25 F3000.0
S90
G01 Y198.25 F1200.0
S1
G00 X9.92 Y198.25 F3000.0
S90
G01 Y207.25 F1200.0
S1
G00 X10.12 Y207.25 F3000.0
S90
G01 Y198.25 F1200.0
S1
G00 X10.32 Y198.25 F3000.0
S90
G01 Y207.25 F1200.0
S1
G00 X10.52 Y207.25 F3000.0
S90
G01 Y198.25 F1200.0
S1
G00 X10.72 Y198.25 F3000.0
S90
G01 Y207.25 F1200.0
S1
G00 X10.92 Y207.25 F3000.0
S90
G01 Y198.25 F1200.0
S1
G00 X11.12 Y198.25 F3000.0
S90
G01 Y207.25 F1200.0
S1
G00 X11.32 Y207.25 F3000.0
S90
G01 Y198.25 F1200.0
S1
G00 X11.52 Y198.25 F3000.0
S90
G01 Y207.25 F1200.0
S1
G00 X11.72 Y207.25 F3000.0
S90
G01 Y198.25 F1200.0
S1
G00 X11.92 Y198.25 F3000.0
S90
G01 Y207.25 F1200.0
S1
G00 X12.12 Y207.25 F3000.0
S90
G01 Y198.25 F1200.0
S1
G00 X12.32 Y198.25 F3000.0
S90
G01 Y207.25 F1200.0
S1
G00 X12.52 Y207.25 F3000.0
S90
G01 Y198.25 F1200.0
S1
G00 X12.72 Y198.25 F3000.0
S90
G01 Y207.25 F1200.0
S1
G00 X12.92 Y207.25 F3000.0
S90
G01 Y198.25 F1200.0
S1
G00 X13.12 Y198.25 F3000.0
S90
G01 Y207.25 F1200.0
S1
G00 X13.32 Y207.25 F3000.0
S90
G01 Y198.25 F1200.0
S1
G00 X13.52 Y198.25 F3000.0
S90
G01 Y207.25 F1200.0
S1
G00 X13.72 Y207.25 F3000.0
S90
G01 Y198.25 F1200.0
S1
G00 X13.92 Y198.25 F3000.0
S90
G01 Y207.25 F1200.0
S1
G00 X14.12 Y207.25 F3000.0
S90
G01 Y198.25 F1200.0
S1
G00 X14.32 Y198.25 F3000.0
S90
G01 Y207.25 F1200.0
S1
G00 X14.52 Y207.25 F3000.0
S90
G01 Y198.25 F1200.0
S1
G00 X14.72 Y198.25 F3000.0
S90
G01 Y207.25 F1200.0
S1
G00 X14.92 Y207.25 F3000.0
S90
G01 Y198.25 F1200.0
S1
G00 X15.12 Y198.25 F3000.0
S90
G01 Y207.25 F1200.0
S1
G00 X15.32 Y207.25 F3000.0
S90
G01 Y198.25 F1200.0
S1
G00 X15.52 Y198.25 F3000.0
S90
G01 Y207.25 F1200.0
S1
G00 X15.72 Y207.25 F3000.0
S90
G01 Y198.25 F1200.0
S1
G00 X15.92 Y198.25 F3000.0
S90
G01 Y207.25 F1200.0
S1
G00 X16.12 Y207.25 F3000.0
S90
G01 Y198.25 F1200.0
S1
G00 X16.32 Y198.25 F3000.0
S90
G01 Y207.25 F1200.0
S1
G00 X16.52 Y207.25 F3000.0
S90
G01 Y198.25 F1200.0
S1
G00 X16.72 Y198.25 F3000.0
S90
G01 Y207.25 F1200.0
S1
G00 X16.92 Y207.25 F3000.0
S90
G01 Y198.25 F1200.0
S1
G00 X17.12 Y198.25 F3000.0
S90
G01 Y207.25 F1200.0
S1
G00 X17.32 Y207.25 F3000.0
S90
G01 Y198.25 F1200.0
S1
G00 X17.52 Y198.25 F3000.0
S90
G01 Y207.25 F1200.0
S1
G00 X17.72 Y207.25 F3000.0
S90
G01 Y198.25 F1200.0
S1
G00 X17.92 Y198.25 F3000.0
S90
G01 Y207.25 F1200.0
S1
G00 X18.12 Y207.25 F3000.0
S90
G01 Y198.25 F1200.0
S1
G00 X18.32 Y198.25 F3000.0
S90
G01 Y207.25 F1200.0
S1
G00 X18.52 Y207.25 F3000.0
S90
G01 Y198.25 F1200.0
S1
G00 X18.72 Y198.25 F3000.0
S90
G01 Y207.25 F1200.0
S1
G00 X18.92 Y207.25 F3000.0
S90
G01 Y198.25 F1200.0
S1
G00 X19.12 Y198.25 F3000.0
S90
G01 Y207.25 F1200.0
S1
G00 X19.32 Y207.25 F3000.0
S90
G01 Y198.25 F1200.0
S1
G00 X19.52 Y198.25 F3000.0
S90
G01 Y207.25 F1200.0
S1
G00 X19.72 Y207.25 F3000.0
S90
G01 Y198.25 F1200.0
S1
G00 X19.92 Y198.25 F3000.0
S90
G01 Y207.25 F1200.0
S1
G00 X20.12 Y207.25 F3000.0
S90
G01 Y198.25 F1200.0
S1
G00 X20.32 Y198.25 F3000.0
S90
G01 Y207.25 F1200.0
S1
G00 X20.52 Y207.25 F3000.0
S90
G01 Y198.25 F1200.0
S1
G00 X20.72 Y198.25 F3000.0
S90
G01 Y207.25 F1200.0
S1
G00 X20.92 Y207.25 F3000.0
S90
G01 Y198.25 F1200.0
S1
G00 X21.12 Y198.25 F3000.0
S90
G01 Y207.25 F1200.0
S1
G00 X21.32 Y207.25 F3000.0
S90
G01 Y198.25 F1200.0
S1
G00 X21.52 Y198.25 F3000.0
S90
G01 Y207.25 F1200.0
S1
G00 X21.72 Y207.25 F3000.0
S90
G01 Y198.25 F1200.0
S1
G00 X21.92 Y198.25 F3000.0
S90
G01 Y207.25 F1200.0
S1
G00 X22.12 Y207.25 F3000.0
S90
G01 Y198.25 F1200.0
S1
G00 X22.32 Y198.25 F3000.0
S90
G01 Y207.25 F1200.0
S1
G00 X22.52 Y207.25 F3000.0
S90
G01 Y198.25 F1200.0
S1
G00 X22.72 Y198.25 F3000.0
S90
G01 Y207.25 F1200.0
S1
G00 X22.92 Y207.25 F3000.0
S90
G01 Y198.25 F1200.0
S1
G00 X23.12 Y198.25 F3000.0
S90
G01 Y207.25 F1200.0
S1
G00 X23.32 Y207.25 F3000.0
S90
G01 Y198.25 F1200.0
S1
G00 X23.52 Y198.25 F3000.0
S90
G01 Y207.25 F1200.0
S1
G00 X23.72 Y207.25 F3000.0
S90
G01 Y198.25 F1200.0
S1
G00 X23.92 Y198.25 F3000.0
S90
G01 Y207.25 F1200.0
S1
G00 X24.12 Y207.25 F3000.0
S90
G01 Y198.25 F1200.0
S1
G00 X24.32 Y198.25 F3000.0
S90
G01 Y207.25 F1200.0
S1
G00 X24.52 Y207.25 F3000.0
S90
G01 Y198.25 F1200.0
S1
G00 X24.72 Y198.25 F3000.0
S90
G01 Y207.25 F1200.0
S1
G00 X24.92 Y207.25 F3000.0
S90
G01 Y198.25 F1200.0
S1
G00 X25.12 Y198.25 F3000.0
S90
G01 Y207.25 F1200.0
S1
G00 X25.32 Y207.25 F3000.0
S90
G01 Y198.25 F1200.0
S1
G00 X25.52 Y198.25 F3000.0
S90
G01 Y207.25 F1200.0
S1
G00 X25.72 Y207.25 F3000.0
S90
G01 Y198.25 F1200.0
S1
G00 X25.92 Y198.25 F3000.0
S90
G01 Y207.25 F1200.0
S1
G00 X26.12 Y207.25 F3000.0
S90
G01 Y198.25 F1200.0
S1
G00 X26.32 Y198.25 F3000.0
S90
G01 Y207.25 F1200.0
S1
G00 X26.32 Y216.25 F3000.0
S90
G01 Y243.25 F1200.0
S1
G00 X26.12 Y243.25 F3000.0
S90
G01 Y216.25 F1200.0
S1
G00 X25.92 Y216.25 F3000.0
S90
G01 Y243.25 F1200.0
S1
G00 X25.72 Y243.25 F3000.0
S90
G01 Y216.25 F1200.0
S1
G00 X25.52 Y216.25 F3000.0
S90
G01 Y243.25 F1200.0
S1
G00 X25.32 Y243.25 F3000.0
S90
G01 Y216.25 F1200.0
S1
G00 X25.12 Y216.25 F3000.0
S90
G01 Y243.25 F1200.0
S1
G00 X24.92 Y243.25 F3000.0
S90
G01 Y216.25 F1200.0
S1
G00 X24.72 Y216.25 F3000.0
S90
G01 Y243.25 F1200.0
S1
G00 X24.52 Y243.25 F3000.0
S90
G01 Y216.25 F1200.0
S1
G00 X24.32 Y216.25 F3000.0
S90
G01 Y243.25 F1200.0
S1
G00 X24.12 Y243.25 F3000.0
S90
G01 Y216.25 F1200.0
S1
G00 X23.92 Y216.25 F3000.0
S90
G01 Y243.25 F1200.0
S1
G00 X23.72 Y243.25 F3000.0
S90
G01 Y216.25 F1200.0
S1
G00 X23.52 Y216.25 F3000.0
S90
G01 Y243.25 F1200.0
S1
G00 X23.32 Y243.25 F3000.0
S90
G01 Y216.25 F1200.0
S1
G00 X23.12 Y216.25 F3000.0
S90
G01 Y243.25 F1200.0
S1
G00 X22.92 Y243.25 F3000.0
S90
G01 Y216.25 F1200.0
S1
G00 X22.72 Y216.25 F3000.0
S90
G01 Y243.25 F1200.0
S1
G00 X22.52 Y243.25 F3000.0
S90
G01 Y216.25 F1200.0
S1
G00 X22.32 Y216.25 F3000.0
S90
G01 Y243.25 F1200.0
S1
G00 X22.12 Y243.25 F3000.0
S90
G01 Y216.25 F1200.0
S1
G00 X21.92 Y216.25 F3000.0
S90
G01 Y243.25 F1200.0
S1
G00 X21.72 Y243.25 F3000.0
S90
G01 Y216.25 F1200.0
S1
G00 X21.52 Y216.25 F3000.0
S90
G01 Y243.25 F1200.0
S1
G00 X21.32 Y243.25 F3000.0
S90
G01 Y216.25 F1200.0
S1
G00 X21.12 Y216.25 F3000.0
S90
G01 Y243.25 F1200.0
S1
G00 X20.92 Y243.25 F3000.0
S90
G01 Y216.25 F1200.0
S1
G00 X20.72 Y216.25 F3000.0
S90
G01 Y243.25 F1200.0
S1
G00 X20.52 Y243.25 F3000.0
S90
G01 Y216.25 F1200.0
S1
G00 X20.32 Y216.25 F3000.0
S90
G01 Y243.25 F1200.0
S1
G00 X20.12 Y243.25 F3000.0
S90
G01 Y216.25 F1200.0
S1
G00 X19.92 Y216.25 F3000.0
S90
G01 Y243.25 F1200.0
S1
G00 X19.72 Y243.25 F3000.0
S90
G01 Y216.25 F1200.0
S1
G00 X19.52 Y216.25 F3000.0
S90
G01 Y243.25 F1200.0
S1
G00 X19.32 Y243.25 F3000.0
S90
G01 Y216.25 F1200.0
S1
G00 X19.12 Y216.25 F3000.0
S90
G01 Y243.25 F1200.0
S1
G00 X18.92 Y243.25 F3000.0
S90
G01 Y216.25 F1200.0
S1
G00 X18.72 Y216.25 F3000.0
S90
G01 Y243.25 F1200.0
S1
G00 X18.52 Y243.25 F3000.0
S90
G01 Y216.25 F1200.0
S1
G00 X18.32 Y216.25 F3000.0
S90
G01 Y243.25 F1200.0
S1
G00 X18.12 Y243.25 F3000.0
S90
G01 Y216.25 F1200.0
S1
G00 X17.92 Y216.25 F3000.0
S90
G01 Y243.25 F1200.0
S1
G00 X17.72 Y243.25 F3000.0
S90
G01 Y216.25 F1200.0
S1
G00 X26.52 Y216.25 F3000.0
S90
G01 Y243.25 F1200.0
S1
G00 X26.72 Y243.25 F3000.0
S90
G01 Y216.25 F1200.0
S1
G00 X26.92 Y216.25 F3000.0
S90
G01 Y243.25 F1200.0
S1
G00 X27.12 Y243.25 F3000.0
S90
G01 Y216.25 F1200.0
S1
G00 X27.32 Y216.25 F3000.0
S90
G01 Y243.25 F1200.0
S1
G00 X27.52 Y243.25 F3000.0
S90
G01 Y216.25 F1200.0
S1
G00 X27.72 Y216.25 F3000.0
S90
G01 Y243.25 F1200.0
S1
G00 X27.92 Y243.25 F3000.0
S90
G01 Y216.25 F1200.0
S1
G00 X28.12 Y216.25 F3000.0
S90
G01 Y243.25 F1200.0
S1
G00 X28.32 Y243.25 F3000.0
S90
G01 Y216.25 F1200.0
S1
G00 X28.52 Y216.25 F3000.0
S90
G01 Y243.25 F1200.0
S1
G00 X28.72 Y243.25 F3000.0
S90
G01 Y216.25 F1200.0
S1
G00 X28.92 Y216.25 F3000.0
S90
G01 Y243.25 F1200.0
S1
G00 X29.12 Y243.25 F3000.0
S90
G01 Y216.25 F1200.0
S1
G00 X29.32 Y216.25 F3000.0
S90
G01 Y243.25 F1200.0
S1
G00 X29.52 Y243.25 F3000.0
S90
G01 Y216.25 F1200.0
S1
G00 X29.72 Y216.25 F3000.0
S90
G01 Y243.25 F1200.0
S1
G00 X29.92 Y243.25 F3000.0
S90
G01 Y216.25 F1200.0
S1
G00 X30.12 Y216.25 F3000.0
S90
G01 Y243.25 F1200.0
S1
G00 X30.32 Y243.25 F3000.0
S90
G01 Y216.25 F1200.0
S1
G00 X30.52 Y216.25 F3000.0
S90
G01 Y243.25 F1200.0
S1
G00 X30.72 Y243.25 F3000.0
S90
G01 Y216.25 F1200.0
S1
G00 X30.92 Y216.25 F3000.0
S90
G01 Y243.25 F1200.0
S1
G00 X31.12 Y243.25 F3000.0
S90
G01 Y216.25 F1200.0
S1
G00 X31.32 Y216.25 F3000.0
S90
G01 Y243.25 F1200.0
S1
G00 X31.52 Y243.25 F3000.0
S90
G01 Y216.25 F1200.0
S1
G00 X31.72 Y216.25 F3000.0
S90
G01 Y243.25 F1200.0
S1
G00 X31.92 Y243.25 F3000.0
S90
G01 Y216.25 F1200.0
S1
G00 X32.12 Y216.25 F3000.0
S90
G01 Y243.25 F1200.0
S1
G00 X32.32 Y243.25 F3000.0
S90
G01 Y216.25 F1200.0
S1
G00 X32.52 Y216.25 F3000.0
S90
G01 Y243.25 F1200.0
S1
G00 X32.72 Y243.25 F3000.0
S90
G01 Y216.25 F1200.0
S1
G00 X32.92 Y216.25 F3000.0
S90
G01 Y243.25 F1200.0
S1
G00 X33.12 Y243.25 F3000.0
S90
G01 Y216.25 F1200.0
S1
G00 X33.32 Y216.25 F3000.0
S90
G01 Y243.25 F1200.0
S1
G00 X33.52 Y243.25 F3000.0
S90
G01 Y216.25 F1200.0
S1
G00 X33.72 Y216.25 F3000.0
S90
G01 Y243.25 F1200.0
S1
G00 X33.92 Y243.25 F3000.0
S90
G01 Y216.25 F1200.0
S1
G00 X34.12 Y216.25 F3000.0
S90
G01 Y243.25 F1200.0
S1
G00 X34.32 Y243.25 F3000.0
S90
G01 Y216.25 F1200.0
S1
G00 X34.52 Y216.25 F3000.0
S90
G01 Y243.25 F1200.0
S1
G00 X34.72 Y243.25 F3000.0
S90
G01 Y216.25 F1200.0
S1
G00 X34.92 Y216.25 F3000.0
S90
G01 Y243.25 F1200.0
S1
G00 X35.12 Y243.25 F3000.0
S90
G01 Y216.25 F1200.0
S1
G00 X35.32 Y216.25 F3000.0
S90
G01 Y243.25 F1200.0
S1
G00 X35.52 Y243.25 F3000.0
S90
G01 Y216.25 F1200.0
S1
G00 X35.72 Y216.25 F3000.0
S90
G01 Y243.25 F1200.0
S1
G00 X35.92 Y243.25 F3000.0
S90
G01 Y216.25 F1200.0
S1
G00 X36.12 Y216.25 F3000.0
S90
G01 Y243.25 F1200.0
S1
G00 X36.32 Y243.25 F3000.0
S90
G01 Y216.25 F1200.0
S1
G00 X36.52 Y216.25 F3000.0
S90
G01 Y243.25 F1200.0
S1
G00 X36.72 Y243.25 F3000.0
S90
G01 Y216.25 F1200.0
S1
G00 X36.92 Y216.25 F3000.0
S90
G01 Y243.25 F1200.0
S1
G00 X37.12 Y243.25 F3000.0
S90
G01 Y216.25 F1200.0
S1
G00 X37.32 Y216.25 F3000.0
S90
G01 Y243.25 F1200.0
S1
G00 X37.52 Y243.25 F3000.0
S90
G01 Y216.25 F1200.0
S1
G00 X37.72 Y216.25 F3000.0
S90
G01 Y243.25 F1200.0
S1
G00 X37.92 Y243.25 F3000.0
S90
G01 Y216.25 F1200.0
S1
G00 X38.12 Y216.25 F3000.0
S90
G01 Y243.25 F1200.0
S1
G00 X38.32 Y243.25 F3000.0
S90
G01 Y216.25 F1200.0
S1
G00 X38.52 Y216.25 F3000.0
S90
G01 Y243.25 F1200.0
S1
G00 X38.72 Y243.25 F3000.0
S90
G01 Y216.25 F1200.0
S1
G00 X38.92 Y216.25 F3000.0
S90
G01 Y243.25 F1200.0
S1
G00 X39.12 Y243.25 F3000.0
S90
G01 Y216.25 F1200.0
S1
G00 X39.32 Y216.25 F3000.0
S90
G01 Y243.25 F1200.0
S1
G00 X39.52 Y243.25 F3000.0
S90
G01 Y216.25 F1200.0
S1
G00 X39.72 Y216.25 F3000.0
S90
G01 Y243.25 F1200.0
S1
G00 X39.92 Y243.25 F3000.0
S90
G01 Y216.25 F1200.0
S1
G00 X40.12 Y216.25 F3000.0
S90
G01 Y243.25 F1200.0
S1
G00 X40.32 Y243.25 F3000.0
S90
G01 Y216.25 F1200.0
S1
G00 X40.52 Y216.25 F3000.0
S90
G01 Y243.25 F1200.0
S1
G00 X40.72 Y243.25 F3000.0
S90
G01 Y216.25 F1200.0
S1
G00 X40.92 Y216.25 F3000.0
S90
G01 Y243.25 F1200.0
S1
G00 X41.12 Y243.25 F3000.0
S90
G01 Y216.25 F1200.0
S1
G00 X41.32 Y216.25 F3000.0
S90
G01 Y243.25 F1200.0
S1
G00 X41.52 Y243.25 F3000.0
S90
G01 Y216.25 F1200.0
S1
G00 X41.72 Y216.25 F3000.0
S90
G01 Y243.25 F1200.0
S1
G00 X41.92 Y243.25 F3000.0
S90
G01 Y216.25 F1200.0
S1
G00 X42.12 Y216.25 F3000.0
S90
G01 Y243.25 F1200.0
S1
G00 X42.32 Y243.25 F3000.0
S90
G01 Y216.25 F1200.0
S1
G00 X42.52 Y216.25 F3000.0
S90
G01 Y243.25 F1200.0
S1
G00 X42.72 Y243.25 F3000.0
S90
G01 Y216.25 F1200.0
S1
G00 X42.92 Y216.25 F3000.0
S90
G01 Y243.25 F1200.0
S1
G00 X43.12 Y243.25 F3000.0
S90
G01 Y216.25 F1200.0
S1
G00 X43.32 Y216.25 F3000.0
S90
G01 Y243.25 F1200.0
S1
G00 X43.52 Y243.25 F3000.0
S90
G01 Y216.25 F1200.0
S1
G00 X43.72 Y216.25 F3000.0
S90
G01 Y243.25 F1200.0
S1
G00 X43.92 Y243.25 F3000.0
S90
G01 Y216.25 F1200.0
S1
G00 X44.12 Y216.25 F3000.0
S90
G01 Y243.25 F1200.0
S1
G00 X44.32 Y243.25 F3000.0
S90
G01 Y216.25 F1200.0
S1
G00 X44.52 Y216.25 F3000.0
S90
G01 Y243.25 F1200.0
S1
G00 X53.92 Y261.25 F3000.0
S90
G01 Y198.25 F1200.0
S1
G00 X54.12 Y198.25 F3000.0
S90
G01 Y261.25 F1200.0
S1
G00 X54.32 Y261.25 F3000.0
S90
G01 Y198.25 F1200.0
S1
G00 X54.52 Y198.25 F3000.0
S90
G01 Y261.25 F1200.0
S1
G00 X54.72 Y261.25 F3000.0
S90
G01 Y198.25 F1200.0
S1
G00 X54.92 Y198.25 F3000.0
S90
G01 Y261.25 F1200.0
S1
G00 X55.12 Y261.25 F3000.0
S90
G01 Y198.25 F1200.0
S1
G00 X55.32 Y198.25 F3000.0
S90
G01 Y261.25 F1200.0
S1
G00 X55.52 Y261.25 F3000.0
S90
G01 Y198.25 F1200.0
S1
G00 X55.72 Y198.25 F3000.0
S90
G01 Y261.25 F1200.0
S1
G00 X55.92 Y261.25 F3000.0
S90
G01 Y198.25 F1200.0
S1
G00 X56.12 Y198.25 F3000.0
S90
G01 Y261.25 F1200.0
S1
G00 X56.32 Y261.25 F3000.0
S90
G01 Y198.25 F1200.0
S1
G00 X56.52 Y198.25 F3000.0
S90
G01 Y261.25 F1200.0
S1
G00 X56.72 Y261.25 F3000.0
S90
G01 Y198.25 F1200.0
S1
G00 X56.92 Y198.25 F3000.0
S90
G01 Y261.25 F1200.0
S1
G00 X57.12 Y261.25 F3000.0
S90
G01 Y198.25 F1200.0
S1
G00 X57.32 Y198.25 F3000.0
S90
G01 Y261.25 F1200.0
S1
G00 X57.52 Y261.25 F3000.0
S90
G01 Y198.25 F1200.0
S1
G00 X57.72 Y198.25 F3000.0
S90
G01 Y261.25 F1200.0
S1
G00 X57.92 Y261.25 F3000.0
S90
G01 Y198.25 F1200.0
S1
G00 X58.12 Y198.25 F3000.0
S90
G01 Y261.25 F1200.0
S1
G00 X58.32 Y261.25 F3000.0
S90
G01 Y198.25 F1200.0
S1
G00 X58.52 Y198.25 F3000.0
S90
G01 Y261.25 F1200.0
S1
G00 X58.72 Y261.25 F3000.0
S90
G01 Y198.25 F1200.0
S1
G00 X58.92 Y198.25 F3000.0
S90
G01 Y261.25 F1200.0
S1
G00 X59.12 Y261.25 F3000.0
S90
G01 Y198.25 F1200.0
S1
G00 X59.32 Y198.25 F3000.0
S90
G01 Y261.25 F1200.0
S1
G00 X59.52 Y261.25 F3000.0
S90
G01 Y198.25 F1200.0
S1
G00 X59.72 Y198.25 F3000.0
S90
G01 Y261.25 F1200.0
S1
G00 X59.92 Y261.25 F3000.0
S90
G01 Y198.25 F1200.0
S1
G00 X60.12 Y198.25 F3000.0
S90
G01 Y261.25 F1200.0
S1
G00 X60.32 Y261.25 F3000.0
S90
G01 Y198.25 F1200.0
S1
G00 X60.52 Y198.25 F3000.0
S90
G01 Y261.25 F1200.0
S1
G00 X60.72 Y261.25 F3000.0
S90
G01 Y198.25 F1200.0
S1
G00 X60.92 Y198.25 F3000.0
S90
G01 Y261.25 F1200.0
S1
G00 X61.12 Y261.25 F3000.0
S90
G01 Y198.25 F1200.0
S1
G00 X61.32 Y198.25 F3000.0
S90
G01 Y261.25 F1200.0
S1
G00 X61.52 Y261.25 F3000.0
S90
G01 Y198.25 F1200.0
S1
G00 X61.72 Y198.25 F3000.0
S90
G01 Y261.25 F1200.0
S1
G00 X61.92 Y261.25 F3000.0
S90
G01 Y198.25 F1200.0
S1
G00 X62.12 Y198.25 F3000.0
S90
G01 Y261.25 F1200.0
S1
G00 X62.32 Y261.25 F3000.0
S90
G01 Y198.25 F1200.0
S1
G00 X62.52 Y198.25 F3000.0
S90
G01 Y261.25 F1200.0
S1
G00 X71.72 Y261.25 F3000.0
S90
G01 Y234.25 F1200.0
S1
G00 X71.92 Y234.25 F3000.0
S90
G01 Y261.25 F1200.0
S1
G00 X72.12 Y261.25 F3000.0
S90
G01 Y234.25 F1200.0
S1
G00 X72.32 Y234.25 F3000.0
S90
G01 Y261.25 F1200.0
S1
G00 X72.52 Y261.25 F3000.0
S90
G01 Y234.25 F1200.0
S1
G00 X72.72 Y234.25 F3000.0
S90
G01 Y261.25 F1200.0
S1
G00 X72.92 Y261.25 F3000.0
S90
G01 Y234.25 F1200.0
S1
G00 X73.12 Y234.25 F3000.0
S90
G01 Y261.25 F1200.0
S1
G00 X73.32 Y261.25 F3000.0
S90
G01 Y234.25 F1200.0
S1
G00 X73.52 Y234.25 F3000.0
S90
G01 Y261.25 F1200.0
S1
G00 X73.72 Y261.25 F3000.0
S90
G01 Y234.25 F1200.0
S1
G00 X73.92 Y234.25 F3000.0
S90
G01 Y261.25 F1200.0
S1
G00 X74.12 Y261.25 F3000.0
S90
G01 Y234.25 F1200.0
S1
G00 X74.32 Y234.25 F3000.0
S90
G01 Y261.25 F1200.0
S1
G00 X74.52 Y261.25 F3000.0
S90
G01 Y234.25 F1200.0
S1
G00 X74.72 Y234.25 F3000.0
S90
G01 Y261.25 F1200.0
S1
G00 X74.92 Y261.25 F3000.0
S90
G01 Y234.25 F1200.0
S1
G00 X75.12 Y234.25 F3000.0
S90
G01 Y261.25 F1200.0
S1
G00 X75.32 Y261.25 F3000.0
S90
G01 Y234.25 F1200.0
S1
G00 X75.52 Y234.25 F3000.0
S90
G01 Y261.25 F1200.0
S1
G00 X75.72 Y261.25 F3000.0
S90
G01 Y234.25 F1200.0
S1
G00 X75.92 Y234.25 F3000.0
S90
G01 Y261.25 F1200.0
S1
G00 X76.12 Y261.25 F3000.0
S90
G01 Y234.25 F1200.0
S1
G00 X76.32 Y234.25 F3000.0
S90
G01 Y261.25 F1200.0
S1
G00 X76.52 Y261.25 F3000.0
S90
G01 Y234.25 F1200.0
S1
G00 X76.72 Y234.25 F3000.0
S90
G01 Y261.25 F1200.0
S1
G00 X76.92 Y261.25 F3000.0
S90
G01 Y234.25 F1200.0
S1
G00 X77.12 Y234.25 F3000.0
S90
G01 Y261.25 F1200.0
S1
G00 X77.32 Y261.25 F3000.0
S90
G01 Y234.25 F1200.0
S1
G00 X77.52 Y234.25 F3000.0
S90
G01 Y261.25 F1200.0
S1
G00 X77.72 Y261.25 F3000.0
S90
G01 Y234.25 F1200.0
S1
G00 X77.92 Y234.25 F3000.0
S90
G01 Y261.25 F1200.0
S1
G00 X78.12 Y261.25 F3000.0
S90
G01 Y234.25 F1200.0
S1
G00 X78.32 Y234.25 F3000.0
S90
G01 Y261.25 F1200.0
S1
G00 X78.52 Y261.25 F3000.0
S90
G01 Y234.25 F1200.0
S1
G00 X78.72 Y234.25 F3000.0
S90
G01 Y261.25 F1200.0
S1
G00 X78.92 Y261.25 F3000.0
S90
G01 Y234.25 F1200.0
S1
G00 X79.12 Y234.25 F3000.0
S90
G01 Y261.25 F1200.0
S1
G00 X79.32 Y261.25 F3000.0
S90
G01 Y234.25 F1200.0
S1
G00 X79.52 Y234.25 F3000.0
S90
G01 Y261.25 F1200.0
S1
G00 X79.72 Y261.25 F3000.0
S90
G01 Y234.25 F1200.0
S1
G00 X79.92 Y234.25 F3000.0
S90
G01 Y261.25 F1200.0
S1
G00 X80.12 Y261.25 F3000.0
S90
G01 Y234.25 F1200.0
S1
G00 X80.32 Y234.25 F3000.0
S90
G01 Y261.25 F1200.0
S1
G00 X80.52 Y261.25 F3000.0
S90
G01 Y234.25 F1200.0
S1
G00 X80.52 Y225.25 F3000.0
S90
G01 Y198.25 F1200.0
S1
G00 X80.72 Y198.25 F3000.0
S90
G01 Y189.25 F1200.0
S1
G00 X80.52 Y189.25 F3000.0
S90
G01 Y180.25 F1200.0
S1
G00 X80.72 Y180.25 F3000.0
S90
G01 Y171.25 F1200.0
S1
G00 X80.52 Y171.25 F3000.0
S90
G01 Y153.25 F1200.0
S1
G00 X80.72 Y153.25 F3000.0
S90
G01 Y162.25 F1200.0
S1
G00 X80.92 Y162.25 F3000.0
S90
G01 Y153.25 F1200.0
S1
G00 X81.12 Y153.25 F3000.0
S90
G01 Y162.25 F1200.0
S1
G00 X81.32 Y162.25 F3000.0
S90
G01 Y153.25 F1200.0
S1
G00 X81.52 Y153.25 F3000.0
S90
G01 Y162.25 F1200.0
S1
G00 X81.72 Y162.25 F3000.0
S90
G01 Y153.25 F1200.0
S1
G00 X81.92 Y153.25 F3000.0
S90
G01 Y162.25 F1200.0
S1
G00 X82.12 Y162.25 F3000.0
S90
G01 Y153.25 F1200.0
S1
G00 X82.32 Y153.25 F3000.0
S90
G01 Y162.25 F1200.0
S1
G00 X82.52 Y162.25 F3000.0
S90
G01 Y153.25 F1200.0
S1
G00 X82.72 Y153.25 F3000.0
S90
G01 Y162.25 F1200.0
S1
G00 X82.92 Y162.25 F3000.0
S90
G01 Y153.25 F1200.0
S1
G00 X83.12 Y153.25 F3000.0
S90
G01 Y162.25 F1200.0
S1
G00 X83.32 Y162.25 F3000.0
S90
G01 Y153.25 F1200.0
S1
G00 X83.52 Y153.25 F3000.0
S90
G01 Y162.25 F1200.0
S1
G00 X83.72 Y162.25 F3000.0
S90
G01 Y153.25 F1200.0
S1
G00 X83.92 Y153.25 F3000.0
S90
G01 Y162.25 F1200.0
S1
G00 X84.12 Y162.25 F3000.0
S90
G01 Y153.25 F1200.0
S1
G00 X84.32 Y153.25 F3000.0
S90
G01 Y162.25 F1200.0
S1
G00 X84.52 Y162.25 F3000.0
S90
G01 Y153.25 F1200.0
S1
G00 X84.72 Y153.25 F3000.0
S90
G01 Y162.25 F1200.0
S1
G00 X84.92 Y162.25 F3000.0
S90
G01 Y153.25 F1200.0
S1
G00 X85.12 Y153.25 F3000.0
S90
G01 Y162.25 F1200.0
S1
G00 X85.32 Y162.25 F3000.0
S90
G01 Y153.25 F1200.0
S1
G00 X85.52 Y153.25 F3000.0
S90
G01 Y162.25 F1200.0
S1
G00 X85.72 Y162.25 F3000.0
S90
G01 Y153.25 F1200.0
S1
G00 X85.92 Y153.25 F3000.0
S90
G01 Y162.25 F1200.0
S1
G00 X86.12 Y162.25 F3000.0
S90
G01 Y153.25 F1200.0
S1
G00 X86.32 Y153.25 F3000.0
S90
G01 Y162.25 F1200.0
S1
G00 X86.52 Y162.25 F3000.0
S90
G01 Y153.25 F1200.0
S1
G00 X86.72 Y153.25 F3000.0
S90
G01 Y162.25 F1200.0
S1
G00 X86.92 Y162.25 F3000.0
S90
G01 Y153.25 F1200.0
S1
G00 X87.12 Y153.25 F3000.0
S90
G01 Y162.25 F1200.0
S1
G00 X87.32 Y162.25 F3000.0
S90
G01 Y153.25 F1200.0
S1
G00 X87.52 Y153.25 F3000.0
S90
G01 Y162.25 F1200.0
S1
G00 X87.72 Y162.25 F3000.0
S90
G01 Y153.25 F1200.0
S1
G00 X87.92 Y153.25 F3000.0
S90
G01 Y162.25 F1200.0
S1
G00 X88.12 Y162.25 F3000.0
S90
G01 Y153.25 F1200.0
S1
G00 X88.32 Y153.25 F3000.0
S90
G01 Y162.25 F1200.0
S1
G00 X88.52 Y162.25 F3000.0
S90
G01 Y153.25 F1200.0
S1
G00 X88.72 Y153.25 F3000.0
S90
G01 Y162.25 F1200.0
S1
G00 X88.92 Y162.25 F3000.0
S90
G01 Y153.25 F1200.0
S1
G00 X89.12 Y153.25 F3000.0
S90
G01 Y162.25 F1200.0
S1
G00 X89.32 Y162.25 F3000.0
S90
G01 Y153.25 F1200.0
S1
G00 X89.52 Y153.25 F3000.0
S90
G01 Y162.25 F1200.0
S1
G00 X89.72 Y162.25 F3000.0
S90
G01 Y171.25 F1200.0
S1
G00 X89.52 Y171.25 F3000.0
S90
G01 Y180.25 F1200.0
S1
G00 X89.32 Y180.25 F3000.0
S90
G01 Y171.25 F1200.0
S1
G00 X89.12 Y171.25 F3000.0
S90
G01 Y180.25 F1200.0
S1
G00 X88.92 Y180.25 F3000.0
S90
G01 Y171.25 F1200.0
S1
G00 X88.72 Y171.25 F3000.0
S90
G01 Y180.25 F1200.0
S1
G00 X88.52 Y180.25 F3000.0
S90
G01 Y171.25 F1200.0
S1
G00 X88.32 Y171.25 F3000.0
S90
G01 Y180.25 F1200.0
S1
G00 X88.12 Y180.25 F3000.0
S90
G01 Y171.25 F1200.0
S1
G00 X87.92 Y171.25 F3000.0
S90
G01 Y180.25 F1200.0
S1
G00 X87.72 Y180.25 F3000.0
S90
G01 Y171.25 F1200.0
S1
G00 X87.52 Y171.25 F3000.0
S90
G01 Y180.25 F1200.0
S1
G00 X87.32 Y180.25 F3000.0
S90
G01 Y171.25 F1200.0
S1
G00 X87.12 Y171.25 F3000.0
S90
G01 Y180.25 F1200.0
S1
G00 X86.92 Y180.25 F3000.0
S90
G01 Y171.25 F1200.0
S1
G00 X86.72 Y171.25 F3000.0
S90
G01 Y180.25 F1200.0
S1
G00 X86.52 Y180.25 F3000.0
S90
G01 Y171.25 F1200.0
S1
G00 X86.32 Y171.25 F3000.0
S90
G01 Y180.25 F1200.0
S1
G00 X86.12 Y180.25 F3000.0
S90
G01 Y171.25 F1200.0
S1
G00 X85.92 Y171.25 F3000.0
S90
G01 Y180.25 F1200.0
S1
G00 X85.72 Y180.25 F3000.0
S90
G01 Y171.25 F1200.0
S1
G00 X85.52 Y171.25 F3000.0
S90
G01 Y180.25 F1200.0
S1
G00 X85.32 Y180.25 F3000.0
S90
G01 Y171.25 F1200.0
S1
G00 X85.12 Y171.25 F3000.0
S90
G01 Y180.25 F1200.0
S1
G00 X84.92 Y180.25 F3000.0
S90
G01 Y171.25 F1200.0
S1
G00 X84.72 Y171.25 F3000.0
S90
G01 Y180.25 F1200.0
S1
G00 X84.52 Y180.25 F3000.0
S90
G01 Y171.25 F1200.0
S1
G00 X84.32 Y171.25 F3000.0
S90
G01 Y180.25 F1200.0
S1
G00 X84.12 Y180.25 F3000.0
S90
G01 Y171.25 F1200.0
S1
G00 X83.92 Y171.25 F3000.0
S90
G01 Y180.25 F1200.0
S1
G00 X83.72 Y180.25 F3000.0
S90
G01 Y171.25 F1200.0
S1
G00 X83.52 Y171.25 F3000.0
S90
G01 Y180.25 F1200.0
S1
G00 X83.32 Y180.25 F3000.0
S90
G01 Y171.25 F1200.0
S1
G00 X83.12 Y171.25 F3000.0
S90
G01 Y180.25 F1200.0
S1
G00 X82.92 Y180.25 F3000.0
S90
G01 Y171.25 F1200.0
S1
G00 X82.72 Y171.25 F3000.0
S90
G01 Y180.25 F1200.0
S1
G00 X82.52 Y180.25 F3000.0
S90
G01 Y171.25 F1200.0
S1
G00 X82.32 Y171.25 F3000.0
S90
G01 Y180.25 F1200.0
S1
G00 X82.12 Y180.25 F3000.0
S90
G01 Y171.25 F1200.0
S1
G00 X81.92 Y171.25 F3000.0
S90
G01 Y180.25 F1200.0
S1
G00 X81.72 Y180.25 F3000.0
S90
G01 Y171.25 F1200.0
S1
G00 X81.52 Y171.25 F3000.0
S90
G01 Y180.25 F1200.0
S1
G00 X81.32 Y180.25 F3000.0
S90
G01 Y171.25 F1200.0
S1
G00 X81.12 Y171.25 F3000.0
S90
G01 Y180.25 F1200.0
S1
G00 X80.92 Y180.25 F3000.0
S90
G01 Y171.25 F1200.0
S1
G00 X80.32 Y171.25 F3000.0
S90
G01 Y153.25 F1200.0
S1
G00 X80.12 Y153.25 F3000.0
S90
G01 Y171.25 F1200.0
S1
