
;Inkscape Lasertools G-code
;https://github.com/ChrisWag91/Inkscape-Lasertools-Plugin

G90	;Absolute programming
G21	;Programming in millimeters (mm)
M03 S1 ;Activate laser and set power to 0 (CUSTOM)

; START infill strategy
G01 F1200.0
G00 X4.19 Y21.68 F3000.0
S90
G01 Y25.2 F1200.0
S1
G00 X4.39 Y25.2 F3000.0
S90
G01 Y21.68 F1200.0
S1
G00 X4.59 Y21.68 F3000.0
S90
G01 Y25.2 F1200.0
S1
G00 X4.79 Y25.2 F3000.0
S90
G01 Y21.68 F1200.0
S1
G00 X4.99 Y21.68 F3000.0
S90
G01 Y25.2 F1200.0
S1
G00 X5.19 Y25.2 F3000.0
S90
G01 Y21.68 F1200.0
S1
G00 X5.39 Y21.68 F3000.0
S90
G01 Y25.2 F1200.0
S1
G00 X5.59 Y25.2 F3000.0
S90
G01 Y21.68 F1200.0
S1
G00 X5.79 Y21.68 F3000.0
S90
G01 Y25.2 F1200.0
S1
G00 X5.99 Y25.2 F3000.0
S90
G01 Y21.68 F1200.0
S1
G00 X6.19 Y21.68 F3000.0
S90
G01 Y25.2 F1200.0
S1
G00 X6.39 Y25.2 F3000.0
S90
G01 Y21.68 F1200.0
S1
G00 X6.59 Y21.68 F3000.0
S90
G01 Y25.2 F1200.0
S1
G00 X6.79 Y25.2 F3000.0
S90
G01 Y21.68 F1200.0
S1
G00 X6.99 Y21.68 F3000.0
S90
G01 Y25.2 F1200.0
S1
G00 X7.19 Y25.2 F3000.0
S90
G01 Y21.68 F1200.0
S1
G00 X7.39 Y21.68 F3000.0
S90
G01 Y25.2 F1200.0
S1
G00 X7.59 Y25.2 F3000.0
S90
G01 Y21.68 F1200.0
S1
G00 X7.59 Y18.16 F3000.0
S90
G01 Y14.64 F1200.0
S1
G00 X7.39 Y14.64 F3000.0
S90
G01 Y18.16 F1200.0
S1
G00 X7.19 Y18.16 F3000.0
S90
G01 Y14.64 F1200.0
S1
G00 X6.99 Y14.64 F3000.0
S90
G01 Y18.16 F1200.0
S1
G00 X6.79 Y18.16 F3000.0
S90
G01 Y14.64 F1200.0
S1
G00 X6.59 Y14.64 F3000.0
S90
G01 Y18.16 F1200.0
S1
G00 X6.39 Y18.16 F3000.0
S90
G01 Y14.64 F1200.0
S1
G00 X6.19 Y14.64 F3000.0
S90
G01 Y18.16 F1200.0
S1
G00 X5.99 Y18.16 F3000.0
S90
G01 Y14.64 F1200.0
S1
G00 X5.79 Y14.64 F3000.0
S90
G01 Y18.16 F1200.0
S1
G00 X5.59 Y18.16 F3000.0
S90
G01 Y14.64 F1200.0
S1
G00 X5.39 Y14.64 F3000.0
S90
G01 Y18.16 F1200.0
S1
G00 X5.19 Y18.16 F3000.0
S90
G01 Y14.64 F1200.0
S1
G00 X4.99 Y14.64 F3000.0
S90
G01 Y18.16 F1200.0
S1
G00 X4.79 Y18.16 F3000.0
S90
G01 Y14.64 F1200.0
S1
G00 X4.59 Y14.64 F3000.0
S90
G01 Y18.16 F1200.0
S1
G00 X4.39 Y18.16 F3000.0
S90
G01 Y14.64 F1200.0
S1
G00 X14.79 Y14.64 F3000.0
S90
G01 Y18.16 F1200.0
S1
G00 X14.99 Y18.16 F3000.0
S90
G01 Y14.64 F1200.0
S1
G00 X15.19 Y14.64 F3000.0
S90
G01 Y18.16 F1200.0
S1
G00 X15.39 Y18.16 F3000.0
S90
G01 Y14.64 F1200.0
S1
G00 X15.59 Y14.64 F3000.0
S90
G01 Y18.16 F1200.0
S1
G00 X15.79 Y18.16 F3000.0
S90
G01 Y14.64 F1200.0
S1
G00 X15.99 Y14.64 F3000.0
S90
G01 Y18.16 F1200.0
S1
G00 X16.19 Y18.16 F3000.0
S90
G01 Y14.64 F1200.0
S1
G00 X16.39 Y14.64 F3000.0
S90
G01 Y18.16 F1200.0
S1
G00 X16.59 Y18.16 F3000.0
S90
G01 Y14.64 F1200.0
S1
G00 X16.79 Y14.64 F3000.0
S90
G01 Y18.16 F1200.0
S1
G00 X16.99 Y18.16 F3000.0
S90
G01 Y14.64 F1200.0
S1
G00 X17.19 Y14.64 F3000.0
S90
G01 Y18.16 F1200.0
S1
G00 X17.39 Y18.16 F3000.0
S90
G01 Y14.64 F1200.0
S1
G00 X17.59 Y14.64 F3000.0
S90
G01 Y18.16 F1200.0
S1
G00 X17.79 Y18.16 F3000.0
S90
G01 Y14.64 F1200.0
S1
G00 X17.99 Y14.64 F3000.0
S90
G01 Y18.16 F1200.0
S1
G00 X18.19 Y18.16 F3000.0
S90
G01 Y14.64 F1200.0
S1
G00 X18.19 Y11.12 F3000.0
S90
G01 Y7.6 F1200.0
S1
G00 X17.99 Y7.6 F3000.0
S90
G01 Y11.12 F1200.0
S1
G00 X17.79 Y11.12 F3000.0
S90
G01 Y7.6 F1200.0
S1
G00 X17.59 Y7.6 F3000.0
S90
G01 Y11.12 F1200.0
S1
G00 X17.39 Y11.12 F3000.0
S90
G01 Y7.6 F1200.0
S1
G00 X17.19 Y7.6 F3000.0
S90
G01 Y11.12 F1200.0
S1
G00 X16.99 Y11.12 F3000.0
S90
G01 Y7.6 F1200.0
S1
G00 X16.79 Y7.6 F3000.0
S90
G01 Y11.12 F1200.0
S1
G00 X16.59 Y11.12 F3000.0
S90
G01 Y7.6 F1200.0
S1
G00 X16.39 Y7.6 F3000.0
S90
G01 Y11.12 F1200.0
S1
G00 X16.19 Y11.12 F3000.0
S90
G01 Y7.6 F1200.0
S1
G00 X15.99 Y7.6 F3000.0
S90
G01 Y11.12 F1200.0
S1
G00 X15.79 Y11.12 F3000.0
S90
G01 Y7.6 F1200.0
S1
G00 X15.59 Y7.6 F3000.0
S90
G01 Y11.12 F1200.0
S1
G00 X15.39 Y11.12 F3000.0
S90
G01 Y7.6 F1200.0
S1
G00 X15.19 Y7.6 F3000.0
S90
G01 Y11.12 F1200.0
S1
G00 X14.99 Y11.12 F3000.0
S90
G01 Y7.6 F1200.0
S1
G00 X14.79 Y7.6 F3000.0
S90
G01 Y11.12 F1200.0
S1
G00 X14.59 Y11.12 F3000.0
S90
G01 Y21.68 F1200.0
S1
G00 X14.39 Y21.68 F3000.0
S90
G01 Y11.12 F1200.0
S1
G00 X14.19 Y11.12 F3000.0
S90
G01 Y21.68 F1200.0
S1
G00 X13.99 Y21.68 F3000.0
S90
G01 Y11.12 F1200.0
S1
G00 X13.79 Y11.12 F3000.0
S90
G01 Y21.68 F1200.0
S1
G00 X13.59 Y21.68 F3000.0
S90
G01 Y11.12 F1200.0
S1
G00 X13.39 Y11.12 F3000.0
S90
G01 Y21.68 F1200.0
S1
G00 X13.19 Y21.68 F3000.0
S90
G01 Y11.12 F1200.0
S1
G00 X12.99 Y11.12 F3000.0
S90
G01 Y21.68 F1200.0
S1
G00 X12.79 Y21.68 F3000.0
S90
G01 Y11.12 F1200.0
S1
G00 X12.59 Y11.12 F3000.0
S90
G01 Y21.68 F1200.0
S1
G00 X12.39 Y21.68 F3000.0
S90
G01 Y11.12 F1200.0
S1
G00 X12.19 Y11.12 F3000.0
S90
G01 Y21.68 F1200.0
S1
G00 X11.99 Y21.68 F3000.0
S90
G01 Y11.12 F1200.0
S1
G00 X11.79 Y11.12 F3000.0
S90
G01 Y21.68 F1200.0
S1
G00 X11.59 Y21.68 F3000.0
S90
G01 Y11.12 F1200.0
S1
G00 X11.39 Y11.12 F3000.0
S90
G01 Y21.68 F1200.0
S1
G00 X14.79 Y21.68 F3000.0
S90
G01 Y39.28 F1200.0
S1
G00 X14.99 Y39.28 F3000.0
S90
G01 Y21.68 F1200.0
S1
G00 X15.19 Y21.68 F3000.0
S90
G01 Y39.28 F1200.0
S1
G00 X15.39 Y39.28 F3000.0
S90
G01 Y21.68 F1200.0
S1
G00 X15.59 Y21.68 F3000.0
S90
G01 Y39.28 F1200.0
S1
G00 X15.79 Y39.28 F3000.0
S90
G01 Y21.68 F1200.0
S1
G00 X15.99 Y21.68 F3000.0
S90
G01 Y39.28 F1200.0
S1
G00 X16.19 Y39.28 F3000.0
S90
G01 Y21.68 F1200.0
S1
G00 X16.39 Y21.68 F3000.0
S90
G01 Y39.28 F1200.0
S1
G00 X16.59 Y39.28 F3000.0
S90
G01 Y21.68 F1200.0
S1
G00 X16.79 Y21.68 F3000.0
S90
G01 Y39.28 F1200.0
S1
G00 X16.99 Y39.28 F3000.0
S90
G01 Y21.68 F1200.0
S1
G00 X17.19 Y21.68 F3000.0
S90
G01 Y39.28 F1200.0
S1
G00 X17.39 Y39.28 F3000.0
S90
G01 Y21.68 F1200.0
S1
G00 X17.59 Y21.68 F3000.0
S90
G01 Y39.28 F1200.0
S1
G00 X17.79 Y39.28 F3000.0
S90
G01 Y21.68 F1200.0
S1
G00 X17.99 Y21.68 F3000.0
S90
G01 Y39.28 F1200.0
S1
G00 X18.19 Y39.28 F3000.0
S90
G01 Y21.68 F1200.0
S1
G00 X21.79 Y21.68 F3000.0
S90
G01 Y18.16 F1200.0
S1
G00 X21.99 Y18.16 F3000.0
S90
G01 Y21.68 F1200.0
S1
G00 X22.19 Y21.68 F3000.0
S90
G01 Y18.16 F1200.0
S1
G00 X22.39 Y18.16 F3000.0
S90
G01 Y21.68 F1200.0
S1
G00 X22.59 Y21.68 F3000.0
S90
G01 Y18.16 F1200.0
S1
G00 X22.79 Y18.16 F3000.0
S90
G01 Y21.68 F1200.0
S1
G00 X22.99 Y21.68 F3000.0
S90
G01 Y18.16 F1200.0
S1
G00 X23.19 Y18.16 F3000.0
S90
G01 Y21.68 F1200.0
S1
G00 X23.39 Y21.68 F3000.0
S90
G01 Y18.16 F1200.0
S1
G00 X23.59 Y18.16 F3000.0
S90
G01 Y21.68 F1200.0
S1
G00 X23.79 Y21.68 F3000.0
S90
G01 Y18.16 F1200.0
S1
G00 X23.99 Y18.16 F3000.0
S90
G01 Y21.68 F1200.0
S1
G00 X24.19 Y21.68 F3000.0
S90
G01 Y18.16 F1200.0
S1
G00 X24.39 Y18.16 F3000.0
S90
G01 Y21.68 F1200.0
S1
G00 X24.59 Y21.68 F3000.0
S90
G01 Y18.16 F1200.0
S1
G00 X24.79 Y18.16 F3000.0
S90
G01 Y21.68 F1200.0
S1
G00 X24.99 Y21.68 F3000.0
S90
G01 Y18.16 F1200.0
S1
G00 X25.19 Y18.16 F3000.0
S90
G01 Y21.68 F1200.0
S1
G00 X25.39 Y21.68 F3000.0
S90
G01 Y18.16 F1200.0
S1
G00 X25.59 Y18.16 F3000.0
S90
G01 Y21.68 F1200.0
S1
G00 X25.79 Y21.68 F3000.0
S90
G01 Y18.16 F1200.0
S1
G00 X25.99 Y18.16 F3000.0
S90
G01 Y21.68 F1200.0
S1
G00 X26.19 Y21.68 F3000.0
S90
G01 Y18.16 F1200.0
S1
G00 X26.39 Y18.16 F3000.0
S90
G01 Y21.68 F1200.0
S1
G00 X26.59 Y21.68 F3000.0
S90
G01 Y18.16 F1200.0
S1
G00 X26.79 Y18.16 F3000.0
S90
G01 Y21.68 F1200.0
S1
G00 X26.99 Y21.68 F3000.0
S90
G01 Y18.16 F1200.0
S1
G00 X27.19 Y18.16 F3000.0
S90
G01 Y21.68 F1200.0
S1
G00 X27.39 Y21.68 F3000.0
S90
G01 Y18.16 F1200.0
S1
G00 X27.59 Y18.16 F3000.0
S90
G01 Y21.68 F1200.0
S1
G00 X27.79 Y21.68 F3000.0
S90
G01 Y18.16 F1200.0
S1
G00 X27.99 Y18.16 F3000.0
S90
G01 Y21.68 F1200.0
S1
G00 X28.19 Y21.68 F3000.0
S90
G01 Y18.16 F1200.0
S1
G00 X28.39 Y18.16 F3000.0
S90
G01 Y21.68 F1200.0
S1
G00 X28.59 Y21.68 F3000.0
S90
G01 Y18.16 F1200.0
S1
G00 X28.79 Y18.16 F3000.0
S90
G01 Y21.68 F1200.0
S1
G00 X28.99 Y21.68 F3000.0
S90
G01 Y14.64 F1200.0
S1
G00 X29.19 Y14.64 F3000.0
S90
G01 Y21.68 F1200.0
S1
G00 X29.39 Y21.68 F3000.0
S90
G01 Y14.64 F1200.0
S1
G00 X29.59 Y14.64 F3000.0
S90
G01 Y21.68 F1200.0
S1
G00 X29.79 Y21.68 F3000.0
S90
G01 Y14.64 F1200.0
S1
G00 X29.99 Y14.64 F3000.0
S90
G01 Y21.68 F1200.0
S1
G00 X30.19 Y21.68 F3000.0
S90
G01 Y14.64 F1200.0
S1
G00 X30.39 Y14.64 F3000.0
S90
G01 Y21.68 F1200.0
S1
G00 X30.59 Y21.68 F3000.0
S90
G01 Y14.64 F1200.0
S1
G00 X30.79 Y14.64 F3000.0
S90
G01 Y21.68 F1200.0
S1
G00 X30.99 Y21.68 F3000.0
S90
G01 Y14.64 F1200.0
S1
G00 X31.19 Y14.64 F3000.0
S90
G01 Y21.68 F1200.0
S1
G00 X31.39 Y21.68 F3000.0
S90
G01 Y14.64 F1200.0
S1
G00 X31.59 Y14.64 F3000.0
S90
G01 Y21.68 F1200.0
S1
G00 X31.79 Y21.68 F3000.0
S90
G01 Y14.64 F1200.0
S1
G00 X31.99 Y14.64 F3000.0
S90
G01 Y21.68 F1200.0
S1
G00 X32.19 Y21.68 F3000.0
S90
G01 Y14.64 F1200.0
S1
G00 X32.39 Y14.64 F3000.0
S90
G01 Y39.28 F1200.0
S1
G00 X32.19 Y39.28 F3000.0
S90
G01 Y32.24 F1200.0
S1
G00 X31.99 Y32.24 F3000.0
S90
G01 Y39.28 F1200.0
S1
G00 X31.79 Y39.28 F3000.0
S90
G01 Y32.24 F1200.0
S1
G00 X31.59 Y32.24 F3000.0
S90
G01 Y39.28 F1200.0
S1
G00 X31.39 Y39.28 F3000.0
S90
G01 Y32.24 F1200.0
S1
G00 X31.19 Y32.24 F3000.0
S90
G01 Y39.28 F1200.0
S1
G00 X30.99 Y39.28 F3000.0
S90
G01 Y32.24 F1200.0
S1
G00 X30.79 Y32.24 F3000.0
S90
G01 Y39.28 F1200.0
S1
G00 X30.59 Y39.28 F3000.0
S90
G01 Y32.24 F1200.0
S1
G00 X30.39 Y32.24 F3000.0
S90
G01 Y39.28 F1200.0
S1
G00 X30.19 Y39.28 F3000.0
S90
G01 Y32.24 F1200.0
S1
G00 X29.99 Y32.24 F3000.0
S90
G01 Y39.28 F1200.0
S1
G00 X29.79 Y39.28 F3000.0
S90
G01 Y32.24 F1200.0
S1
G00 X29.59 Y32.24 F3000.0
S90
G01 Y39.28 F1200.0
S1
G00 X29.39 Y39.28 F3000.0
S90
G01 Y32.24 F1200.0
S1
G00 X29.19 Y32.24 F3000.0
S90
G01 Y39.28 F1200.0
S1
G00 X28.99 Y39.28 F3000.0
S90
G01 Y32.24 F1200.0
S1
G00 X28.79 Y32.24 F3000.0
S90
G01 Y35.76 F1200.0
S1
G00 X28.59 Y35.76 F3000.0
S90
G01 Y32.24 F1200.0
S1
G00 X28.39 Y32.24 F3000.0
S90
G01 Y35.76 F1200.0
S1
G00 X28.19 Y35.76 F3000.0
S90
G01 Y32.24 F1200.0
S1
G00 X27.99 Y32.24 F3000.0
S90
G01 Y35.76 F1200.0
S1
G00 X27.79 Y35.76 F3000.0
S90
G01 Y32.24 F1200.0
S1
G00 X27.59 Y32.24 F3000.0
S90
G01 Y35.76 F1200.0
S1
G00 X27.39 Y35.76 F3000.0
S90
G01 Y32.24 F1200.0
S1
G00 X27.19 Y32.24 F3000.0
S90
G01 Y35.76 F1200.0
S1
G00 X26.99 Y35.76 F3000.0
S90
G01 Y32.24 F1200.0
S1
G00 X26.79 Y32.24 F3000.0
S90
G01 Y35.76 F1200.0
S1
G00 X26.59 Y35.76 F3000.0
S90
G01 Y32.24 F1200.0
S1
G00 X26.39 Y32.24 F3000.0
S90
G01 Y35.76 F1200.0
S1
G00 X26.19 Y35.76 F3000.0
S90
G01 Y32.24 F1200.0
S1
G00 X25.99 Y32.24 F3000.0
S90
G01 Y35.76 F1200.0
S1
G00 X25.79 Y35.76 F3000.0
S90
G01 Y32.24 F1200.0
S1
G00 X25.59 Y32.24 F3000.0
S90
G01 Y35.76 F1200.0
S1
G00 X25.39 Y35.76 F3000.0
S90
G01 Y32.24 F1200.0
S1
G00 X25.19 Y32.24 F3000.0
S90
G01 Y35.76 F1200.0
S1
G00 X24.99 Y35.76 F3000.0
S90
G01 Y32.24 F1200.0
S1
G00 X24.79 Y32.24 F3000.0
S90
G01 Y35.76 F1200.0
S1
G00 X24.59 Y35.76 F3000.0
S90
G01 Y32.24 F1200.0
S1
G00 X24.39 Y32.24 F3000.0
S90
G01 Y35.76 F1200.0
S1
G00 X24.19 Y35.76 F3000.0
S90
G01 Y32.24 F1200.0
S1
G00 X23.99 Y32.24 F3000.0
S90
G01 Y35.76 F1200.0
S1
G00 X23.79 Y35.76 F3000.0
S90
G01 Y32.24 F1200.0
S1
G00 X23.59 Y32.24 F3000.0
S90
G01 Y35.76 F1200.0
S1
G00 X23.39 Y35.76 F3000.0
S90
G01 Y32.24 F1200.0
S1
G00 X23.19 Y32.24 F3000.0
S90
G01 Y35.76 F1200.0
S1
G00 X22.99 Y35.76 F3000.0
S90
G01 Y32.24 F1200.0
S1
G00 X22.79 Y32.24 F3000.0
S90
G01 Y35.76 F1200.0
S1
G00 X22.59 Y35.76 F3000.0
S90
G01 Y32.24 F1200.0
S1
G00 X22.39 Y32.24 F3000.0
S90
G01 Y35.76 F1200.0
S1
G00 X22.19 Y35.76 F3000.0
S90
G01 Y32.24 F1200.0
S1
G00 X21.99 Y32.24 F3000.0
S90
G01 Y35.76 F1200.0
S1
G00 X21.79 Y35.76 F3000.0
S90
G01 Y32.24 F1200.0
S1
G00 X21.79 Y39.28 F3000.0
S90
G01 Y46.32 F1200.0
S1
G00 X21.99 Y46.32 F3000.0
S90
G01 Y39.28 F1200.0
S1
G00 X22.19 Y39.28 F3000.0
S90
G01 Y46.32 F1200.0
S1
G00 X22.39 Y46.32 F3000.0
S90
G01 Y39.28 F1200.0
S1
G00 X22.59 Y39.28 F3000.0
S90
G01 Y46.32 F1200.0
S1
G00 X22.79 Y46.32 F3000.0
S90
G01 Y39.28 F1200.0
S1
G00 X22.99 Y39.28 F3000.0
S90
G01 Y46.32 F1200.0
S1
G00 X23.19 Y46.32 F3000.0
S90
G01 Y39.28 F1200.0
S1
G00 X23.39 Y39.28 F3000.0
S90
G01 Y46.32 F1200.0
S1
G00 X23.59 Y46.32 F3000.0
S90
G01 Y39.28 F1200.0
S1
G00 X23.79 Y39.28 F3000.0
S90
G01 Y46.32 F1200.0
S1
G00 X23.99 Y46.32 F3000.0
S90
G01 Y39.28 F1200.0
S1
G00 X24.19 Y39.28 F3000.0
S90
G01 Y46.32 F1200.0
S1
G00 X24.39 Y46.32 F3000.0
S90
G01 Y39.28 F1200.0
S1
G00 X24.59 Y39.28 F3000.0
S90
G01 Y46.32 F1200.0
S1
G00 X24.79 Y46.32 F3000.0
S90
G01 Y39.28 F1200.0
S1
G00 X24.99 Y39.28 F3000.0
S90
G01 Y46.32 F1200.0
S1
G00 X25.19 Y46.32 F3000.0
S90
G01 Y39.28 F1200.0
S1
G00 X25.39 Y42.8 F3000.0
S90
G01 Y46.32 F1200.0
S1
G00 X25.59 Y46.32 F3000.0
S90
G01 Y42.8 F1200.0
S1
G00 X25.79 Y42.8 F3000.0
S90
G01 Y46.32 F1200.0
S1
G00 X25.99 Y46.32 F3000.0
S90
G01 Y42.8 F1200.0
S1
G00 X26.19 Y42.8 F3000.0
S90
G01 Y46.32 F1200.0
S1
G00 X26.39 Y46.32 F3000.0
S90
G01 Y42.8 F1200.0
S1
G00 X26.59 Y42.8 F3000.0
S90
G01 Y46.32 F1200.0
S1
G00 X26.79 Y46.32 F3000.0
S90
G01 Y42.8 F1200.0
S1
G00 X26.99 Y42.8 F3000.0
S90
G01 Y46.32 F1200.0
S1
G00 X27.19 Y46.32 F3000.0
S90
G01 Y42.8 F1200.0
S1
G00 X27.39 Y42.8 F3000.0
S90
G01 Y46.32 F1200.0
S1
G00 X27.59 Y46.32 F3000.0
S90
G01 Y42.8 F1200.0
S1
G00 X27.79 Y42.8 F3000.0
S90
G01 Y46.32 F1200.0
S1
G00 X27.99 Y46.32 F3000.0
S90
G01 Y42.8 F1200.0
S1
G00 X28.19 Y42.8 F3000.0
S90
G01 Y46.32 F1200.0
S1
G00 X28.39 Y46.32 F3000.0
S90
G01 Y42.8 F1200.0
S1
G00 X28.59 Y42.8 F3000.0
S90
G01 Y46.32 F1200.0
S1
G00 X28.79 Y46.32 F3000.0
S90
G01 Y42.8 F1200.0
S1
G00 X32.39 Y42.8 F3000.0
S90
G01 Y49.84 F1200.0
S1
G00 X32.19 Y49.84 F3000.0
S90
G01 Y46.32 F1200.0
S1
G00 X31.99 Y46.32 F3000.0
S90
G01 Y49.84 F1200.0
S1
G00 X31.79 Y49.84 F3000.0
S90
G01 Y46.32 F1200.0
S1
G00 X31.59 Y46.32 F3000.0
S90
G01 Y49.84 F1200.0
S1
G00 X31.39 Y49.84 F3000.0
S90
G01 Y46.32 F1200.0
S1
G00 X31.19 Y46.32 F3000.0
S90
G01 Y49.84 F1200.0
S1
G00 X30.99 Y49.84 F3000.0
S90
G01 Y46.32 F1200.0
S1
G00 X30.79 Y46.32 F3000.0
S90
G01 Y49.84 F1200.0
S1
G00 X30.59 Y49.84 F3000.0
S90
G01 Y46.32 F1200.0
S1
G00 X30.39 Y46.32 F3000.0
S90
G01 Y49.84 F1200.0
S1
G00 X30.19 Y49.84 F3000.0
S90
G01 Y46.32 F1200.0
S1
G00 X29.99 Y46.32 F3000.0
S90
G01 Y49.84 F1200.0
S1
G00 X29.79 Y49.84 F3000.0
S90
G01 Y46.32 F1200.0
S1
G00 X29.59 Y46.32 F3000.0
S90
G01 Y49.84 F1200.0
S1
G00 X29.39 Y49.84 F3000.0
S90
G01 Y46.32 F1200.0
S1
G00 X29.19 Y46.32 F3000.0
S90
G01 Y49.84 F1200.0
S1
G00 X28.99 Y49.84 F3000.0
S90
G01 Y46.32 F1200.0
S1
G00 X28.79 Y49.84 F3000.0
S90
G01 Y53.36 F1200.0
S1
G00 X28.59 Y53.36 F3000.0
S90
G01 Y49.84 F1200.0
S1
G00 X28.39 Y49.84 F3000.0
S90
G01 Y53.36 F1200.0
S1
G00 X28.19 Y53.36 F3000.0
S90
G01 Y49.84 F1200.0
S1
G00 X27.99 Y49.84 F3000.0
S90
G01 Y53.36 F1200.0
S1
G00 X27.79 Y53.36 F3000.0
S90
G01 Y49.84 F1200.0
S1
G00 X27.59 Y49.84 F3000.0
S90
G01 Y53.36 F1200.0
S1
G00 X27.39 Y53.36 F3000.0
S90
G01 Y49.84 F1200.0
S1
G00 X27.19 Y49.84 F3000.0
S90
G01 Y53.36 F1200.0
S1
G00 X26.99 Y53.36 F3000.0
S90
G01 Y49.84 F1200.0
S1
G00 X26.79 Y49.84 F3000.0
S90
G01 Y53.36 F1200.0
S1
G00 X26.59 Y53.36 F3000.0
S90
G01 Y49.84 F1200.0
S1
G00 X26.39 Y49.84 F3000.0
S90
G01 Y53.36 F1200.0
S1
G00 X26.19 Y53.36 F3000.0
S90
G01 Y49.84 F1200.0
S1
G00 X25.99 Y49.84 F3000.0
S90
G01 Y53.36 F1200.0
S1
G00 X25.79 Y53.36 F3000.0
S90
G01 Y49.84 F1200.0
S1
G00 X25.59 Y49.84 F3000.0
S90
G01 Y53.36 F1200.0
S1
G00 X25.39 Y53.36 F3000.0
S90
G01 Y49.84 F1200.0
S1
G00 X25.19 Y53.36 F3000.0
S90
G01 Y67.44 F1200.0
S1
G00 X24.99 Y67.44 F3000.0
S90
G01 Y53.36 F1200.0
S1
G00 X24.79 Y53.36 F3000.0
S90
G01 Y67.44 F1200.0
S1
G00 X24.59 Y67.44 F3000.0
S90
G01 Y53.36 F1200.0
S1
G00 X24.39 Y53.36 F3000.0
S90
G01 Y67.44 F1200.0
S1
G00 X24.19 Y67.44 F3000.0
S90
G01 Y53.36 F1200.0
S1
G00 X23.99 Y53.36 F3000.0
S90
G01 Y67.44 F1200.0
S1
G00 X23.79 Y67.44 F3000.0
S90
G01 Y53.36 F1200.0
S1
G00 X23.59 Y53.36 F3000.0
S90
G01 Y67.44 F1200.0
S1
G00 X23.39 Y67.44 F3000.0
S90
G01 Y53.36 F1200.0
S1
G00 X23.19 Y53.36 F3000.0
S90
G01 Y67.44 F1200.0
S1
G00 X22.99 Y67.44 F3000.0
S90
G01 Y53.36 F1200.0
S1
G00 X22.79 Y53.36 F3000.0
S90
G01 Y67.44 F1200.0
S1
G00 X22.59 Y67.44 F3000.0
S90
G01 Y53.36 F1200.0
S1
G00 X22.39 Y53.36 F3000.0
S90
G01 Y67.44 F1200.0
S1
G00 X22.19 Y67.44 F3000.0
S90
G01 Y53.36 F1200.0
S1
G00 X21.99 Y53.36 F3000.0
S90
G01 Y67.44 F1200.0
S1
G00 X21.79 Y67.44 F3000.0
S90
G01 Y53.36 F1200.0
S1
G00 X18.19 Y53.36 F3000.0
S90
G01 Y42.8 F1200.0
S1
G00 X17.99 Y42.8 F3000.0
S90
G01 Y53.36 F1200.0
S1
G00 X17.79 Y53.36 F3000.0
S90
G01 Y42.8 F1200.0
S1
G00 X17.59 Y42.8 F3000.0
S90
G01 Y53.36 F1200.0
S1
G00 X17.39 Y53.36 F3000.0
S90
G01 Y42.8 F1200.0
S1
G00 X17.19 Y42.8 F3000.0
S90
G01 Y53.36 F1200.0
S1
G00 X16.99 Y53.36 F3000.0
S90
G01 Y42.8 F1200.0
S1
G00 X16.79 Y42.8 F3000.0
S90
G01 Y53.36 F1200.0
S1
G00 X16.59 Y53.36 F3000.0
S90
G01 Y42.8 F1200.0
S1
G00 X16.39 Y42.8 F3000.0
S90
G01 Y53.36 F1200.0
S1
G00 X16.19 Y53.36 F3000.0
S90
G01 Y42.8 F1200.0
S1
G00 X15.99 Y42.8 F3000.0
S90
G01 Y53.36 F1200.0
S1
G00 X15.79 Y53.36 F3000.0
S90
G01 Y42.8 F1200.0
S1
G00 X15.59 Y42.8 F3000.0
S90
G01 Y53.36 F1200.0
S1
G00 X15.39 Y53.36 F3000.0
S90
G01 Y42.8 F1200.0
S1
G00 X15.19 Y42.8 F3000.0
S90
G01 Y53.36 F1200.0
S1
G00 X14.99 Y53.36 F3000.0
S90
G01 Y42.8 F1200.0
S1
G00 X14.79 Y42.8 F3000.0
S90
G01 Y53.36 F1200.0
S1
G00 X14.79 Y56.88 F3000.0
S90
G01 Y63.92 F1200.0
S1
G00 X14.99 Y63.92 F3000.0
S90
G01 Y56.88 F1200.0
S1
G00 X15.19 Y56.88 F3000.0
S90
G01 Y63.92 F1200.0
S1
G00 X15.39 Y63.92 F3000.0
S90
G01 Y56.88 F1200.0
S1
G00 X15.59 Y56.88 F3000.0
S90
G01 Y63.92 F1200.0
S1
G00 X15.79 Y63.92 F3000.0
S90
G01 Y56.88 F1200.0
S1
G00 X15.99 Y56.88 F3000.0
S90
G01 Y63.92 F1200.0
S1
G00 X16.19 Y63.92 F3000.0
S90
G01 Y56.88 F1200.0
S1
G00 X16.39 Y56.88 F3000.0
S90
G01 Y63.92 F1200.0
S1
G00 X16.59 Y63.92 F3000.0
S90
G01 Y56.88 F1200.0
S1
G00 X16.79 Y56.88 F3000.0
S90
G01 Y63.92 F1200.0
S1
G00 X16.99 Y63.92 F3000.0
S90
G01 Y56.88 F1200.0
S1
G00 X17.19 Y56.88 F3000.0
S90
G01 Y63.92 F1200.0
S1
G00 X17.39 Y63.92 F3000.0
S90
G01 Y56.88 F1200.0
S1
G00 X17.59 Y56.88 F3000.0
S90
G01 Y63.92 F1200.0
S1
G00 X17.79 Y63.92 F3000.0
S90
G01 Y56.88 F1200.0
S1
G00 X17.99 Y56.88 F3000.0
S90
G01 Y63.92 F1200.0
S1
G00 X18.19 Y63.92 F3000.0
S90
G01 Y56.88 F1200.0
S1
G00 X18.39 Y56.88 F3000.0
S90
G01 Y67.44 F1200.0
S1
G00 X18.19 Y67.44 F3000.0
S90
G01 Y78.0 F1200.0
S1
G00 X17.99 Y78. F3000.0
S90
G01 Y67.44 F1200.0
S1
G00 X17.79 Y67.44 F3000.0
S90
G01 Y78.0 F1200.0
S1
G00 X17.59 Y78. F3000.0
S90
G01 Y67.44 F1200.0
S1
G00 X17.39 Y67.44 F3000.0
S90
G01 Y78.0 F1200.0
S1
G00 X17.19 Y78. F3000.0
S90
G01 Y67.44 F1200.0
S1
G00 X16.99 Y67.44 F3000.0
S90
G01 Y78.0 F1200.0
S1
G00 X16.79 Y78. F3000.0
S90
G01 Y67.44 F1200.0
S1
G00 X16.59 Y67.44 F3000.0
S90
G01 Y78.0 F1200.0
S1
G00 X16.39 Y78. F3000.0
S90
G01 Y67.44 F1200.0
S1
G00 X16.19 Y67.44 F3000.0
S90
G01 Y78.0 F1200.0
S1
G00 X15.99 Y78. F3000.0
S90
G01 Y67.44 F1200.0
S1
G00 X15.79 Y67.44 F3000.0
S90
G01 Y78.0 F1200.0
S1
G00 X15.59 Y78. F3000.0
S90
G01 Y67.44 F1200.0
S1
G00 X15.39 Y67.44 F3000.0
S90
G01 Y78.0 F1200.0
S1
G00 X15.19 Y78. F3000.0
S90
G01 Y67.44 F1200.0
S1
G00 X14.99 Y67.44 F3000.0
S90
G01 Y78.0 F1200.0
S1
G00 X14.79 Y78. F3000.0
S90
G01 Y67.44 F1200.0
S1
G00 X14.59 Y67.44 F3000.0
S90
G01 Y70.96 F1200.0
S1
G00 X14.39 Y70.96 F3000.0
S90
G01 Y67.44 F1200.0
S1
G00 X14.19 Y67.44 F3000.0
S90
G01 Y70.96 F1200.0
S1
G00 X13.99 Y70.96 F3000.0
S90
G01 Y67.44 F1200.0
S1
G00 X13.79 Y67.44 F3000.0
S90
G01 Y70.96 F1200.0
S1
G00 X13.59 Y70.96 F3000.0
S90
G01 Y67.44 F1200.0
S1
G00 X13.39 Y67.44 F3000.0
S90
G01 Y70.96 F1200.0
S1
G00 X13.19 Y70.96 F3000.0
S90
G01 Y67.44 F1200.0
S1
G00 X12.99 Y67.44 F3000.0
S90
G01 Y70.96 F1200.0
S1
G00 X12.79 Y70.96 F3000.0
S90
G01 Y67.44 F1200.0
S1
G00 X12.59 Y67.44 F3000.0
S90
G01 Y70.96 F1200.0
S1
G00 X12.39 Y70.96 F3000.0
S90
G01 Y67.44 F1200.0
S1
G00 X12.19 Y67.44 F3000.0
S90
G01 Y70.96 F1200.0
S1
G00 X11.99 Y70.96 F3000.0
S90
G01 Y67.44 F1200.0
S1
G00 X11.79 Y67.44 F3000.0
S90
G01 Y70.96 F1200.0
S1
G00 X11.59 Y70.96 F3000.0
S90
G01 Y67.44 F1200.0
S1
G00 X11.39 Y67.44 F3000.0
S90
G01 Y70.96 F1200.0
S1
G00 X11.19 Y70.96 F3000.0
S90
G01 Y74.48 F1200.0
S1
G00 X11.39 Y74.48 F3000.0
S90
G01 Y78.0 F1200.0
S1
G00 X11.59 Y78. F3000.0
S90
G01 Y74.48 F1200.0
S1
G00 X11.79 Y74.48 F3000.0
S90
G01 Y78.0 F1200.0
S1
G00 X11.99 Y78. F3000.0
S90
G01 Y74.48 F1200.0
S1
G00 X12.19 Y74.48 F3000.0
S90
G01 Y78.0 F1200.0
S1
G00 X12.39 Y78. F3000.0
S90
G01 Y74.48 F1200.0
S1
G00 X12.59 Y74.48 F3000.0
S90
G01 Y78.0 F1200.0
S1
G00 X12.79 Y78. F3000.0
S90
G01 Y74.48 F1200.0
S1
G00 X12.99 Y74.48 F3000.0
S90
G01 Y78.0 F1200.0
S1
G00 X13.19 Y78. F3000.0
S90
G01 Y74.48 F1200.0
S1
G00 X13.39 Y74.48 F3000.0
S90
G01 Y78.0 F1200.0
S1
G00 X13.59 Y78. F3000.0
S90
G01 Y74.48 F1200.0
S1
G00 X13.79 Y74.48 F3000.0
S90
G01 Y78.0 F1200.0
S1
G00 X13.99 Y78. F3000.0
S90
G01 Y74.48 F1200.0
S1
G00 X14.19 Y74.48 F3000.0
S90
G01 Y78.0 F1200.0
S1
G00 X14.39 Y78. F3000.0
S90
G01 Y74.48 F1200.0
S1
G00 X14.59 Y74.48 F3000.0
S90
G01 Y78.0 F1200.0
S1
G00 X14.59 Y81.52 F3000.0
S90
G01 Y85.04 F1200.0
S1
G00 X14.39 Y85.04 F3000.0
S90
G01 Y81.52 F1200.0
S1
G00 X14.19 Y81.52 F3000.0
S90
G01 Y85.04 F1200.0
S1
G00 X13.99 Y85.04 F3000.0
S90
G01 Y81.52 F1200.0
S1
G00 X13.79 Y81.52 F3000.0
S90
G01 Y85.04 F1200.0
S1
G00 X13.59 Y85.04 F3000.0
S90
G01 Y81.52 F1200.0
S1
G00 X13.39 Y81.52 F3000.0
S90
G01 Y85.04 F1200.0
S1
G00 X13.19 Y85.04 F3000.0
S90
G01 Y81.52 F1200.0
S1
G00 X12.99 Y81.52 F3000.0
S90
G01 Y85.04 F1200.0
S1
G00 X12.79 Y85.04 F3000.0
S90
G01 Y81.52 F1200.0
S1
G00 X12.59 Y81.52 F3000.0
S90
G01 Y85.04 F1200.0
S1
G00 X12.39 Y85.04 F3000.0
S90
G01 Y81.52 F1200.0
S1
G00 X12.19 Y81.52 F3000.0
S90
G01 Y85.04 F1200.0
S1
G00 X11.99 Y85.04 F3000.0
S90
G01 Y81.52 F1200.0
S1
G00 X11.79 Y81.52 F3000.0
S90
G01 Y85.04 F1200.0
S1
G00 X11.59 Y85.04 F3000.0
S90
G01 Y81.52 F1200.0
S1
G00 X11.39 Y81.52 F3000.0
S90
G01 Y85.04 F1200.0
S1
G00 X11.19 Y85.04 F3000.0
S90
G01 Y81.52 F1200.0
S1
G00 X10.99 Y81.52 F3000.0
S90
G01 Y85.04 F1200.0
S1
G00 X10.79 Y85.04 F3000.0
S90
G01 Y81.52 F1200.0
S1
G00 X10.59 Y81.52 F3000.0
S90
G01 Y85.04 F1200.0
S1
G00 X10.39 Y85.04 F3000.0
S90
G01 Y81.52 F1200.0
S1
G00 X10.19 Y81.52 F3000.0
S90
G01 Y85.04 F1200.0
S1
G00 X9.99 Y85.04 F3000.0
S90
G01 Y81.52 F1200.0
S1
G00 X9.79 Y81.52 F3000.0
S90
G01 Y85.04 F1200.0
S1
G00 X9.59 Y85.04 F3000.0
S90
G01 Y81.52 F1200.0
S1
G00 X9.39 Y81.52 F3000.0
S90
G01 Y85.04 F1200.0
S1
G00 X9.19 Y85.04 F3000.0
S90
G01 Y81.52 F1200.0
S1
G00 X8.99 Y81.52 F3000.0
S90
G01 Y85.04 F1200.0
S1
G00 X8.79 Y85.04 F3000.0
S90
G01 Y81.52 F1200.0
S1
G00 X8.59 Y81.52 F3000.0
S90
G01 Y85.04 F1200.0
S1
G00 X8.39 Y85.04 F3000.0
S90
G01 Y81.52 F1200.0
S1
G00 X8.19 Y81.52 F3000.0
S90
G01 Y85.04 F1200.0
S1
G00 X7.99 Y85.04 F3000.0
S90
G01 Y81.52 F1200.0
S1
G00 X7.79 Y81.52 F3000.0
S90
G01 Y85.04 F1200.0
S1
G00 X7.59 Y81.52 F3000.0
S90
G01 Y106.16 F1200.0
S1
G00 X7.79 Y106.16 F3000.0
S90
G01 Y102.64 F1200.0
S1
G00 X7.99 Y102.64 F3000.0
S90
G01 Y106.16 F1200.0
S1
G00 X8.19 Y106.16 F3000.0
S90
G01 Y102.64 F1200.0
S1
G00 X8.39 Y102.64 F3000.0
S90
G01 Y106.16 F1200.0
S1
G00 X8.59 Y106.16 F3000.0
S90
G01 Y102.64 F1200.0
S1
G00 X8.79 Y102.64 F3000.0
S90
G01 Y106.16 F1200.0
S1
G00 X8.99 Y106.16 F3000.0
S90
G01 Y102.64 F1200.0
S1
G00 X9.19 Y102.64 F3000.0
S90
G01 Y106.16 F1200.0
S1
G00 X9.39 Y106.16 F3000.0
S90
G01 Y102.64 F1200.0
S1
G00 X9.59 Y102.64 F3000.0
S90
G01 Y106.16 F1200.0
S1
G00 X9.79 Y106.16 F3000.0
S90
G01 Y102.64 F1200.0
S1
G00 X9.99 Y102.64 F3000.0
S90
G01 Y106.16 F1200.0
S1
G00 X10.19 Y106.16 F3000.0
S90
G01 Y102.64 F1200.0
S1
G00 X10.39 Y102.64 F3000.0
S90
G01 Y106.16 F1200.0
S1
G00 X10.59 Y106.16 F3000.0
S90
G01 Y102.64 F1200.0
S1
G00 X10.79 Y102.64 F3000.0
S90
G01 Y106.16 F1200.0
S1
G00 X10.99 Y106.16 F3000.0
S90
G01 Y102.64 F1200.0
S1
G00 X11.19 Y102.64 F3000.0
S90
G01 Y106.16 F1200.0
S1
G00 X11.39 Y106.16 F3000.0
S90
G01 Y102.64 F1200.0
S1
G00 X11.59 Y102.64 F3000.0
S90
G01 Y106.16 F1200.0
S1
G00 X11.79 Y106.16 F3000.0
S90
G01 Y102.64 F1200.0
S1
G00 X11.99 Y102.64 F3000.0
S90
G01 Y106.16 F1200.0
S1
G00 X12.19 Y106.16 F3000.0
S90
G01 Y102.64 F1200.0
S1
G00 X12.39 Y102.64 F3000.0
S90
G01 Y106.16 F1200.0
S1
G00 X12.59 Y106.16 F3000.0
S90
G01 Y102.64 F1200.0
S1
G00 X12.79 Y102.64 F3000.0
S90
G01 Y106.16 F1200.0
S1
G00 X12.99 Y106.16 F3000.0
S90
G01 Y102.64 F1200.0
S1
G00 X13.19 Y102.64 F3000.0
S90
G01 Y106.16 F1200.0
S1
G00 X13.39 Y106.16 F3000.0
S90
G01 Y102.64 F1200.0
S1
G00 X13.59 Y102.64 F3000.0
S90
G01 Y106.16 F1200.0
S1
G00 X13.79 Y106.16 F3000.0
S90
G01 Y102.64 F1200.0
S1
G00 X13.99 Y102.64 F3000.0
S90
G01 Y106.16 F1200.0
S1
G00 X14.19 Y106.16 F3000.0
S90
G01 Y102.64 F1200.0
S1
G00 X14.39 Y102.64 F3000.0
S90
G01 Y106.16 F1200.0
S1
G00 X14.59 Y106.16 F3000.0
S90
G01 Y102.64 F1200.0
S1
G00 X14.79 Y102.64 F3000.0
S90
G01 Y106.16 F1200.0
S1
G00 X14.99 Y106.16 F3000.0
S90
G01 Y102.64 F1200.0
S1
G00 X15.19 Y102.64 F3000.0
S90
G01 Y106.16 F1200.0
S1
G00 X15.39 Y106.16 F3000.0
S90
G01 Y102.64 F1200.0
S1
G00 X15.59 Y102.64 F3000.0
S90
G01 Y106.16 F1200.0
S1
G00 X15.79 Y106.16 F3000.0
S90
G01 Y102.64 F1200.0
S1
G00 X15.99 Y102.64 F3000.0
S90
G01 Y106.16 F1200.0
S1
G00 X16.19 Y106.16 F3000.0
S90
G01 Y102.64 F1200.0
S1
G00 X16.39 Y102.64 F3000.0
S90
G01 Y106.16 F1200.0
S1
G00 X16.59 Y106.16 F3000.0
S90
G01 Y102.64 F1200.0
S1
G00 X16.79 Y102.64 F3000.0
S90
G01 Y106.16 F1200.0
S1
G00 X16.99 Y106.16 F3000.0
S90
G01 Y102.64 F1200.0
S1
G00 X17.19 Y102.64 F3000.0
S90
G01 Y106.16 F1200.0
S1
G00 X17.39 Y106.16 F3000.0
S90
G01 Y102.64 F1200.0
S1
G00 X17.59 Y102.64 F3000.0
S90
G01 Y106.16 F1200.0
S1
G00 X17.79 Y106.16 F3000.0
S90
G01 Y102.64 F1200.0
S1
G00 X17.99 Y102.64 F3000.0
S90
G01 Y106.16 F1200.0
S1
G00 X18.19 Y106.16 F3000.0
S90
G01 Y102.64 F1200.0
S1
G00 X18.39 Y102.64 F3000.0
S90
G01 Y106.16 F1200.0
S1
G00 X18.59 Y106.16 F3000.0
S90
G01 Y102.64 F1200.0
S1
G00 X18.79 Y102.64 F3000.0
S90
G01 Y106.16 F1200.0
S1
G00 X18.99 Y106.16 F3000.0
S90
G01 Y102.64 F1200.0
S1
G00 X19.19 Y102.64 F3000.0
S90
G01 Y106.16 F1200.0
S1
G00 X19.39 Y106.16 F3000.0
S90
G01 Y102.64 F1200.0
S1
G00 X19.59 Y102.64 F3000.0
S90
G01 Y106.16 F1200.0
S1
G00 X19.79 Y106.16 F3000.0
S90
G01 Y102.64 F1200.0
S1
G00 X19.99 Y102.64 F3000.0
S90
G01 Y106.16 F1200.0
S1
G00 X20.19 Y106.16 F3000.0
S90
G01 Y102.64 F1200.0
S1
G00 X20.39 Y102.64 F3000.0
S90
G01 Y106.16 F1200.0
S1
G00 X20.59 Y106.16 F3000.0
S90
G01 Y102.64 F1200.0
S1
G00 X20.79 Y102.64 F3000.0
S90
G01 Y106.16 F1200.0
S1
G00 X20.99 Y106.16 F3000.0
S90
G01 Y102.64 F1200.0
S1
G00 X21.19 Y102.64 F3000.0
S90
G01 Y106.16 F1200.0
S1
G00 X21.39 Y106.16 F3000.0
S90
G01 Y102.64 F1200.0
S1
G00 X21.59 Y102.64 F3000.0
S90
G01 Y106.16 F1200.0
S1
G00 X21.79 Y106.16 F3000.0
S90
G01 Y102.64 F1200.0
S1
G00 X21.99 Y102.64 F3000.0
S90
G01 Y106.16 F1200.0
S1
G00 X22.19 Y106.16 F3000.0
S90
G01 Y102.64 F1200.0
S1
G00 X22.39 Y102.64 F3000.0
S90
G01 Y106.16 F1200.0
S1
G00 X22.59 Y106.16 F3000.0
S90
G01 Y102.64 F1200.0
S1
G00 X22.79 Y102.64 F3000.0
S90
G01 Y106.16 F1200.0
S1
G00 X22.99 Y106.16 F3000.0
S90
G01 Y102.64 F1200.0
S1
G00 X23.19 Y102.64 F3000.0
S90
G01 Y106.16 F1200.0
S1
G00 X23.39 Y106.16 F3000.0
S90
G01 Y102.64 F1200.0
S1
G00 X23.59 Y102.64 F3000.0
S90
G01 Y106.16 F1200.0
S1
G00 X23.79 Y106.16 F3000.0
S90
G01 Y102.64 F1200.0
S1
G00 X23.99 Y102.64 F3000.0
S90
G01 Y106.16 F1200.0
S1
G00 X24.19 Y106.16 F3000.0
S90
G01 Y102.64 F1200.0
S1
G00 X24.39 Y102.64 F3000.0
S90
G01 Y106.16 F1200.0
S1
G00 X24.59 Y106.16 F3000.0
S90
G01 Y102.64 F1200.0
S1
G00 X24.79 Y102.64 F3000.0
S90
G01 Y106.16 F1200.0
S1
G00 X24.99 Y106.16 F3000.0
S90
G01 Y102.64 F1200.0
S1
G00 X25.19 Y102.64 F3000.0
S90
G01 Y106.16 F1200.0
S1
G00 X25.39 Y106.16 F3000.0
S90
G01 Y81.52 F1200.0
S1
G00 X25.19 Y81.52 F3000.0
S90
G01 Y85.04 F1200.0
S1
G00 X24.99 Y85.04 F3000.0
S90
G01 Y81.52 F1200.0
S1
G00 X24.79 Y81.52 F3000.0
S90
G01 Y85.04 F1200.0
S1
G00 X24.59 Y85.04 F3000.0
S90
G01 Y81.52 F1200.0
S1
G00 X24.39 Y81.52 F3000.0
S90
G01 Y85.04 F1200.0
S1
G00 X24.19 Y85.04 F3000.0
S90
G01 Y81.52 F1200.0
S1
G00 X23.99 Y81.52 F3000.0
S90
G01 Y85.04 F1200.0
S1
G00 X23.79 Y85.04 F3000.0
S90
G01 Y81.52 F1200.0
S1
G00 X23.59 Y81.52 F3000.0
S90
G01 Y85.04 F1200.0
S1
G00 X23.39 Y85.04 F3000.0
S90
G01 Y81.52 F1200.0
S1
G00 X23.19 Y81.52 F3000.0
S90
G01 Y85.04 F1200.0
S1
G00 X22.99 Y85.04 F3000.0
S90
G01 Y81.52 F1200.0
S1
G00 X22.79 Y81.52 F3000.0
S90
G01 Y85.04 F1200.0
S1
G00 X22.59 Y85.04 F3000.0
S90
G01 Y81.52 F1200.0
S1
G00 X22.39 Y81.52 F3000.0
S90
G01 Y85.04 F1200.0
S1
G00 X22.19 Y85.04 F3000.0
S90
G01 Y81.52 F1200.0
S1
G00 X21.99 Y81.52 F3000.0
S90
G01 Y85.04 F1200.0
S1
G00 X21.79 Y85.04 F3000.0
S90
G01 Y81.52 F1200.0
S1
G00 X21.59 Y81.52 F3000.0
S90
G01 Y85.04 F1200.0
S1
G00 X21.39 Y85.04 F3000.0
S90
G01 Y81.52 F1200.0
S1
G00 X21.19 Y81.52 F3000.0
S90
G01 Y85.04 F1200.0
S1
G00 X20.99 Y85.04 F3000.0
S90
G01 Y81.52 F1200.0
S1
G00 X20.79 Y81.52 F3000.0
S90
G01 Y85.04 F1200.0
S1
G00 X20.59 Y85.04 F3000.0
S90
G01 Y81.52 F1200.0
S1
G00 X20.39 Y81.52 F3000.0
S90
G01 Y85.04 F1200.0
S1
G00 X20.19 Y85.04 F3000.0
S90
G01 Y81.52 F1200.0
S1
G00 X19.99 Y81.52 F3000.0
S90
G01 Y85.04 F1200.0
S1
G00 X19.79 Y85.04 F3000.0
S90
G01 Y81.52 F1200.0
S1
G00 X19.59 Y81.52 F3000.0
S90
G01 Y85.04 F1200.0
S1
G00 X19.39 Y85.04 F3000.0
S90
G01 Y81.52 F1200.0
S1
G00 X19.19 Y81.52 F3000.0
S90
G01 Y85.04 F1200.0
S1
G00 X18.99 Y85.04 F3000.0
S90
G01 Y81.52 F1200.0
S1
G00 X18.79 Y81.52 F3000.0
S90
G01 Y85.04 F1200.0
S1
G00 X18.59 Y85.04 F3000.0
S90
G01 Y81.52 F1200.0
S1
G00 X18.39 Y81.52 F3000.0
S90
G01 Y85.04 F1200.0
S1
G00 X18.19 Y85.04 F3000.0
S90
G01 Y81.52 F1200.0
S1
G00 X17.99 Y81.52 F3000.0
S90
G01 Y85.04 F1200.0
S1
G00 X17.79 Y85.04 F3000.0
S90
G01 Y81.52 F1200.0
S1
G00 X17.59 Y81.52 F3000.0
S90
G01 Y85.04 F1200.0
S1
G00 X17.39 Y85.04 F3000.0
S90
G01 Y81.52 F1200.0
S1
G00 X17.19 Y81.52 F3000.0
S90
G01 Y85.04 F1200.0
S1
G00 X16.99 Y85.04 F3000.0
S90
G01 Y81.52 F1200.0
S1
G00 X16.79 Y81.52 F3000.0
S90
G01 Y85.04 F1200.0
S1
G00 X16.59 Y85.04 F3000.0
S90
G01 Y81.52 F1200.0
S1
G00 X16.39 Y81.52 F3000.0
S90
G01 Y85.04 F1200.0
S1
G00 X16.19 Y85.04 F3000.0
S90
G01 Y81.52 F1200.0
S1
G00 X15.99 Y81.52 F3000.0
S90
G01 Y85.04 F1200.0
S1
G00 X15.79 Y85.04 F3000.0
S90
G01 Y81.52 F1200.0
S1
G00 X15.59 Y81.52 F3000.0
S90
G01 Y85.04 F1200.0
S1
G00 X15.39 Y85.04 F3000.0
S90
G01 Y81.52 F1200.0
S1
G00 X15.19 Y81.52 F3000.0
S90
G01 Y85.04 F1200.0
S1
G00 X14.99 Y85.04 F3000.0
S90
G01 Y81.52 F1200.0
S1
G00 X14.79 Y81.52 F3000.0
S90
G01 Y85.04 F1200.0
S1
G00 X14.79 Y88.56 F3000.0
S90
G01 Y99.12 F1200.0
S1
G00 X14.99 Y99.12 F3000.0
S90
G01 Y88.56 F1200.0
S1
G00 X15.19 Y88.56 F3000.0
S90
G01 Y99.12 F1200.0
S1
G00 X15.39 Y99.12 F3000.0
S90
G01 Y88.56 F1200.0
S1
G00 X15.59 Y88.56 F3000.0
S90
G01 Y99.12 F1200.0
S1
G00 X15.79 Y99.12 F3000.0
S90
G01 Y88.56 F1200.0
S1
G00 X15.99 Y88.56 F3000.0
S90
G01 Y99.12 F1200.0
S1
G00 X16.19 Y99.12 F3000.0
S90
G01 Y88.56 F1200.0
S1
G00 X16.39 Y88.56 F3000.0
S90
G01 Y99.12 F1200.0
S1
G00 X16.59 Y99.12 F3000.0
S90
G01 Y88.56 F1200.0
S1
G00 X16.79 Y88.56 F3000.0
S90
G01 Y99.12 F1200.0
S1
G00 X16.99 Y99.12 F3000.0
S90
G01 Y88.56 F1200.0
S1
G00 X17.19 Y88.56 F3000.0
S90
G01 Y99.12 F1200.0
S1
G00 X17.39 Y99.12 F3000.0
S90
G01 Y88.56 F1200.0
S1
G00 X17.59 Y88.56 F3000.0
S90
G01 Y99.12 F1200.0
S1
G00 X17.79 Y99.12 F3000.0
S90
G01 Y88.56 F1200.0
S1
G00 X17.99 Y88.56 F3000.0
S90
G01 Y99.12 F1200.0
S1
G00 X18.19 Y99.12 F3000.0
S90
G01 Y88.56 F1200.0
S1
G00 X18.39 Y88.56 F3000.0
S90
G01 Y99.12 F1200.0
S1
G00 X18.59 Y99.12 F3000.0
S90
G01 Y88.56 F1200.0
S1
G00 X18.79 Y88.56 F3000.0
S90
G01 Y99.12 F1200.0
S1
G00 X18.99 Y99.12 F3000.0
S90
G01 Y88.56 F1200.0
S1
G00 X19.19 Y88.56 F3000.0
S90
G01 Y99.12 F1200.0
S1
G00 X19.39 Y99.12 F3000.0
S90
G01 Y88.56 F1200.0
S1
G00 X19.59 Y88.56 F3000.0
S90
G01 Y99.12 F1200.0
S1
G00 X19.79 Y99.12 F3000.0
S90
G01 Y88.56 F1200.0
S1
G00 X19.99 Y88.56 F3000.0
S90
G01 Y99.12 F1200.0
S1
G00 X20.19 Y99.12 F3000.0
S90
G01 Y88.56 F1200.0
S1
G00 X20.39 Y88.56 F3000.0
S90
G01 Y99.12 F1200.0
S1
G00 X20.59 Y99.12 F3000.0
S90
G01 Y88.56 F1200.0
S1
G00 X20.79 Y88.56 F3000.0
S90
G01 Y99.12 F1200.0
S1
G00 X20.99 Y99.12 F3000.0
S90
G01 Y88.56 F1200.0
S1
G00 X21.19 Y88.56 F3000.0
S90
G01 Y99.12 F1200.0
S1
G00 X21.39 Y99.12 F3000.0
S90
G01 Y88.56 F1200.0
S1
G00 X21.59 Y88.56 F3000.0
S90
G01 Y99.12 F1200.0
S1
G00 X14.59 Y99.12 F3000.0
S90
G01 Y88.56 F1200.0
S1
G00 X14.39 Y88.56 F3000.0
S90
G01 Y99.12 F1200.0
S1
G00 X14.19 Y99.12 F3000.0
S90
G01 Y88.56 F1200.0
S1
G00 X13.99 Y88.56 F3000.0
S90
G01 Y99.12 F1200.0
S1
G00 X13.79 Y99.12 F3000.0
S90
G01 Y88.56 F1200.0
S1
G00 X13.59 Y88.56 F3000.0
S90
G01 Y99.12 F1200.0
S1
G00 X13.39 Y99.12 F3000.0
S90
G01 Y88.56 F1200.0
S1
G00 X13.19 Y88.56 F3000.0
S90
G01 Y99.12 F1200.0
S1
G00 X12.99 Y99.12 F3000.0
S90
G01 Y88.56 F1200.0
S1
G00 X12.79 Y88.56 F3000.0
S90
G01 Y99.12 F1200.0
S1
G00 X12.59 Y99.12 F3000.0
S90
G01 Y88.56 F1200.0
S1
G00 X12.39 Y88.56 F3000.0
S90
G01 Y99.12 F1200.0
S1
G00 X12.19 Y99.12 F3000.0
S90
G01 Y88.56 F1200.0
S1
G00 X11.99 Y88.56 F3000.0
S90
G01 Y99.12 F1200.0
S1
G00 X11.79 Y99.12 F3000.0
S90
G01 Y88.56 F1200.0
S1
G00 X11.59 Y88.56 F3000.0
S90
G01 Y99.12 F1200.0
S1
G00 X11.39 Y99.12 F3000.0
S90
G01 Y88.56 F1200.0
S1
G00 X7.39 Y81.52 F3000.0
S90
G01 Y106.16 F1200.0
S1
G00 X7.19 Y106.16 F3000.0
S90
G01 Y81.52 F1200.0
S1
G00 X6.99 Y81.52 F3000.0
S90
G01 Y106.16 F1200.0
S1
G00 X6.79 Y106.16 F3000.0
S90
G01 Y81.52 F1200.0
S1
G00 X6.59 Y81.52 F3000.0
S90
G01 Y106.16 F1200.0
S1
G00 X6.39 Y106.16 F3000.0
S90
G01 Y81.52 F1200.0
S1
G00 X6.19 Y81.52 F3000.0
S90
G01 Y106.16 F1200.0
S1
G00 X5.99 Y106.16 F3000.0
S90
G01 Y81.52 F1200.0
S1
G00 X5.79 Y81.52 F3000.0
S90
G01 Y106.16 F1200.0
S1
G00 X5.59 Y106.16 F3000.0
S90
G01 Y81.52 F1200.0
S1
G00 X5.39 Y81.52 F3000.0
S90
G01 Y106.16 F1200.0
S1
G00 X5.19 Y106.16 F3000.0
S90
G01 Y81.52 F1200.0
S1
G00 X4.99 Y81.52 F3000.0
S90
G01 Y106.16 F1200.0
S1
G00 X4.79 Y106.16 F3000.0
S90
G01 Y81.52 F1200.0
S1
G00 X4.59 Y81.52 F3000.0
S90
G01 Y106.16 F1200.0
S1
G00 X4.39 Y106.16 F3000.0
S90
G01 Y81.52 F1200.0
S1
G00 X4.19 Y81.52 F3000.0
S90
G01 Y106.16 F1200.0
S1
G00 X25.59 Y106.16 F3000.0
S90
G01 Y81.52 F1200.0
S1
G00 X25.79 Y81.52 F3000.0
S90
G01 Y106.16 F1200.0
S1
G00 X25.99 Y106.16 F3000.0
S90
G01 Y81.52 F1200.0
S1
G00 X26.19 Y81.52 F3000.0
S90
G01 Y106.16 F1200.0
S1
G00 X26.39 Y106.16 F3000.0
S90
G01 Y81.52 F1200.0
S1
G00 X26.59 Y81.52 F3000.0
S90
G01 Y106.16 F1200.0
S1
G00 X26.79 Y106.16 F3000.0
S90
G01 Y81.52 F1200.0
S1
G00 X26.99 Y81.52 F3000.0
S90
G01 Y106.16 F1200.0
S1
G00 X27.19 Y106.16 F3000.0
S90
G01 Y81.52 F1200.0
S1
G00 X27.39 Y81.52 F3000.0
S90
G01 Y106.16 F1200.0
S1
G00 X27.59 Y106.16 F3000.0
S90
G01 Y81.52 F1200.0
S1
G00 X27.79 Y81.52 F3000.0
S90
G01 Y106.16 F1200.0
S1
G00 X27.99 Y106.16 F3000.0
S90
G01 Y81.52 F1200.0
S1
G00 X28.19 Y81.52 F3000.0
S90
G01 Y106.16 F1200.0
S1
G00 X28.39 Y106.16 F3000.0
S90
G01 Y81.52 F1200.0
S1
G00 X28.59 Y81.52 F3000.0
S90
G01 Y106.16 F1200.0
S1
G00 X28.79 Y106.16 F3000.0
S90
G01 Y81.52 F1200.0
S1
G00 X28.79 Y78. F3000.0
S90
G01 Y70.96 F1200.0
S1
G00 X28.59 Y70.96 F3000.0
S90
G01 Y78.0 F1200.0
S1
G00 X28.39 Y78. F3000.0
S90
G01 Y70.96 F1200.0
S1
G00 X28.19 Y70.96 F3000.0
S90
G01 Y78.0 F1200.0
S1
G00 X27.99 Y78. F3000.0
S90
G01 Y70.96 F1200.0
S1
G00 X27.79 Y70.96 F3000.0
S90
G01 Y78.0 F1200.0
S1
G00 X27.59 Y78. F3000.0
S90
G01 Y70.96 F1200.0
S1
G00 X27.39 Y70.96 F3000.0
S90
G01 Y78.0 F1200.0
S1
G00 X27.19 Y78. F3000.0
S90
G01 Y70.96 F1200.0
S1
G00 X26.99 Y70.96 F3000.0
S90
G01 Y78.0 F1200.0
S1
G00 X26.79 Y78. F3000.0
S90
G01 Y70.96 F1200.0
S1
G00 X26.59 Y70.96 F3000.0
S90
G01 Y78.0 F1200.0
S1
G00 X26.39 Y78. F3000.0
S90
G01 Y70.96 F1200.0
S1
G00 X26.19 Y70.96 F3000.0
S90
G01 Y78.0 F1200.0
S1
G00 X25.99 Y78. F3000.0
S90
G01 Y70.96 F1200.0
S1
G00 X25.79 Y70.96 F3000.0
S90
G01 Y78.0 F1200.0
S1
G00 X25.59 Y78. F3000.0
S90
G01 Y70.96 F1200.0
S1
G00 X25.39 Y70.96 F3000.0
S90
G01 Y78.0 F1200.0
S1
G00 X25.19 Y78. F3000.0
S90
G01 Y70.96 F1200.0
S1
G00 X24.99 Y70.96 F3000.0
S90
G01 Y78.0 F1200.0
S1
G00 X24.79 Y78. F3000.0
S90
G01 Y70.96 F1200.0
S1
G00 X24.59 Y70.96 F3000.0
S90
G01 Y78.0 F1200.0
S1
G00 X24.39 Y78. F3000.0
S90
G01 Y70.96 F1200.0
S1
G00 X24.19 Y70.96 F3000.0
S90
G01 Y78.0 F1200.0
S1
G00 X23.99 Y78. F3000.0
S90
G01 Y70.96 F1200.0
S1
G00 X23.79 Y70.96 F3000.0
S90
G01 Y78.0 F1200.0
S1
G00 X23.59 Y78. F3000.0
S90
G01 Y70.96 F1200.0
S1
G00 X23.39 Y70.96 F3000.0
S90
G01 Y78.0 F1200.0
S1
G00 X23.19 Y78. F3000.0
S90
G01 Y70.96 F1200.0
S1
G00 X22.99 Y70.96 F3000.0
S90
G01 Y78.0 F1200.0
S1
G00 X22.79 Y78. F3000.0
S90
G01 Y70.96 F1200.0
S1
G00 X22.59 Y70.96 F3000.0
S90
G01 Y78.0 F1200.0
S1
G00 X22.39 Y78. F3000.0
S90
G01 Y70.96 F1200.0
S1
G00 X22.19 Y70.96 F3000.0
S90
G01 Y78.0 F1200.0
S1
G00 X21.99 Y78. F3000.0
S90
G01 Y70.96 F1200.0
S1
G00 X21.79 Y70.96 F3000.0
S90
G01 Y78.0 F1200.0
S1
G00 X21.59 Y78. F3000.0
S90
G01 Y70.96 F1200.0
S1
G00 X21.39 Y70.96 F3000.0
S90
G01 Y78.0 F1200.0
S1
G00 X21.19 Y78. F3000.0
S90
G01 Y70.96 F1200.0
S1
G00 X20.99 Y70.96 F3000.0
S90
G01 Y78.0 F1200.0
S1
G00 X20.79 Y78. F3000.0
S90
G01 Y70.96 F1200.0
S1
G00 X20.59 Y70.96 F3000.0
S90
G01 Y78.0 F1200.0
S1
G00 X20.39 Y78. F3000.0
S90
G01 Y70.96 F1200.0
S1
G00 X20.19 Y70.96 F3000.0
S90
G01 Y78.0 F1200.0
S1
G00 X19.99 Y78. F3000.0
S90
G01 Y70.96 F1200.0
S1
G00 X19.79 Y70.96 F3000.0
S90
G01 Y78.0 F1200.0
S1
G00 X19.59 Y78. F3000.0
S90
G01 Y70.96 F1200.0
S1
G00 X19.39 Y70.96 F3000.0
S90
G01 Y78.0 F1200.0
S1
G00 X19.19 Y78. F3000.0
S90
G01 Y70.96 F1200.0
S1
G00 X18.99 Y70.96 F3000.0
S90
G01 Y78.0 F1200.0
S1
G00 X18.79 Y78. F3000.0
S90
G01 Y70.96 F1200.0
S1
G00 X18.59 Y70.96 F3000.0
S90
G01 Y78.0 F1200.0
S1
G00 X18.39 Y78. F3000.0
S90
G01 Y70.96 F1200.0
S1
G00 X18.59 Y67.44 F3000.0
S90
G01 Y56.88 F1200.0
S1
G00 X18.79 Y56.88 F3000.0
S90
G01 Y67.44 F1200.0
S1
G00 X18.99 Y67.44 F3000.0
S90
G01 Y56.88 F1200.0
S1
G00 X19.19 Y56.88 F3000.0
S90
G01 Y67.44 F1200.0
S1
G00 X19.39 Y67.44 F3000.0
S90
G01 Y56.88 F1200.0
S1
G00 X19.59 Y56.88 F3000.0
S90
G01 Y67.44 F1200.0
S1
G00 X19.79 Y67.44 F3000.0
S90
G01 Y56.88 F1200.0
S1
G00 X19.99 Y56.88 F3000.0
S90
G01 Y67.44 F1200.0
S1
G00 X20.19 Y67.44 F3000.0
S90
G01 Y56.88 F1200.0
S1
G00 X20.39 Y56.88 F3000.0
S90
G01 Y67.44 F1200.0
S1
G00 X20.59 Y67.44 F3000.0
S90
G01 Y56.88 F1200.0
S1
G00 X20.79 Y56.88 F3000.0
S90
G01 Y67.44 F1200.0
S1
G00 X20.99 Y67.44 F3000.0
S90
G01 Y56.88 F1200.0
S1
G00 X21.19 Y56.88 F3000.0
S90
G01 Y67.44 F1200.0
S1
G00 X21.39 Y67.44 F3000.0
S90
G01 Y56.88 F1200.0
S1
G00 X21.59 Y56.88 F3000.0
S90
G01 Y67.44 F1200.0
S1
G00 X25.39 Y67.44 F3000.0
S90
G01 Y63.92 F1200.0
S1
G00 X25.59 Y63.92 F3000.0
S90
G01 Y67.44 F1200.0
S1
G00 X25.79 Y67.44 F3000.0
S90
G01 Y63.92 F1200.0
S1
G00 X25.99 Y63.92 F3000.0
S90
G01 Y67.44 F1200.0
S1
G00 X26.19 Y67.44 F3000.0
S90
G01 Y63.92 F1200.0
S1
G00 X26.39 Y63.92 F3000.0
S90
G01 Y67.44 F1200.0
S1
G00 X26.59 Y67.44 F3000.0
S90
G01 Y63.92 F1200.0
S1
G00 X26.79 Y63.92 F3000.0
S90
G01 Y67.44 F1200.0
S1
G00 X26.99 Y67.44 F3000.0
S90
G01 Y63.92 F1200.0
S1
G00 X27.19 Y63.92 F3000.0
S90
G01 Y67.44 F1200.0
S1
G00 X27.39 Y67.44 F3000.0
S90
G01 Y63.92 F1200.0
S1
G00 X27.59 Y63.92 F3000.0
S90
G01 Y67.44 F1200.0
S1
G00 X27.79 Y67.44 F3000.0
S90
G01 Y63.92 F1200.0
S1
G00 X27.99 Y63.92 F3000.0
S90
G01 Y67.44 F1200.0
S1
G00 X28.19 Y67.44 F3000.0
S90
G01 Y63.92 F1200.0
S1
G00 X28.39 Y63.92 F3000.0
S90
G01 Y67.44 F1200.0
S1
G00 X28.59 Y67.44 F3000.0
S90
G01 Y63.92 F1200.0
S1
G00 X28.79 Y63.92 F3000.0
S90
G01 Y67.44 F1200.0
S1
G00 X28.99 Y67.44 F3000.0
S90
G01 Y74.48 F1200.0
S1
G00 X29.19 Y74.48 F3000.0
S90
G01 Y67.44 F1200.0
S1
G00 X29.39 Y67.44 F3000.0
S90
G01 Y74.48 F1200.0
S1
G00 X29.59 Y74.48 F3000.0
S90
G01 Y67.44 F1200.0
S1
G00 X29.79 Y67.44 F3000.0
S90
G01 Y74.48 F1200.0
S1
G00 X29.99 Y74.48 F3000.0
S90
G01 Y67.44 F1200.0
S1
G00 X30.19 Y67.44 F3000.0
S90
G01 Y74.48 F1200.0
S1
G00 X30.39 Y74.48 F3000.0
S90
G01 Y67.44 F1200.0
S1
G00 X30.59 Y67.44 F3000.0
S90
G01 Y74.48 F1200.0
S1
G00 X30.79 Y74.48 F3000.0
S90
G01 Y67.44 F1200.0
S1
G00 X30.99 Y67.44 F3000.0
S90
G01 Y74.48 F1200.0
S1
G00 X31.19 Y74.48 F3000.0
S90
G01 Y67.44 F1200.0
S1
G00 X31.39 Y67.44 F3000.0
S90
G01 Y74.48 F1200.0
S1
G00 X31.59 Y74.48 F3000.0
S90
G01 Y67.44 F1200.0
S1
G00 X31.79 Y67.44 F3000.0
S90
G01 Y74.48 F1200.0
S1
G00 X31.99 Y74.48 F3000.0
S90
G01 Y67.44 F1200.0
S1
G00 X32.19 Y67.44 F3000.0
S90
G01 Y74.48 F1200.0
S1
G00 X32.39 Y74.48 F3000.0
S90
G01 Y78.0 F1200.0
S1
G00 X32.59 Y78. F3000.0
S90
G01 Y74.48 F1200.0
S1
G00 X32.79 Y74.48 F3000.0
S90
G01 Y78.0 F1200.0
S1
G00 X32.99 Y78. F3000.0
S90
G01 Y74.48 F1200.0
S1
G00 X33.19 Y74.48 F3000.0
S90
G01 Y78.0 F1200.0
S1
G00 X33.39 Y78. F3000.0
S90
G01 Y74.48 F1200.0
S1
G00 X33.59 Y74.48 F3000.0
S90
G01 Y78.0 F1200.0
S1
G00 X33.79 Y78. F3000.0
S90
G01 Y74.48 F1200.0
S1
G00 X33.99 Y74.48 F3000.0
S90
G01 Y78.0 F1200.0
S1
G00 X34.19 Y78. F3000.0
S90
G01 Y74.48 F1200.0
S1
G00 X34.39 Y74.48 F3000.0
S90
G01 Y78.0 F1200.0
S1
G00 X34.59 Y78. F3000.0
S90
G01 Y74.48 F1200.0
S1
G00 X34.79 Y74.48 F3000.0
S90
G01 Y78.0 F1200.0
S1
G00 X34.99 Y78. F3000.0
S90
G01 Y74.48 F1200.0
S1
G00 X35.19 Y74.48 F3000.0
S90
G01 Y78.0 F1200.0
S1
G00 X35.39 Y78. F3000.0
S90
G01 Y74.48 F1200.0
S1
G00 X35.59 Y74.48 F3000.0
S90
G01 Y78.0 F1200.0
S1
G00 X35.79 Y78. F3000.0
S90
G01 Y74.48 F1200.0
S1
G00 X35.99 Y74.48 F3000.0
S90
G01 Y70.96 F1200.0
S1
G00 X35.79 Y70.96 F3000.0
S90
G01 Y63.92 F1200.0
S1
G00 X35.99 Y63.92 F3000.0
S90
G01 Y67.44 F1200.0
S1
G00 X36.19 Y67.44 F3000.0
S90
G01 Y63.92 F1200.0
S1
G00 X36.39 Y63.92 F3000.0
S90
G01 Y67.44 F1200.0
S1
G00 X36.59 Y67.44 F3000.0
S90
G01 Y63.92 F1200.0
S1
G00 X36.79 Y63.92 F3000.0
S90
G01 Y67.44 F1200.0
S1
G00 X36.99 Y67.44 F3000.0
S90
G01 Y63.92 F1200.0
S1
G00 X37.19 Y63.92 F3000.0
S90
G01 Y67.44 F1200.0
S1
G00 X37.39 Y67.44 F3000.0
S90
G01 Y63.92 F1200.0
S1
G00 X37.59 Y63.92 F3000.0
S90
G01 Y67.44 F1200.0
S1
G00 X37.79 Y67.44 F3000.0
S90
G01 Y63.92 F1200.0
S1
G00 X37.99 Y63.92 F3000.0
S90
G01 Y67.44 F1200.0
S1
G00 X38.19 Y67.44 F3000.0
S90
G01 Y63.92 F1200.0
S1
G00 X38.39 Y63.92 F3000.0
S90
G01 Y67.44 F1200.0
S1
G00 X38.59 Y67.44 F3000.0
S90
G01 Y63.92 F1200.0
S1
G00 X38.79 Y63.92 F3000.0
S90
G01 Y67.44 F1200.0
S1
G00 X38.99 Y67.44 F3000.0
S90
G01 Y63.92 F1200.0
S1
G00 X39.19 Y63.92 F3000.0
S90
G01 Y67.44 F1200.0
S1
G00 X39.39 Y67.44 F3000.0
S90
G01 Y70.96 F1200.0
S1
G00 X39.59 Y70.96 F3000.0
S90
G01 Y67.44 F1200.0
S1
G00 X39.79 Y67.44 F3000.0
S90
G01 Y70.96 F1200.0
S1
G00 X39.99 Y70.96 F3000.0
S90
G01 Y67.44 F1200.0
S1
G00 X40.19 Y67.44 F3000.0
S90
G01 Y70.96 F1200.0
S1
G00 X40.39 Y70.96 F3000.0
S90
G01 Y67.44 F1200.0
S1
G00 X40.59 Y67.44 F3000.0
S90
G01 Y70.96 F1200.0
S1
G00 X40.79 Y70.96 F3000.0
S90
G01 Y67.44 F1200.0
S1
G00 X40.99 Y67.44 F3000.0
S90
G01 Y70.96 F1200.0
S1
G00 X41.19 Y70.96 F3000.0
S90
G01 Y67.44 F1200.0
S1
G00 X41.39 Y67.44 F3000.0
S90
G01 Y70.96 F1200.0
S1
G00 X41.59 Y70.96 F3000.0
S90
G01 Y67.44 F1200.0
S1
G00 X41.79 Y67.44 F3000.0
S90
G01 Y70.96 F1200.0
S1
G00 X41.99 Y70.96 F3000.0
S90
G01 Y67.44 F1200.0
S1
G00 X42.19 Y67.44 F3000.0
S90
G01 Y70.96 F1200.0
S1
G00 X42.39 Y70.96 F3000.0
S90
G01 Y67.44 F1200.0
S1
G00 X42.59 Y67.44 F3000.0
S90
G01 Y70.96 F1200.0
S1
G00 X42.79 Y70.96 F3000.0
S90
G01 Y67.44 F1200.0
S1
G00 X46.59 Y67.44 F3000.0
S90
G01 Y70.96 F1200.0
S1
G00 X46.79 Y70.96 F3000.0
S90
G01 Y67.44 F1200.0
S1
G00 X46.99 Y67.44 F3000.0
S90
G01 Y70.96 F1200.0
S1
G00 X47.19 Y70.96 F3000.0
S90
G01 Y67.44 F1200.0
S1
G00 X47.39 Y67.44 F3000.0
S90
G01 Y70.96 F1200.0
S1
G00 X47.59 Y70.96 F3000.0
S90
G01 Y67.44 F1200.0
S1
G00 X47.79 Y67.44 F3000.0
S90
G01 Y70.96 F1200.0
S1
G00 X47.99 Y70.96 F3000.0
S90
G01 Y67.44 F1200.0
S1
G00 X48.19 Y67.44 F3000.0
S90
G01 Y70.96 F1200.0
S1
G00 X48.39 Y70.96 F3000.0
S90
G01 Y67.44 F1200.0
S1
G00 X48.59 Y67.44 F3000.0
S90
G01 Y70.96 F1200.0
S1
G00 X48.79 Y70.96 F3000.0
S90
G01 Y67.44 F1200.0
S1
G00 X48.99 Y67.44 F3000.0
S90
G01 Y70.96 F1200.0
S1
G00 X49.19 Y70.96 F3000.0
S90
G01 Y67.44 F1200.0
S1
G00 X49.39 Y67.44 F3000.0
S90
G01 Y70.96 F1200.0
S1
G00 X49.59 Y70.96 F3000.0
S90
G01 Y67.44 F1200.0
S1
G00 X49.79 Y67.44 F3000.0
S90
G01 Y70.96 F1200.0
S1
G00 X49.99 Y74.48 F3000.0
S90
G01 Y67.44 F1200.0
S1
G00 X50.19 Y67.44 F3000.0
S90
G01 Y74.48 F1200.0
S1
G00 X50.39 Y74.48 F3000.0
S90
G01 Y67.44 F1200.0
S1
G00 X50.59 Y67.44 F3000.0
S90
G01 Y74.48 F1200.0
S1
G00 X50.79 Y74.48 F3000.0
S90
G01 Y67.44 F1200.0
S1
G00 X50.99 Y67.44 F3000.0
S90
G01 Y74.48 F1200.0
S1
G00 X51.19 Y74.48 F3000.0
S90
G01 Y67.44 F1200.0
S1
G00 X51.39 Y67.44 F3000.0
S90
G01 Y74.48 F1200.0
S1
G00 X51.59 Y74.48 F3000.0
S90
G01 Y67.44 F1200.0
S1
G00 X51.79 Y67.44 F3000.0
S90
G01 Y74.48 F1200.0
S1
G00 X51.99 Y74.48 F3000.0
S90
G01 Y67.44 F1200.0
S1
G00 X52.19 Y67.44 F3000.0
S90
G01 Y74.48 F1200.0
S1
G00 X52.39 Y74.48 F3000.0
S90
G01 Y67.44 F1200.0
S1
G00 X52.59 Y67.44 F3000.0
S90
G01 Y74.48 F1200.0
S1
G00 X52.79 Y74.48 F3000.0
S90
G01 Y67.44 F1200.0
S1
G00 X52.99 Y67.44 F3000.0
S90
G01 Y74.48 F1200.0
S1
G00 X53.19 Y74.48 F3000.0
S90
G01 Y67.44 F1200.0
S1
G00 X53.39 Y67.44 F3000.0
S90
G01 Y74.48 F1200.0
S1
G00 X53.59 Y74.48 F3000.0
S90
G01 Y67.44 F1200.0
S1
G00 X53.79 Y67.44 F3000.0
S90
G01 Y74.48 F1200.0
S1
G00 X53.99 Y74.48 F3000.0
S90
G01 Y67.44 F1200.0
S1
G00 X54.19 Y67.44 F3000.0
S90
G01 Y74.48 F1200.0
S1
G00 X54.39 Y74.48 F3000.0
S90
G01 Y67.44 F1200.0
S1
G00 X54.59 Y67.44 F3000.0
S90
G01 Y74.48 F1200.0
S1
G00 X54.79 Y74.48 F3000.0
S90
G01 Y67.44 F1200.0
S1
G00 X54.99 Y67.44 F3000.0
S90
G01 Y74.48 F1200.0
S1
G00 X55.19 Y74.48 F3000.0
S90
G01 Y67.44 F1200.0
S1
G00 X55.39 Y67.44 F3000.0
S90
G01 Y74.48 F1200.0
S1
G00 X55.59 Y74.48 F3000.0
S90
G01 Y67.44 F1200.0
S1
G00 X55.79 Y67.44 F3000.0
S90
G01 Y74.48 F1200.0
S1
G00 X55.99 Y74.48 F3000.0
S90
G01 Y67.44 F1200.0
S1
G00 X56.19 Y67.44 F3000.0
S90
G01 Y74.48 F1200.0
S1
G00 X56.39 Y74.48 F3000.0
S90
G01 Y67.44 F1200.0
S1
G00 X56.59 Y67.44 F3000.0
S90
G01 Y74.48 F1200.0
S1
G00 X56.79 Y74.48 F3000.0
S90
G01 Y67.44 F1200.0
S1
G00 X56.99 Y67.44 F3000.0
S90
G01 Y74.48 F1200.0
S1
G00 X57.19 Y74.48 F3000.0
S90
G01 Y67.44 F1200.0
S1
G00 X57.39 Y67.44 F3000.0
S90
G01 Y74.48 F1200.0
S1
G00 X57.59 Y74.48 F3000.0
S90
G01 Y67.44 F1200.0
S1
G00 X57.79 Y67.44 F3000.0
S90
G01 Y74.48 F1200.0
S1
G00 X57.99 Y74.48 F3000.0
S90
G01 Y67.44 F1200.0
S1
G00 X58.19 Y67.44 F3000.0
S90
G01 Y74.48 F1200.0
S1
G00 X58.39 Y74.48 F3000.0
S90
G01 Y67.44 F1200.0
S1
G00 X58.59 Y67.44 F3000.0
S90
G01 Y74.48 F1200.0
S1
G00 X58.79 Y74.48 F3000.0
S90
G01 Y67.44 F1200.0
S1
G00 X58.99 Y67.44 F3000.0
S90
G01 Y74.48 F1200.0
S1
G00 X59.19 Y74.48 F3000.0
S90
G01 Y67.44 F1200.0
S1
G00 X59.39 Y67.44 F3000.0
S90
G01 Y74.48 F1200.0
S1
G00 X59.59 Y74.48 F3000.0
S90
G01 Y67.44 F1200.0
S1
G00 X59.79 Y67.44 F3000.0
S90
G01 Y74.48 F1200.0
S1
G00 X59.99 Y74.48 F3000.0
S90
G01 Y67.44 F1200.0
S1
G00 X60.19 Y67.44 F3000.0
S90
G01 Y74.48 F1200.0
S1
G00 X60.39 Y74.48 F3000.0
S90
G01 Y67.44 F1200.0
S1
G00 X60.39 Y63.85 F3000.0
S90
G01 Y46.81 F1200.0
S1
G00 X60.19 Y46.69 F3000.0
S90
G01 Y63.96 F1200.0
S1
G00 X59.99 Y64.07 F3000.0
S90
G01 Y53.24 F1200.0
S1
G00 X59.79 Y53.58 F3000.0
S90
G01 Y64.18 F1200.0
S1
G00 X59.59 Y64.29 F3000.0
S90
G01 Y53.7 F1200.0
S1
G00 X59.39 Y53.75 F3000.0
S90
G01 Y64.41 F1200.0
S1
G00 X59.19 Y64.52 F3000.0
S90
G01 Y53.82 F1200.0
S1
G00 X58.99 Y53.89 F3000.0
S90
G01 Y64.59 F1200.0
S1
G00 X58.79 Y64.67 F3000.0
S90
G01 Y54.07 F1200.0
S1
G00 X58.59 Y54.3 F3000.0
S90
G01 Y64.74 F1200.0
S1
G00 X58.39 Y64.82 F3000.0
S90
G01 Y54.82 F1200.0
S1
G00 X58.19 Y55.4 F3000.0
S90
G01 Y59.94 F1200.0
S1
G00 X58.19 Y60.27 F3000.0
S90
G01 Y64.9 F1200.0
S1
G00 X57.99 Y64.97 F3000.0
S90
G01 Y60.49 F1200.0
S1
G00 X57.79 Y60.56 F3000.0
S90
G01 Y65.05 F1200.0
S1
G00 X57.59 Y65.09 F3000.0
S90
G01 Y60.64 F1200.0
S1
G00 X57.39 Y60.71 F3000.0
S90
G01 Y65.13 F1200.0
S1
G00 X57.19 Y65.18 F3000.0
S90
G01 Y60.78 F1200.0
S1
G00 X56.99 Y60.86 F3000.0
S90
G01 Y65.22 F1200.0
S1
G00 X56.79 Y65.27 F3000.0
S90
G01 Y60.94 F1200.0
S1
G00 X56.59 Y61.01 F3000.0
S90
G01 Y65.31 F1200.0
S1
G00 X56.39 Y65.35 F3000.0
S90
G01 Y61.14 F1200.0
S1
G00 X56.19 Y61.31 F3000.0
S90
G01 Y65.37 F1200.0
S1
G00 X55.99 Y65.39 F3000.0
S90
G01 Y61.47 F1200.0
S1
G00 X55.79 Y61.64 F3000.0
S90
G01 Y65.4 F1200.0
S1
G00 X55.59 Y65.42 F3000.0
S90
G01 Y61.81 F1200.0
S1
G00 X55.39 Y61.99 F3000.0
S90
G01 Y65.43 F1200.0
S1
G00 X55.19 Y65.45 F3000.0
S90
G01 Y62.12 F1200.0
S1
G00 X54.99 Y62.15 F3000.0
S90
G01 Y65.46 F1200.0
S1
G00 X54.79 Y65.47 F3000.0
S90
G01 Y62.18 F1200.0
S1
G00 X54.59 Y62.06 F3000.0
S90
G01 Y65.45 F1200.0
S1
G00 X54.39 Y65.43 F3000.0
S90
G01 Y61.9 F1200.0
S1
G00 X54.19 Y61.1 F3000.0
S90
G01 Y65.41 F1200.0
S1
G00 X53.99 Y65.39 F3000.0
S90
G01 Y60.99 F1200.0
S1
G00 X53.79 Y61.11 F3000.0
S90
G01 Y65.37 F1200.0
S1
G00 X53.59 Y65.35 F3000.0
S90
G01 Y61.21 F1200.0
S1
G00 X53.39 Y61.31 F3000.0
S90
G01 Y65.34 F1200.0
S1
G00 X53.19 Y65.32 F3000.0
S90
G01 Y61.4 F1200.0
S1
G00 X52.99 Y61.47 F3000.0
S90
G01 Y65.3 F1200.0
S1
G00 X52.79 Y65.28 F3000.0
S90
G01 Y61.45 F1200.0
S1
G00 X52.59 Y61.43 F3000.0
S90
G01 Y65.23 F1200.0
S1
G00 X52.39 Y65.17 F3000.0
S90
G01 Y61.34 F1200.0
S1
G00 X52.19 Y61.15 F3000.0
S90
G01 Y65.11 F1200.0
S1
G00 X51.99 Y65.05 F3000.0
S90
G01 Y59.81 F1200.0
S1
G00 X51.79 Y59.56 F3000.0
S90
G01 Y65.0 F1200.0
S1
G00 X51.59 Y64.94 F3000.0
S90
G01 Y59.36 F1200.0
S1
G00 X51.39 Y59.16 F3000.0
S90
G01 Y64.88 F1200.0
S1
G00 X51.19 Y64.82 F3000.0
S90
G01 Y58.97 F1200.0
S1
G00 X50.99 Y58.76 F3000.0
S90
G01 Y64.76 F1200.0
S1
G00 X50.79 Y64.69 F3000.0
S90
G01 Y58.56 F1200.0
S1
G00 X50.59 Y58.36 F3000.0
S90
G01 Y64.59 F1200.0
S1
G00 X50.39 Y64.48 F3000.0
S90
G01 Y58.15 F1200.0
S1
G00 X50.19 Y57.74 F3000.0
S90
G01 Y64.38 F1200.0
S1
G00 X49.99 Y64.27 F3000.0
S90
G01 Y57.27 F1200.0
S1
G00 X49.99 Y57.1 F3000.0
S90
G01 Y46.36 F1200.0
S1
G00 X49.79 Y46.47 F3000.0
S90
G01 Y64.17 F1200.0
S1
G00 X49.59 Y64.06 F3000.0
S90
G01 Y46.57 F1200.0
S1
G00 X49.39 Y46.68 F3000.0
S90
G01 Y63.95 F1200.0
S1
G00 X49.19 Y63.85 F3000.0
S90
G01 Y46.78 F1200.0
S1
G00 X48.99 Y46.93 F3000.0
S90
G01 Y63.7 F1200.0
S1
G00 X48.79 Y63.54 F3000.0
S90
G01 Y47.09 F1200.0
S1
G00 X48.59 Y47.26 F3000.0
S90
G01 Y63.37 F1200.0
S1
G00 X48.39 Y63.2 F3000.0
S90
G01 Y47.43 F1200.0
S1
G00 X48.19 Y47.59 F3000.0
S90
G01 Y63.04 F1200.0
S1
G00 X47.99 Y62.87 F3000.0
S90
G01 Y47.76 F1200.0
S1
G00 X47.79 Y47.92 F3000.0
S90
G01 Y62.71 F1200.0
S1
G00 X47.59 Y62.51 F3000.0
S90
G01 Y48.12 F1200.0
S1
G00 X47.39 Y48.37 F3000.0
S90
G01 Y62.26 F1200.0
S1
G00 X47.19 Y62.01 F3000.0
S90
G01 Y48.62 F1200.0
S1
G00 X46.99 Y48.87 F3000.0
S90
G01 Y61.76 F1200.0
S1
G00 X46.79 Y61.5 F3000.0
S90
G01 Y49.13 F1200.0
S1
G00 X46.59 Y49.38 F3000.0
S90
G01 Y61.25 F1200.0
S1
G00 X46.39 Y60.93 F3000.0
S90
G01 Y49.7 F1200.0
S1
G00 X46.19 Y50.09 F3000.0
S90
G01 Y60.54 F1200.0
S1
G00 X45.99 Y60.15 F3000.0
S90
G01 Y50.48 F1200.0
S1
G00 X45.79 Y50.88 F3000.0
S90
G01 Y59.75 F1200.0
S1
G00 X45.59 Y59.33 F3000.0
S90
G01 Y51.3 F1200.0
S1
G00 X45.39 Y52.01 F3000.0
S90
G01 Y58.62 F1200.0
S1
G00 X45.19 Y57.91 F3000.0
S90
G01 Y52.72 F1200.0
S1
G00 X44.99 Y53.96 F3000.0
S90
G01 Y56.67 F1200.0
S1
G00 X42.79 Y53.36 F3000.0
S90
G01 Y60.4 F1200.0
S1
G00 X42.59 Y60.4 F3000.0
S90
G01 Y53.36 F1200.0
S1
G00 X42.39 Y53.36 F3000.0
S90
G01 Y60.4 F1200.0
S1
G00 X42.19 Y60.4 F3000.0
S90
G01 Y53.36 F1200.0
S1
G00 X41.99 Y53.36 F3000.0
S90
G01 Y60.4 F1200.0
S1
G00 X41.79 Y60.4 F3000.0
S90
G01 Y53.36 F1200.0
S1
G00 X41.59 Y53.36 F3000.0
S90
G01 Y60.4 F1200.0
S1
G00 X41.39 Y60.4 F3000.0
S90
G01 Y53.36 F1200.0
S1
G00 X41.19 Y53.36 F3000.0
S90
G01 Y60.4 F1200.0
S1
G00 X40.99 Y60.4 F3000.0
S90
G01 Y53.36 F1200.0
S1
G00 X40.79 Y53.36 F3000.0
S90
G01 Y60.4 F1200.0
S1
G00 X40.59 Y60.4 F3000.0
S90
G01 Y53.36 F1200.0
S1
G00 X40.39 Y53.36 F3000.0
S90
G01 Y60.4 F1200.0
S1
G00 X40.19 Y60.4 F3000.0
S90
G01 Y53.36 F1200.0
S1
G00 X39.99 Y53.36 F3000.0
S90
G01 Y60.4 F1200.0
S1
G00 X39.79 Y60.4 F3000.0
S90
G01 Y53.36 F1200.0
S1
G00 X39.59 Y53.36 F3000.0
S90
G01 Y60.4 F1200.0
S1
G00 X39.39 Y60.4 F3000.0
S90
G01 Y53.36 F1200.0
S1
G00 X39.19 Y49.84 F3000.0
S90
G01 Y46.32 F1200.0
S1
G00 X38.99 Y46.32 F3000.0
S90
G01 Y49.84 F1200.0
S1
G00 X38.79 Y49.84 F3000.0
S90
G01 Y46.32 F1200.0
S1
G00 X38.59 Y46.32 F3000.0
S90
G01 Y49.84 F1200.0
S1
G00 X38.39 Y49.84 F3000.0
S90
G01 Y46.32 F1200.0
S1
G00 X38.19 Y46.32 F3000.0
S90
G01 Y49.84 F1200.0
S1
G00 X37.99 Y49.84 F3000.0
S90
G01 Y46.32 F1200.0
S1
G00 X37.79 Y46.32 F3000.0
S90
G01 Y49.84 F1200.0
S1
G00 X37.59 Y49.84 F3000.0
S90
G01 Y46.32 F1200.0
S1
G00 X37.39 Y46.32 F3000.0
S90
G01 Y49.84 F1200.0
S1
G00 X37.19 Y49.84 F3000.0
S90
G01 Y46.32 F1200.0
S1
G00 X36.99 Y46.32 F3000.0
S90
G01 Y49.84 F1200.0
S1
G00 X36.79 Y49.84 F3000.0
S90
G01 Y46.32 F1200.0
S1
G00 X36.59 Y46.32 F3000.0
S90
G01 Y49.84 F1200.0
S1
G00 X36.39 Y49.84 F3000.0
S90
G01 Y46.32 F1200.0
S1
G00 X36.19 Y46.32 F3000.0
S90
G01 Y49.84 F1200.0
S1
G00 X35.99 Y49.84 F3000.0
S90
G01 Y46.32 F1200.0
S1
G00 X35.79 Y49.84 F3000.0
S90
G01 Y42.8 F1200.0
S1
G00 X35.59 Y42.8 F3000.0
S90
G01 Y49.84 F1200.0
S1
G00 X35.39 Y49.84 F3000.0
S90
G01 Y42.8 F1200.0
S1
G00 X35.19 Y42.8 F3000.0
S90
G01 Y49.84 F1200.0
S1
G00 X34.99 Y49.84 F3000.0
S90
G01 Y42.8 F1200.0
S1
G00 X34.79 Y42.8 F3000.0
S90
G01 Y49.84 F1200.0
S1
G00 X34.59 Y49.84 F3000.0
S90
G01 Y42.8 F1200.0
S1
G00 X34.39 Y42.8 F3000.0
S90
G01 Y49.84 F1200.0
S1
G00 X34.19 Y49.84 F3000.0
S90
G01 Y42.8 F1200.0
S1
G00 X33.99 Y42.8 F3000.0
S90
G01 Y49.84 F1200.0
S1
G00 X33.79 Y49.84 F3000.0
S90
G01 Y42.8 F1200.0
S1
G00 X33.59 Y42.8 F3000.0
S90
G01 Y49.84 F1200.0
S1
G00 X33.39 Y49.84 F3000.0
S90
G01 Y42.8 F1200.0
S1
G00 X33.19 Y42.8 F3000.0
S90
G01 Y49.84 F1200.0
S1
G00 X32.99 Y49.84 F3000.0
S90
G01 Y42.8 F1200.0
S1
G00 X32.79 Y42.8 F3000.0
S90
G01 Y49.84 F1200.0
S1
G00 X32.59 Y49.84 F3000.0
S90
G01 Y42.8 F1200.0
S1
G00 X32.59 Y39.28 F3000.0
S90
G01 Y14.64 F1200.0
S1
G00 X32.79 Y14.64 F3000.0
S90
G01 Y39.28 F1200.0
S1
G00 X32.99 Y39.28 F3000.0
S90
G01 Y14.64 F1200.0
S1
G00 X33.19 Y14.64 F3000.0
S90
G01 Y39.28 F1200.0
S1
G00 X33.39 Y39.28 F3000.0
S90
G01 Y14.64 F1200.0
S1
G00 X33.59 Y14.64 F3000.0
S90
G01 Y39.28 F1200.0
S1
G00 X33.79 Y39.28 F3000.0
S90
G01 Y14.64 F1200.0
S1
G00 X33.99 Y14.64 F3000.0
S90
G01 Y39.28 F1200.0
S1
G00 X34.19 Y39.28 F3000.0
S90
G01 Y14.64 F1200.0
S1
G00 X34.39 Y14.64 F3000.0
S90
G01 Y39.28 F1200.0
S1
G00 X34.59 Y39.28 F3000.0
S90
G01 Y14.64 F1200.0
S1
G00 X34.79 Y14.64 F3000.0
S90
G01 Y39.28 F1200.0
S1
G00 X34.99 Y39.28 F3000.0
S90
G01 Y14.64 F1200.0
S1
G00 X35.19 Y14.64 F3000.0
S90
G01 Y39.28 F1200.0
S1
G00 X35.39 Y39.28 F3000.0
S90
G01 Y14.64 F1200.0
S1
G00 X35.59 Y14.64 F3000.0
S90
G01 Y39.28 F1200.0
S1
G00 X35.79 Y39.28 F3000.0
S90
G01 Y14.64 F1200.0
S1
G00 X35.79 Y11.12 F3000.0
S90
G01 Y7.6 F1200.0
S1
G00 X35.59 Y7.6 F3000.0
S90
G01 Y11.12 F1200.0
S1
G00 X35.39 Y11.12 F3000.0
S90
G01 Y7.6 F1200.0
S1
G00 X35.19 Y7.6 F3000.0
S90
G01 Y11.12 F1200.0
S1
G00 X34.99 Y11.12 F3000.0
S90
G01 Y7.6 F1200.0
S1
G00 X34.79 Y7.6 F3000.0
S90
G01 Y11.12 F1200.0
S1
G00 X34.59 Y11.12 F3000.0
S90
G01 Y7.6 F1200.0
S1
G00 X34.39 Y7.6 F3000.0
S90
G01 Y11.12 F1200.0
S1
G00 X34.19 Y11.12 F3000.0
S90
G01 Y7.6 F1200.0
S1
G00 X33.99 Y7.6 F3000.0
S90
G01 Y11.12 F1200.0
S1
G00 X33.79 Y11.12 F3000.0
S90
G01 Y7.6 F1200.0
S1
G00 X33.59 Y7.6 F3000.0
S90
G01 Y11.12 F1200.0
S1
G00 X33.39 Y11.12 F3000.0
S90
G01 Y7.6 F1200.0
S1
G00 X33.19 Y7.6 F3000.0
S90
G01 Y11.12 F1200.0
S1
G00 X32.99 Y11.12 F3000.0
S90
G01 Y7.6 F1200.0
S1
G00 X32.79 Y7.6 F3000.0
S90
G01 Y11.12 F1200.0
S1
G00 X32.59 Y11.12 F3000.0
S90
G01 Y7.6 F1200.0
S1
G00 X32.39 Y7.6 F3000.0
S90
G01 Y11.12 F1200.0
S1
G00 X35.99 Y11.12 F3000.0
S90
G01 Y4.08 F1200.0
S1
G00 X36.19 Y4.08 F3000.0
S90
G01 Y11.12 F1200.0
S1
G00 X36.39 Y11.12 F3000.0
S90
G01 Y4.08 F1200.0
S1
G00 X36.59 Y4.08 F3000.0
S90
G01 Y11.12 F1200.0
S1
G00 X36.79 Y11.12 F3000.0
S90
G01 Y4.08 F1200.0
S1
G00 X36.99 Y4.08 F3000.0
S90
G01 Y11.12 F1200.0
S1
G00 X37.19 Y11.12 F3000.0
S90
G01 Y4.08 F1200.0
S1
G00 X37.39 Y4.08 F3000.0
S90
G01 Y11.12 F1200.0
S1
G00 X37.59 Y11.12 F3000.0
S90
G01 Y4.08 F1200.0
S1
G00 X37.79 Y4.08 F3000.0
S90
G01 Y11.12 F1200.0
S1
G00 X37.99 Y11.12 F3000.0
S90
G01 Y4.08 F1200.0
S1
G00 X38.19 Y4.08 F3000.0
S90
G01 Y11.12 F1200.0
S1
G00 X38.39 Y11.12 F3000.0
S90
G01 Y4.08 F1200.0
S1
G00 X38.59 Y4.08 F3000.0
S90
G01 Y11.12 F1200.0
S1
G00 X38.79 Y11.12 F3000.0
S90
G01 Y4.08 F1200.0
S1
G00 X38.99 Y4.08 F3000.0
S90
G01 Y11.12 F1200.0
S1
G00 X39.19 Y11.12 F3000.0
S90
G01 Y4.08 F1200.0
S1
G00 X39.39 Y7.6 F3000.0
S90
G01 Y14.64 F1200.0
S1
G00 X39.59 Y14.64 F3000.0
S90
G01 Y7.6 F1200.0
S1
G00 X39.79 Y7.6 F3000.0
S90
G01 Y14.64 F1200.0
S1
G00 X39.99 Y14.64 F3000.0
S90
G01 Y7.6 F1200.0
S1
G00 X40.19 Y7.6 F3000.0
S90
G01 Y14.64 F1200.0
S1
G00 X40.39 Y14.64 F3000.0
S90
G01 Y7.6 F1200.0
S1
G00 X40.59 Y7.6 F3000.0
S90
G01 Y14.64 F1200.0
S1
G00 X40.79 Y14.64 F3000.0
S90
G01 Y7.6 F1200.0
S1
G00 X40.99 Y7.6 F3000.0
S90
G01 Y14.64 F1200.0
S1
G00 X41.19 Y14.64 F3000.0
S90
G01 Y7.6 F1200.0
S1
G00 X41.39 Y7.6 F3000.0
S90
G01 Y14.64 F1200.0
S1
G00 X41.59 Y14.64 F3000.0
S90
G01 Y7.6 F1200.0
S1
G00 X41.79 Y7.6 F3000.0
S90
G01 Y14.64 F1200.0
S1
G00 X41.99 Y14.64 F3000.0
S90
G01 Y7.6 F1200.0
S1
G00 X42.19 Y7.6 F3000.0
S90
G01 Y14.64 F1200.0
S1
G00 X42.39 Y14.64 F3000.0
S90
G01 Y7.6 F1200.0
S1
G00 X42.59 Y7.6 F3000.0
S90
G01 Y14.64 F1200.0
S1
G00 X42.79 Y14.64 F3000.0
S90
G01 Y7.6 F1200.0
S1
G00 X42.99 Y7.6 F3000.0
S90
G01 Y4.08 F1200.0
S1
G00 X43.19 Y4.08 F3000.0
S90
G01 Y7.6 F1200.0
S1
G00 X43.39 Y7.6 F3000.0
S90
G01 Y4.08 F1200.0
S1
G00 X43.59 Y4.08 F3000.0
S90
G01 Y7.6 F1200.0
S1
G00 X43.79 Y7.6 F3000.0
S90
G01 Y4.08 F1200.0
S1
G00 X43.99 Y4.08 F3000.0
S90
G01 Y7.6 F1200.0
S1
G00 X44.19 Y7.6 F3000.0
S90
G01 Y4.08 F1200.0
S1
G00 X44.39 Y4.08 F3000.0
S90
G01 Y7.6 F1200.0
S1
G00 X44.59 Y7.6 F3000.0
S90
G01 Y4.08 F1200.0
S1
G00 X44.79 Y4.08 F3000.0
S90
G01 Y7.6 F1200.0
S1
G00 X44.99 Y7.6 F3000.0
S90
G01 Y4.08 F1200.0
S1
G00 X45.19 Y4.08 F3000.0
S90
G01 Y7.6 F1200.0
S1
G00 X45.39 Y7.6 F3000.0
S90
G01 Y4.08 F1200.0
S1
G00 X45.59 Y4.08 F3000.0
S90
G01 Y7.6 F1200.0
S1
G00 X45.79 Y7.6 F3000.0
S90
G01 Y4.08 F1200.0
S1
G00 X45.99 Y4.08 F3000.0
S90
G01 Y7.6 F1200.0
S1
G00 X46.19 Y7.6 F3000.0
S90
G01 Y4.08 F1200.0
S1
G00 X46.39 Y4.08 F3000.0
S90
G01 Y7.6 F1200.0
S1
G00 X46.39 Y11.12 F3000.0
S90
G01 Y21.68 F1200.0
S1
G00 X46.19 Y21.68 F3000.0
S90
G01 Y11.12 F1200.0
S1
G00 X45.99 Y11.12 F3000.0
S90
G01 Y21.68 F1200.0
S1
G00 X45.79 Y21.68 F3000.0
S90
G01 Y11.12 F1200.0
S1
G00 X45.59 Y11.12 F3000.0
S90
G01 Y21.68 F1200.0
S1
G00 X45.39 Y21.68 F3000.0
S90
G01 Y11.12 F1200.0
S1
G00 X45.19 Y11.12 F3000.0
S90
G01 Y21.68 F1200.0
S1
G00 X44.99 Y21.68 F3000.0
S90
G01 Y11.12 F1200.0
S1
G00 X44.79 Y11.12 F3000.0
S90
G01 Y21.68 F1200.0
S1
G00 X44.59 Y21.68 F3000.0
S90
G01 Y11.12 F1200.0
S1
G00 X44.39 Y11.12 F3000.0
S90
G01 Y21.68 F1200.0
S1
G00 X44.19 Y21.68 F3000.0
S90
G01 Y11.12 F1200.0
S1
G00 X43.99 Y11.12 F3000.0
S90
G01 Y21.68 F1200.0
S1
G00 X43.79 Y21.68 F3000.0
S90
G01 Y11.12 F1200.0
S1
G00 X43.59 Y11.12 F3000.0
S90
G01 Y21.68 F1200.0
S1
G00 X43.39 Y21.68 F3000.0
S90
G01 Y11.12 F1200.0
S1
G00 X43.19 Y11.12 F3000.0
S90
G01 Y21.68 F1200.0
S1
G00 X42.99 Y21.68 F3000.0
S90
G01 Y11.12 F1200.0
S1
G00 X46.59 Y11.12 F3000.0
S90
G01 Y14.64 F1200.0
S1
G00 X46.79 Y14.64 F3000.0
S90
G01 Y11.12 F1200.0
S1
G00 X46.99 Y11.12 F3000.0
S90
G01 Y14.64 F1200.0
S1
G00 X47.19 Y14.64 F3000.0
S90
G01 Y11.12 F1200.0
S1
G00 X47.39 Y11.12 F3000.0
S90
G01 Y14.64 F1200.0
S1
G00 X47.59 Y14.64 F3000.0
S90
G01 Y11.12 F1200.0
S1
G00 X47.79 Y11.12 F3000.0
S90
G01 Y14.64 F1200.0
S1
G00 X47.99 Y14.64 F3000.0
S90
G01 Y11.12 F1200.0
S1
G00 X48.19 Y11.12 F3000.0
S90
G01 Y14.64 F1200.0
S1
G00 X48.39 Y14.64 F3000.0
S90
G01 Y11.12 F1200.0
S1
G00 X48.59 Y11.12 F3000.0
S90
G01 Y14.64 F1200.0
S1
G00 X48.79 Y14.64 F3000.0
S90
G01 Y11.12 F1200.0
S1
G00 X48.99 Y11.12 F3000.0
S90
G01 Y14.64 F1200.0
S1
G00 X49.19 Y14.64 F3000.0
S90
G01 Y11.12 F1200.0
S1
G00 X49.39 Y11.12 F3000.0
S90
G01 Y14.64 F1200.0
S1
G00 X49.59 Y14.64 F3000.0
S90
G01 Y11.12 F1200.0
S1
G00 X49.79 Y11.12 F3000.0
S90
G01 Y14.64 F1200.0
S1
G00 X49.99 Y14.64 F3000.0
S90
G01 Y7.6 F1200.0
S1
G00 X50.19 Y7.6 F3000.0
S90
G01 Y14.64 F1200.0
S1
G00 X50.39 Y14.64 F3000.0
S90
G01 Y7.6 F1200.0
S1
G00 X50.59 Y7.6 F3000.0
S90
G01 Y14.64 F1200.0
S1
G00 X50.79 Y14.64 F3000.0
S90
G01 Y7.6 F1200.0
S1
G00 X50.99 Y7.6 F3000.0
S90
G01 Y14.64 F1200.0
S1
G00 X51.19 Y14.64 F3000.0
S90
G01 Y7.6 F1200.0
S1
G00 X51.39 Y7.6 F3000.0
S90
G01 Y14.64 F1200.0
S1
G00 X51.59 Y14.64 F3000.0
S90
G01 Y7.6 F1200.0
S1
G00 X51.79 Y7.6 F3000.0
S90
G01 Y14.64 F1200.0
S1
G00 X51.99 Y14.64 F3000.0
S90
G01 Y7.6 F1200.0
S1
G00 X52.19 Y7.6 F3000.0
S90
G01 Y14.64 F1200.0
S1
G00 X52.39 Y14.64 F3000.0
S90
G01 Y7.6 F1200.0
S1
G00 X52.59 Y7.6 F3000.0
S90
G01 Y14.64 F1200.0
S1
G00 X52.79 Y14.64 F3000.0
S90
G01 Y7.6 F1200.0
S1
G00 X52.99 Y7.6 F3000.0
S90
G01 Y14.64 F1200.0
S1
G00 X53.19 Y14.64 F3000.0
S90
G01 Y7.6 F1200.0
S1
G00 X53.39 Y7.6 F3000.0
S90
G01 Y14.64 F1200.0
S1
G00 X53.39 Y18.16 F3000.0
S90
G01 Y28.72 F1200.0
S1
G00 X53.19 Y28.72 F3000.0
S90
G01 Y18.16 F1200.0
S1
G00 X52.99 Y18.16 F3000.0
S90
G01 Y28.72 F1200.0
S1
G00 X52.79 Y28.72 F3000.0
S90
G01 Y18.16 F1200.0
S1
G00 X52.59 Y18.16 F3000.0
S90
G01 Y28.72 F1200.0
S1
G00 X52.39 Y28.72 F3000.0
S90
G01 Y18.16 F1200.0
S1
G00 X52.19 Y18.16 F3000.0
S90
G01 Y28.72 F1200.0
S1
G00 X51.99 Y28.72 F3000.0
S90
G01 Y18.16 F1200.0
S1
G00 X51.79 Y18.16 F3000.0
S90
G01 Y28.72 F1200.0
S1
G00 X51.59 Y28.72 F3000.0
S90
G01 Y18.16 F1200.0
S1
G00 X51.39 Y18.16 F3000.0
S90
G01 Y28.72 F1200.0
S1
G00 X51.19 Y28.72 F3000.0
S90
G01 Y18.16 F1200.0
S1
G00 X50.99 Y18.16 F3000.0
S90
G01 Y28.72 F1200.0
S1
G00 X50.79 Y28.72 F3000.0
S90
G01 Y18.16 F1200.0
S1
G00 X50.59 Y18.16 F3000.0
S90
G01 Y28.72 F1200.0
S1
G00 X50.39 Y28.72 F3000.0
S90
G01 Y18.16 F1200.0
S1
G00 X50.19 Y18.16 F3000.0
S90
G01 Y28.72 F1200.0
S1
G00 X49.99 Y28.72 F3000.0
S90
G01 Y18.16 F1200.0
S1
G00 X49.79 Y18.16 F3000.0
S90
G01 Y25.2 F1200.0
S1
G00 X49.59 Y25.2 F3000.0
S90
G01 Y18.16 F1200.0
S1
G00 X49.39 Y18.16 F3000.0
S90
G01 Y25.2 F1200.0
S1
G00 X49.19 Y25.2 F3000.0
S90
G01 Y18.16 F1200.0
S1
G00 X48.99 Y18.16 F3000.0
S90
G01 Y25.2 F1200.0
S1
G00 X48.79 Y25.2 F3000.0
S90
G01 Y18.16 F1200.0
S1
G00 X48.59 Y18.16 F3000.0
S90
G01 Y25.2 F1200.0
S1
G00 X48.39 Y25.2 F3000.0
S90
G01 Y18.16 F1200.0
S1
G00 X48.19 Y18.16 F3000.0
S90
G01 Y25.2 F1200.0
S1
G00 X47.99 Y25.2 F3000.0
S90
G01 Y18.16 F1200.0
S1
G00 X47.79 Y18.16 F3000.0
S90
G01 Y25.2 F1200.0
S1
G00 X47.59 Y25.2 F3000.0
S90
G01 Y18.16 F1200.0
S1
G00 X47.39 Y18.16 F3000.0
S90
G01 Y25.2 F1200.0
S1
G00 X47.19 Y25.2 F3000.0
S90
G01 Y18.16 F1200.0
S1
G00 X46.99 Y18.16 F3000.0
S90
G01 Y25.2 F1200.0
S1
G00 X46.79 Y25.2 F3000.0
S90
G01 Y18.16 F1200.0
S1
G00 X46.59 Y18.16 F3000.0
S90
G01 Y25.2 F1200.0
S1
G00 X53.59 Y25.2 F3000.0
S90
G01 Y21.68 F1200.0
S1
G00 X53.79 Y21.68 F3000.0
S90
G01 Y25.2 F1200.0
S1
G00 X53.99 Y25.2 F3000.0
S90
G01 Y21.68 F1200.0
S1
G00 X54.19 Y21.68 F3000.0
S90
G01 Y25.2 F1200.0
S1
G00 X54.39 Y25.2 F3000.0
S90
G01 Y21.68 F1200.0
S1
G00 X54.59 Y21.68 F3000.0
S90
G01 Y25.2 F1200.0
S1
G00 X54.79 Y25.2 F3000.0
S90
G01 Y21.68 F1200.0
S1
G00 X54.99 Y21.68 F3000.0
S90
G01 Y25.2 F1200.0
S1
G00 X55.19 Y25.2 F3000.0
S90
G01 Y21.68 F1200.0
S1
G00 X55.39 Y21.68 F3000.0
S90
G01 Y25.2 F1200.0
S1
G00 X55.59 Y25.2 F3000.0
S90
G01 Y21.68 F1200.0
S1
G00 X55.79 Y21.68 F3000.0
S90
G01 Y25.2 F1200.0
S1
G00 X55.99 Y25.2 F3000.0
S90
G01 Y21.68 F1200.0
S1
G00 X56.19 Y21.68 F3000.0
S90
G01 Y25.2 F1200.0
S1
G00 X56.39 Y25.2 F3000.0
S90
G01 Y21.68 F1200.0
S1
G00 X56.59 Y21.68 F3000.0
S90
G01 Y25.2 F1200.0
S1
G00 X56.79 Y25.2 F3000.0
S90
G01 Y21.68 F1200.0
S1
G00 X56.79 Y18.16 F3000.0
S90
G01 Y11.12 F1200.0
S1
G00 X56.59 Y11.12 F3000.0
S90
G01 Y18.16 F1200.0
S1
G00 X56.39 Y18.16 F3000.0
S90
G01 Y11.12 F1200.0
S1
G00 X56.19 Y11.12 F3000.0
S90
G01 Y18.16 F1200.0
S1
G00 X55.99 Y18.16 F3000.0
S90
G01 Y11.12 F1200.0
S1
G00 X55.79 Y11.12 F3000.0
S90
G01 Y18.16 F1200.0
S1
G00 X55.59 Y18.16 F3000.0
S90
G01 Y11.12 F1200.0
S1
G00 X55.39 Y11.12 F3000.0
S90
G01 Y18.16 F1200.0
S1
G00 X55.19 Y18.16 F3000.0
S90
G01 Y11.12 F1200.0
S1
G00 X54.99 Y11.12 F3000.0
S90
G01 Y18.16 F1200.0
S1
G00 X54.79 Y18.16 F3000.0
S90
G01 Y11.12 F1200.0
S1
G00 X54.59 Y11.12 F3000.0
S90
G01 Y18.16 F1200.0
S1
G00 X54.39 Y18.16 F3000.0
S90
G01 Y11.12 F1200.0
S1
G00 X54.19 Y11.12 F3000.0
S90
G01 Y18.16 F1200.0
S1
G00 X53.99 Y18.16 F3000.0
S90
G01 Y11.12 F1200.0
S1
G00 X53.79 Y11.12 F3000.0
S90
G01 Y18.16 F1200.0
S1
G00 X53.59 Y18.16 F3000.0
S90
G01 Y11.12 F1200.0
S1
G00 X53.59 Y7.6 F3000.0
S90
G01 Y4.08 F1200.0
S1
G00 X53.79 Y4.08 F3000.0
S90
G01 Y7.6 F1200.0
S1
G00 X53.99 Y7.6 F3000.0
S90
G01 Y4.08 F1200.0
S1
G00 X54.19 Y4.08 F3000.0
S90
G01 Y7.6 F1200.0
S1
G00 X54.39 Y7.6 F3000.0
S90
G01 Y4.08 F1200.0
S1
G00 X54.59 Y4.08 F3000.0
S90
G01 Y7.6 F1200.0
S1
G00 X54.79 Y7.6 F3000.0
S90
G01 Y4.08 F1200.0
S1
G00 X54.99 Y4.08 F3000.0
S90
G01 Y7.6 F1200.0
S1
G00 X55.19 Y7.6 F3000.0
S90
G01 Y4.08 F1200.0
S1
G00 X55.39 Y4.08 F3000.0
S90
G01 Y7.6 F1200.0
S1
G00 X55.59 Y7.6 F3000.0
S90
G01 Y4.08 F1200.0
S1
G00 X55.79 Y4.08 F3000.0
S90
G01 Y7.6 F1200.0
S1
G00 X55.99 Y7.6 F3000.0
S90
G01 Y4.08 F1200.0
S1
G00 X56.19 Y4.08 F3000.0
S90
G01 Y7.6 F1200.0
S1
G00 X56.39 Y7.6 F3000.0
S90
G01 Y4.08 F1200.0
S1
G00 X56.59 Y4.08 F3000.0
S90
G01 Y7.6 F1200.0
S1
G00 X56.79 Y7.6 F3000.0
S90
G01 Y4.08 F1200.0
S1
G00 X56.99 Y4.08 F3000.0
S90
G01 Y7.6 F1200.0
S1
G00 X57.19 Y7.6 F3000.0
S90
G01 Y4.08 F1200.0
S1
G00 X57.39 Y4.08 F3000.0
S90
G01 Y7.6 F1200.0
S1
G00 X57.59 Y7.6 F3000.0
S90
G01 Y4.08 F1200.0
S1
G00 X57.79 Y4.08 F3000.0
S90
G01 Y7.6 F1200.0
S1
G00 X57.99 Y7.6 F3000.0
S90
G01 Y4.08 F1200.0
S1
G00 X58.19 Y4.08 F3000.0
S90
G01 Y7.6 F1200.0
S1
G00 X58.39 Y7.6 F3000.0
S90
G01 Y4.08 F1200.0
S1
G00 X58.59 Y4.08 F3000.0
S90
G01 Y7.6 F1200.0
S1
G00 X58.79 Y7.6 F3000.0
S90
G01 Y4.08 F1200.0
S1
G00 X58.99 Y4.08 F3000.0
S90
G01 Y7.6 F1200.0
S1
G00 X59.19 Y7.6 F3000.0
S90
G01 Y4.08 F1200.0
S1
G00 X59.39 Y4.08 F3000.0
S90
G01 Y7.6 F1200.0
S1
G00 X59.59 Y7.6 F3000.0
S90
G01 Y4.08 F1200.0
S1
G00 X59.79 Y4.08 F3000.0
S90
G01 Y7.6 F1200.0
S1
G00 X59.99 Y7.6 F3000.0
S90
G01 Y4.08 F1200.0
S1
G00 X60.19 Y4.08 F3000.0
S90
G01 Y7.6 F1200.0
S1
G00 X60.39 Y7.6 F3000.0
S90
G01 Y4.08 F1200.0
S1
G00 X60.59 Y4.08 F3000.0
S90
G01 Y7.6 F1200.0
S1
G00 X60.79 Y7.6 F3000.0
S90
G01 Y4.08 F1200.0
S1
G00 X60.99 Y4.08 F3000.0
S90
G01 Y7.6 F1200.0
S1
G00 X61.19 Y7.6 F3000.0
S90
G01 Y4.08 F1200.0
S1
G00 X61.39 Y4.08 F3000.0
S90
G01 Y7.6 F1200.0
S1
G00 X61.59 Y7.6 F3000.0
S90
G01 Y4.08 F1200.0
S1
G00 X61.79 Y4.08 F3000.0
S90
G01 Y7.6 F1200.0
S1
G00 X61.99 Y7.6 F3000.0
S90
G01 Y4.08 F1200.0
S1
G00 X62.19 Y4.08 F3000.0
S90
G01 Y7.6 F1200.0
S1
G00 X62.39 Y7.6 F3000.0
S90
G01 Y4.08 F1200.0
S1
G00 X62.59 Y4.08 F3000.0
S90
G01 Y7.6 F1200.0
S1
G00 X62.79 Y7.6 F3000.0
S90
G01 Y4.08 F1200.0
S1
G00 X62.99 Y4.08 F3000.0
S90
G01 Y7.6 F1200.0
S1
G00 X63.19 Y7.6 F3000.0
S90
G01 Y4.08 F1200.0
S1
G00 X63.39 Y4.08 F3000.0
S90
G01 Y7.6 F1200.0
S1
G00 X63.59 Y7.6 F3000.0
S90
G01 Y4.08 F1200.0
S1
G00 X63.79 Y4.08 F3000.0
S90
G01 Y7.6 F1200.0
S1
G00 X63.99 Y7.6 F3000.0
S90
G01 Y4.08 F1200.0
S1
G00 X64.19 Y4.08 F3000.0
S90
G01 Y14.64 F1200.0
S1
G00 X64.39 Y14.64 F3000.0
S90
G01 Y4.08 F1200.0
S1
G00 X64.59 Y4.08 F3000.0
S90
G01 Y14.64 F1200.0
S1
G00 X64.79 Y14.64 F3000.0
S90
G01 Y4.08 F1200.0
S1
G00 X64.99 Y4.08 F3000.0
S90
G01 Y14.64 F1200.0
S1
G00 X65.19 Y14.64 F3000.0
S90
G01 Y4.08 F1200.0
S1
G00 X65.39 Y4.08 F3000.0
S90
G01 Y14.64 F1200.0
S1
G00 X65.59 Y14.64 F3000.0
S90
G01 Y4.08 F1200.0
S1
G00 X65.79 Y4.08 F3000.0
S90
G01 Y14.64 F1200.0
S1
G00 X65.99 Y14.64 F3000.0
S90
G01 Y4.08 F1200.0
S1
G00 X66.19 Y4.08 F3000.0
S90
G01 Y14.64 F1200.0
S1
G00 X66.39 Y14.64 F3000.0
S90
G01 Y4.08 F1200.0
S1
G00 X66.59 Y4.08 F3000.0
S90
G01 Y14.64 F1200.0
S1
G00 X66.79 Y14.64 F3000.0
S90
G01 Y4.08 F1200.0
S1
G00 X66.99 Y4.08 F3000.0
S90
G01 Y14.64 F1200.0
S1
G00 X67.19 Y14.64 F3000.0
S90
G01 Y4.08 F1200.0
S1
G00 X67.39 Y4.08 F3000.0
S90
G01 Y14.64 F1200.0
S1
G00 X63.99 Y14.64 F3000.0
S90
G01 Y25.2 F1200.0
S1
G00 X63.79 Y25.2 F3000.0
S90
G01 Y14.64 F1200.0
S1
G00 X63.59 Y14.64 F3000.0
S90
G01 Y25.2 F1200.0
S1
G00 X63.39 Y25.2 F3000.0
S90
G01 Y14.64 F1200.0
S1
G00 X63.19 Y14.64 F3000.0
S90
G01 Y25.2 F1200.0
S1
G00 X62.99 Y25.2 F3000.0
S90
G01 Y14.64 F1200.0
S1
G00 X62.79 Y14.64 F3000.0
S90
G01 Y25.2 F1200.0
S1
G00 X62.59 Y25.2 F3000.0
S90
G01 Y14.64 F1200.0
S1
G00 X62.39 Y14.64 F3000.0
S90
G01 Y25.2 F1200.0
S1
G00 X62.19 Y25.2 F3000.0
S90
G01 Y14.64 F1200.0
S1
G00 X61.99 Y14.64 F3000.0
S90
G01 Y25.2 F1200.0
S1
G00 X61.79 Y25.2 F3000.0
S90
G01 Y14.64 F1200.0
S1
G00 X61.59 Y14.64 F3000.0
S90
G01 Y25.2 F1200.0
S1
G00 X61.39 Y25.2 F3000.0
S90
G01 Y14.64 F1200.0
S1
G00 X61.19 Y14.64 F3000.0
S90
G01 Y25.2 F1200.0
S1
G00 X60.99 Y25.2 F3000.0
S90
G01 Y14.64 F1200.0
S1
G00 X60.79 Y14.64 F3000.0
S90
G01 Y25.2 F1200.0
S1
G00 X60.59 Y25.2 F3000.0
S90
G01 Y14.64 F1200.0
S1
G00 X60.39 Y14.64 F3000.0
S90
G01 Y18.16 F1200.0
S1
G00 X60.19 Y18.16 F3000.0
S90
G01 Y14.64 F1200.0
S1
G00 X59.99 Y14.64 F3000.0
S90
G01 Y18.16 F1200.0
S1
G00 X59.79 Y18.16 F3000.0
S90
G01 Y14.64 F1200.0
S1
G00 X59.59 Y14.64 F3000.0
S90
G01 Y18.16 F1200.0
S1
G00 X59.39 Y18.16 F3000.0
S90
G01 Y14.64 F1200.0
S1
G00 X59.19 Y14.64 F3000.0
S90
G01 Y18.16 F1200.0
S1
G00 X58.99 Y18.16 F3000.0
S90
G01 Y14.64 F1200.0
S1
G00 X58.79 Y14.64 F3000.0
S90
G01 Y18.16 F1200.0
S1
G00 X58.59 Y18.16 F3000.0
S90
G01 Y14.64 F1200.0
S1
G00 X58.39 Y14.64 F3000.0
S90
G01 Y18.16 F1200.0
S1
G00 X58.19 Y18.16 F3000.0
S90
G01 Y14.64 F1200.0
S1
G00 X57.99 Y14.64 F3000.0
S90
G01 Y18.16 F1200.0
S1
G00 X57.79 Y18.16 F3000.0
S90
G01 Y14.64 F1200.0
S1
G00 X57.59 Y14.64 F3000.0
S90
G01 Y18.16 F1200.0
S1
G00 X57.39 Y18.16 F3000.0
S90
G01 Y14.64 F1200.0
S1
G00 X57.19 Y14.64 F3000.0
S90
G01 Y18.16 F1200.0
S1
G00 X56.99 Y18.16 F3000.0
S90
G01 Y14.64 F1200.0
S1
G00 X64.19 Y18.16 F3000.0
S90
G01 Y25.2 F1200.0
S1
G00 X64.39 Y25.2 F3000.0
S90
G01 Y18.16 F1200.0
S1
G00 X64.59 Y18.16 F3000.0
S90
G01 Y25.2 F1200.0
S1
G00 X64.79 Y25.2 F3000.0
S90
G01 Y18.16 F1200.0
S1
G00 X64.99 Y18.16 F3000.0
S90
G01 Y25.2 F1200.0
S1
G00 X65.19 Y25.2 F3000.0
S90
G01 Y18.16 F1200.0
S1
G00 X65.39 Y18.16 F3000.0
S90
G01 Y25.2 F1200.0
S1
G00 X65.59 Y25.2 F3000.0
S90
G01 Y18.16 F1200.0
S1
G00 X65.79 Y18.16 F3000.0
S90
G01 Y25.2 F1200.0
S1
G00 X65.99 Y25.2 F3000.0
S90
G01 Y18.16 F1200.0
S1
G00 X66.19 Y18.16 F3000.0
S90
G01 Y25.2 F1200.0
S1
G00 X66.39 Y25.2 F3000.0
S90
G01 Y18.16 F1200.0
S1
G00 X66.59 Y18.16 F3000.0
S90
G01 Y25.2 F1200.0
S1
G00 X66.79 Y25.2 F3000.0
S90
G01 Y18.16 F1200.0
S1
G00 X66.99 Y18.16 F3000.0
S90
G01 Y25.2 F1200.0
S1
G00 X67.19 Y25.2 F3000.0
S90
G01 Y18.16 F1200.0
S1
G00 X67.39 Y18.16 F3000.0
S90
G01 Y25.2 F1200.0
S1
G00 X67.59 Y25.2 F3000.0
S90
G01 Y35.76 F1200.0
S1
G00 X67.79 Y35.76 F3000.0
S90
G01 Y25.2 F1200.0
S1
G00 X67.99 Y25.2 F3000.0
S90
G01 Y35.76 F1200.0
S1
G00 X68.19 Y35.76 F3000.0
S90
G01 Y25.2 F1200.0
S1
G00 X68.39 Y25.2 F3000.0
S90
G01 Y35.76 F1200.0
S1
G00 X68.59 Y35.76 F3000.0
S90
G01 Y25.2 F1200.0
S1
G00 X68.79 Y25.2 F3000.0
S90
G01 Y35.76 F1200.0
S1
G00 X68.99 Y35.76 F3000.0
S90
G01 Y25.2 F1200.0
S1
G00 X69.19 Y25.2 F3000.0
S90
G01 Y35.76 F1200.0
S1
G00 X69.39 Y35.76 F3000.0
S90
G01 Y25.2 F1200.0
S1
G00 X69.59 Y25.2 F3000.0
S90
G01 Y35.76 F1200.0
S1
G00 X69.79 Y35.76 F3000.0
S90
G01 Y25.2 F1200.0
S1
G00 X69.99 Y25.2 F3000.0
S90
G01 Y35.76 F1200.0
S1
G00 X70.19 Y35.76 F3000.0
S90
G01 Y25.2 F1200.0
S1
G00 X70.39 Y25.2 F3000.0
S90
G01 Y35.76 F1200.0
S1
G00 X70.59 Y35.76 F3000.0
S90
G01 Y25.2 F1200.0
S1
G00 X70.79 Y25.2 F3000.0
S90
G01 Y35.76 F1200.0
S1
G00 X70.99 Y35.76 F3000.0
S90
G01 Y25.2 F1200.0
S1
G00 X74.59 Y25.2 F3000.0
S90
G01 Y11.12 F1200.0
S1
G00 X74.79 Y11.12 F3000.0
S90
G01 Y25.2 F1200.0
S1
G00 X74.99 Y25.2 F3000.0
S90
G01 Y11.12 F1200.0
S1
G00 X75.19 Y11.12 F3000.0
S90
G01 Y25.2 F1200.0
S1
G00 X75.39 Y25.2 F3000.0
S90
G01 Y11.12 F1200.0
S1
G00 X75.59 Y11.12 F3000.0
S90
G01 Y25.2 F1200.0
S1
G00 X75.79 Y25.2 F3000.0
S90
G01 Y11.12 F1200.0
S1
G00 X75.99 Y11.12 F3000.0
S90
G01 Y25.2 F1200.0
S1
G00 X76.19 Y25.2 F3000.0
S90
G01 Y11.12 F1200.0
S1
G00 X76.39 Y11.12 F3000.0
S90
G01 Y25.2 F1200.0
S1
G00 X76.59 Y25.2 F3000.0
S90
G01 Y11.12 F1200.0
S1
G00 X76.79 Y11.12 F3000.0
S90
G01 Y25.2 F1200.0
S1
G00 X76.99 Y25.2 F3000.0
S90
G01 Y11.12 F1200.0
S1
G00 X77.19 Y11.12 F3000.0
S90
G01 Y25.2 F1200.0
S1
G00 X77.39 Y25.2 F3000.0
S90
G01 Y11.12 F1200.0
S1
G00 X77.59 Y11.12 F3000.0
S90
G01 Y25.2 F1200.0
S1
G00 X77.79 Y25.2 F3000.0
S90
G01 Y11.12 F1200.0
S1
G00 X77.99 Y11.12 F3000.0
S90
G01 Y25.2 F1200.0
S1
G00 X77.99 Y28.72 F3000.0
S90
G01 Y35.76 F1200.0
S1
G00 X77.79 Y35.76 F3000.0
S90
G01 Y28.72 F1200.0
S1
G00 X77.59 Y28.72 F3000.0
S90
G01 Y35.76 F1200.0
S1
G00 X77.39 Y35.76 F3000.0
S90
G01 Y28.72 F1200.0
S1
G00 X77.19 Y28.72 F3000.0
S90
G01 Y35.76 F1200.0
S1
G00 X76.99 Y35.76 F3000.0
S90
G01 Y28.72 F1200.0
S1
G00 X76.79 Y28.72 F3000.0
S90
G01 Y35.76 F1200.0
S1
G00 X76.59 Y35.76 F3000.0
S90
G01 Y28.72 F1200.0
S1
G00 X76.39 Y28.72 F3000.0
S90
G01 Y35.76 F1200.0
S1
G00 X76.19 Y35.76 F3000.0
S90
G01 Y28.72 F1200.0
S1
G00 X75.99 Y28.72 F3000.0
S90
G01 Y35.76 F1200.0
S1
G00 X75.79 Y35.76 F3000.0
S90
G01 Y28.72 F1200.0
S1
G00 X75.59 Y28.72 F3000.0
S90
G01 Y35.76 F1200.0
S1
G00 X75.39 Y35.76 F3000.0
S90
G01 Y28.72 F1200.0
S1
G00 X75.19 Y28.72 F3000.0
S90
G01 Y35.76 F1200.0
S1
G00 X74.99 Y35.76 F3000.0
S90
G01 Y28.72 F1200.0
S1
G00 X74.79 Y28.72 F3000.0
S90
G01 Y35.76 F1200.0
S1
G00 X74.59 Y35.76 F3000.0
S90
G01 Y28.72 F1200.0
S1
G00 X74.39 Y32.24 F3000.0
S90
G01 Y39.28 F1200.0
S1
G00 X74.19 Y39.28 F3000.0
S90
G01 Y32.24 F1200.0
S1
G00 X73.99 Y32.24 F3000.0
S90
G01 Y39.28 F1200.0
S1
G00 X73.79 Y39.28 F3000.0
S90
G01 Y32.24 F1200.0
S1
G00 X73.59 Y32.24 F3000.0
S90
G01 Y39.28 F1200.0
S1
G00 X73.39 Y39.28 F3000.0
S90
G01 Y32.24 F1200.0
S1
G00 X73.19 Y32.24 F3000.0
S90
G01 Y39.28 F1200.0
S1
G00 X72.99 Y39.28 F3000.0
S90
G01 Y32.24 F1200.0
S1
G00 X72.79 Y32.24 F3000.0
S90
G01 Y39.28 F1200.0
S1
G00 X72.59 Y39.28 F3000.0
S90
G01 Y32.24 F1200.0
S1
G00 X72.39 Y32.24 F3000.0
S90
G01 Y39.28 F1200.0
S1
G00 X72.19 Y39.28 F3000.0
S90
G01 Y32.24 F1200.0
S1
G00 X71.99 Y32.24 F3000.0
S90
G01 Y39.28 F1200.0
S1
G00 X71.79 Y39.28 F3000.0
S90
G01 Y32.24 F1200.0
S1
G00 X71.59 Y32.24 F3000.0
S90
G01 Y39.28 F1200.0
S1
G00 X71.39 Y39.28 F3000.0
S90
G01 Y32.24 F1200.0
S1
G00 X71.19 Y32.24 F3000.0
S90
G01 Y39.28 F1200.0
S1
G00 X70.99 Y39.28 F3000.0
S90
G01 Y53.36 F1200.0
S1
G00 X70.79 Y53.36 F3000.0
S90
G01 Y39.28 F1200.0
S1
G00 X70.59 Y39.28 F3000.0
S90
G01 Y53.36 F1200.0
S1
G00 X70.39 Y53.36 F3000.0
S90
G01 Y39.28 F1200.0
S1
G00 X70.19 Y39.28 F3000.0
S90
G01 Y53.36 F1200.0
S1
G00 X69.99 Y53.36 F3000.0
S90
G01 Y39.28 F1200.0
S1
G00 X69.79 Y39.28 F3000.0
S90
G01 Y53.36 F1200.0
S1
G00 X69.59 Y53.36 F3000.0
S90
G01 Y39.28 F1200.0
S1
G00 X69.39 Y39.28 F3000.0
S90
G01 Y53.36 F1200.0
S1
G00 X69.19 Y53.36 F3000.0
S90
G01 Y39.28 F1200.0
S1
G00 X68.99 Y39.28 F3000.0
S90
G01 Y53.36 F1200.0
S1
G00 X68.79 Y53.36 F3000.0
S90
G01 Y39.28 F1200.0
S1
G00 X68.59 Y39.28 F3000.0
S90
G01 Y53.36 F1200.0
S1
G00 X68.39 Y53.36 F3000.0
S90
G01 Y39.28 F1200.0
S1
G00 X68.19 Y39.28 F3000.0
S90
G01 Y53.36 F1200.0
S1
G00 X67.99 Y53.36 F3000.0
S90
G01 Y39.28 F1200.0
S1
G00 X67.79 Y39.28 F3000.0
S90
G01 Y53.36 F1200.0
S1
G00 X67.59 Y53.36 F3000.0
S90
G01 Y39.28 F1200.0
S1
G00 X67.39 Y42.8 F3000.0
S90
G01 Y32.24 F1200.0
S1
G00 X67.19 Y32.24 F3000.0
S90
G01 Y42.8 F1200.0
S1
G00 X66.99 Y42.8 F3000.0
S90
G01 Y32.24 F1200.0
S1
G00 X66.79 Y32.24 F3000.0
S90
G01 Y42.8 F1200.0
S1
G00 X66.59 Y42.8 F3000.0
S90
G01 Y32.24 F1200.0
S1
G00 X66.39 Y32.24 F3000.0
S90
G01 Y42.8 F1200.0
S1
G00 X66.19 Y42.8 F3000.0
S90
G01 Y32.24 F1200.0
S1
G00 X65.99 Y32.24 F3000.0
S90
G01 Y42.8 F1200.0
S1
G00 X65.79 Y42.8 F3000.0
S90
G01 Y32.24 F1200.0
S1
G00 X65.59 Y32.24 F3000.0
S90
G01 Y42.8 F1200.0
S1
G00 X65.39 Y42.8 F3000.0
S90
G01 Y32.24 F1200.0
S1
G00 X65.19 Y32.24 F3000.0
S90
G01 Y42.8 F1200.0
S1
G00 X64.99 Y42.8 F3000.0
S90
G01 Y32.24 F1200.0
S1
G00 X64.79 Y32.24 F3000.0
S90
G01 Y42.8 F1200.0
S1
G00 X64.59 Y42.8 F3000.0
S90
G01 Y32.24 F1200.0
S1
G00 X64.39 Y32.24 F3000.0
S90
G01 Y42.8 F1200.0
S1
G00 X64.19 Y42.8 F3000.0
S90
G01 Y32.24 F1200.0
S1
G00 X63.99 Y32.24 F3000.0
S90
G01 Y28.72 F1200.0
S1
G00 X63.79 Y28.72 F3000.0
S90
G01 Y32.24 F1200.0
S1
G00 X63.59 Y32.24 F3000.0
S90
G01 Y28.72 F1200.0
S1
G00 X63.39 Y28.72 F3000.0
S90
G01 Y32.24 F1200.0
S1
G00 X63.19 Y32.24 F3000.0
S90
G01 Y28.72 F1200.0
S1
G00 X62.99 Y28.72 F3000.0
S90
G01 Y32.24 F1200.0
S1
G00 X62.79 Y32.24 F3000.0
S90
G01 Y28.72 F1200.0
S1
G00 X62.59 Y28.72 F3000.0
S90
G01 Y32.24 F1200.0
S1
G00 X62.39 Y32.24 F3000.0
S90
G01 Y28.72 F1200.0
S1
G00 X62.19 Y28.72 F3000.0
S90
G01 Y32.24 F1200.0
S1
G00 X61.99 Y32.24 F3000.0
S90
G01 Y28.72 F1200.0
S1
G00 X61.79 Y28.72 F3000.0
S90
G01 Y32.24 F1200.0
S1
G00 X61.59 Y32.24 F3000.0
S90
G01 Y28.72 F1200.0
S1
G00 X61.39 Y28.72 F3000.0
S90
G01 Y32.24 F1200.0
S1
G00 X61.19 Y32.24 F3000.0
S90
G01 Y28.72 F1200.0
S1
G00 X60.99 Y28.72 F3000.0
S90
G01 Y32.24 F1200.0
S1
G00 X60.79 Y32.24 F3000.0
S90
G01 Y28.72 F1200.0
S1
G00 X60.59 Y28.72 F3000.0
S90
G01 Y32.24 F1200.0
S1
G00 X60.59 Y35.76 F3000.0
S90
G01 Y42.8 F1200.0
S1
G00 X60.39 Y42.8 F3000.0
S90
G01 Y35.76 F1200.0
S1
G00 X60.19 Y35.76 F3000.0
S90
G01 Y42.8 F1200.0
S1
G00 X59.99 Y42.8 F3000.0
S90
G01 Y35.76 F1200.0
S1
G00 X59.79 Y35.76 F3000.0
S90
G01 Y42.8 F1200.0
S1
G00 X59.59 Y42.8 F3000.0
S90
G01 Y35.76 F1200.0
S1
G00 X59.39 Y35.76 F3000.0
S90
G01 Y42.8 F1200.0
S1
G00 X59.19 Y42.8 F3000.0
S90
G01 Y35.76 F1200.0
S1
G00 X58.99 Y35.76 F3000.0
S90
G01 Y42.8 F1200.0
S1
G00 X58.79 Y42.8 F3000.0
S90
G01 Y35.76 F1200.0
S1
G00 X58.59 Y35.76 F3000.0
S90
G01 Y42.8 F1200.0
S1
G00 X58.39 Y42.8 F3000.0
S90
G01 Y35.76 F1200.0
S1
G00 X58.19 Y35.76 F3000.0
S90
G01 Y42.8 F1200.0
S1
G00 X57.99 Y42.8 F3000.0
S90
G01 Y35.76 F1200.0
S1
G00 X57.79 Y35.76 F3000.0
S90
G01 Y42.8 F1200.0
S1
G00 X57.59 Y42.8 F3000.0
S90
G01 Y35.76 F1200.0
S1
G00 X57.39 Y35.76 F3000.0
S90
G01 Y42.8 F1200.0
S1
G00 X57.19 Y42.8 F3000.0
S90
G01 Y35.76 F1200.0
S1
G00 X56.99 Y35.76 F3000.0
S90
G01 Y42.8 F1200.0
S1
G00 X56.79 Y42.8 F3000.0
S90
G01 Y39.28 F1200.0
S1
G00 X56.59 Y39.28 F3000.0
S90
G01 Y42.8 F1200.0
S1
G00 X56.39 Y42.8 F3000.0
S90
G01 Y39.28 F1200.0
S1
G00 X56.19 Y39.28 F3000.0
S90
G01 Y42.8 F1200.0
S1
G00 X55.99 Y42.8 F3000.0
S90
G01 Y39.28 F1200.0
S1
G00 X55.79 Y39.28 F3000.0
S90
G01 Y42.8 F1200.0
S1
G00 X55.59 Y42.8 F3000.0
S90
G01 Y39.28 F1200.0
S1
G00 X55.39 Y39.28 F3000.0
S90
G01 Y42.8 F1200.0
S1
G00 X55.19 Y42.8 F3000.0
S90
G01 Y39.28 F1200.0
S1
G00 X54.99 Y39.28 F3000.0
S90
G01 Y42.8 F1200.0
S1
G00 X54.79 Y42.8 F3000.0
S90
G01 Y39.28 F1200.0
S1
G00 X54.59 Y39.28 F3000.0
S90
G01 Y42.8 F1200.0
S1
G00 X54.39 Y42.8 F3000.0
S90
G01 Y39.28 F1200.0
S1
G00 X54.19 Y39.28 F3000.0
S90
G01 Y42.8 F1200.0
S1
G00 X53.99 Y42.8 F3000.0
S90
G01 Y39.28 F1200.0
S1
G00 X53.79 Y39.28 F3000.0
S90
G01 Y42.8 F1200.0
S1
G00 X53.59 Y42.8 F3000.0
S90
G01 Y39.28 F1200.0
S1
G00 X53.39 Y39.28 F3000.0
S90
G01 Y42.8 F1200.0
S1
G00 X53.19 Y42.8 F3000.0
S90
G01 Y39.28 F1200.0
S1
G00 X52.99 Y39.28 F3000.0
S90
G01 Y42.8 F1200.0
S1
G00 X52.79 Y42.8 F3000.0
S90
G01 Y39.28 F1200.0
S1
G00 X52.59 Y39.28 F3000.0
S90
G01 Y42.8 F1200.0
S1
G00 X52.39 Y42.8 F3000.0
S90
G01 Y39.28 F1200.0
S1
G00 X52.19 Y39.28 F3000.0
S90
G01 Y42.8 F1200.0
S1
G00 X51.99 Y42.8 F3000.0
S90
G01 Y39.28 F1200.0
S1
G00 X51.79 Y39.28 F3000.0
S90
G01 Y42.8 F1200.0
S1
G00 X51.59 Y42.8 F3000.0
S90
G01 Y39.28 F1200.0
S1
G00 X51.39 Y39.28 F3000.0
S90
G01 Y42.8 F1200.0
S1
G00 X51.19 Y42.8 F3000.0
S90
G01 Y39.28 F1200.0
S1
G00 X50.99 Y39.28 F3000.0
S90
G01 Y42.8 F1200.0
S1
G00 X50.79 Y42.8 F3000.0
S90
G01 Y39.28 F1200.0
S1
G00 X50.59 Y39.28 F3000.0
S90
G01 Y42.8 F1200.0
S1
G00 X50.39 Y42.8 F3000.0
S90
G01 Y39.28 F1200.0
S1
G00 X50.19 Y39.28 F3000.0
S90
G01 Y42.8 F1200.0
S1
G00 X49.99 Y42.8 F3000.0
S90
G01 Y39.28 F1200.0
S1
G00 X49.99 Y35.76 F3000.0
S90
G01 Y32.24 F1200.0
S1
G00 X49.79 Y32.24 F3000.0
S90
G01 Y35.76 F1200.0
S1
G00 X49.59 Y35.76 F3000.0
S90
G01 Y32.24 F1200.0
S1
G00 X49.39 Y32.24 F3000.0
S90
G01 Y35.76 F1200.0
S1
G00 X49.19 Y35.76 F3000.0
S90
G01 Y32.24 F1200.0
S1
G00 X48.99 Y32.24 F3000.0
S90
G01 Y35.76 F1200.0
S1
G00 X48.79 Y35.76 F3000.0
S90
G01 Y32.24 F1200.0
S1
G00 X48.59 Y32.24 F3000.0
S90
G01 Y35.76 F1200.0
S1
G00 X48.39 Y35.76 F3000.0
S90
G01 Y32.24 F1200.0
S1
G00 X48.19 Y32.24 F3000.0
S90
G01 Y35.76 F1200.0
S1
G00 X47.99 Y35.76 F3000.0
S90
G01 Y32.24 F1200.0
S1
G00 X47.79 Y32.24 F3000.0
S90
G01 Y35.76 F1200.0
S1
G00 X47.59 Y35.76 F3000.0
S90
G01 Y32.24 F1200.0
S1
G00 X47.39 Y32.24 F3000.0
S90
G01 Y35.76 F1200.0
S1
G00 X47.19 Y35.76 F3000.0
S90
G01 Y32.24 F1200.0
S1
G00 X46.99 Y32.24 F3000.0
S90
G01 Y35.76 F1200.0
S1
G00 X46.79 Y35.76 F3000.0
S90
G01 Y32.24 F1200.0
S1
G00 X46.59 Y32.24 F3000.0
S90
G01 Y35.76 F1200.0
S1
G00 X50.19 Y35.76 F3000.0
S90
G01 Y32.24 F1200.0
S1
G00 X50.39 Y32.24 F3000.0
S90
G01 Y35.76 F1200.0
S1
G00 X50.59 Y35.76 F3000.0
S90
G01 Y32.24 F1200.0
S1
G00 X50.79 Y32.24 F3000.0
S90
G01 Y35.76 F1200.0
S1
G00 X50.99 Y35.76 F3000.0
S90
G01 Y32.24 F1200.0
S1
G00 X51.19 Y32.24 F3000.0
S90
G01 Y35.76 F1200.0
S1
G00 X51.39 Y35.76 F3000.0
S90
G01 Y32.24 F1200.0
S1
G00 X51.59 Y32.24 F3000.0
S90
G01 Y35.76 F1200.0
S1
G00 X51.79 Y35.76 F3000.0
S90
G01 Y32.24 F1200.0
S1
G00 X51.99 Y32.24 F3000.0
S90
G01 Y35.76 F1200.0
S1
G00 X52.19 Y35.76 F3000.0
S90
G01 Y32.24 F1200.0
S1
G00 X52.39 Y32.24 F3000.0
S90
G01 Y35.76 F1200.0
S1
G00 X52.59 Y35.76 F3000.0
S90
G01 Y32.24 F1200.0
S1
G00 X52.79 Y32.24 F3000.0
S90
G01 Y35.76 F1200.0
S1
G00 X52.99 Y35.76 F3000.0
S90
G01 Y32.24 F1200.0
S1
G00 X53.19 Y32.24 F3000.0
S90
G01 Y35.76 F1200.0
S1
G00 X53.39 Y35.76 F3000.0
S90
G01 Y32.24 F1200.0
S1
G00 X53.59 Y32.24 F3000.0
S90
G01 Y35.76 F1200.0
S1
G00 X53.79 Y35.76 F3000.0
S90
G01 Y32.24 F1200.0
S1
G00 X53.99 Y32.24 F3000.0
S90
G01 Y35.76 F1200.0
S1
G00 X54.19 Y35.76 F3000.0
S90
G01 Y32.24 F1200.0
S1
G00 X54.39 Y32.24 F3000.0
S90
G01 Y35.76 F1200.0
S1
G00 X54.59 Y35.76 F3000.0
S90
G01 Y32.24 F1200.0
S1
G00 X54.79 Y32.24 F3000.0
S90
G01 Y35.76 F1200.0
S1
G00 X54.99 Y35.76 F3000.0
S90
G01 Y32.24 F1200.0
S1
G00 X55.19 Y32.24 F3000.0
S90
G01 Y35.76 F1200.0
S1
G00 X55.39 Y35.76 F3000.0
S90
G01 Y32.24 F1200.0
S1
G00 X55.59 Y32.24 F3000.0
S90
G01 Y35.76 F1200.0
S1
G00 X55.79 Y35.76 F3000.0
S90
G01 Y32.24 F1200.0
S1
G00 X55.99 Y32.24 F3000.0
S90
G01 Y35.76 F1200.0
S1
G00 X56.19 Y35.76 F3000.0
S90
G01 Y32.24 F1200.0
S1
G00 X56.39 Y32.24 F3000.0
S90
G01 Y35.76 F1200.0
S1
G00 X56.59 Y35.76 F3000.0
S90
G01 Y32.24 F1200.0
S1
G00 X56.79 Y32.24 F3000.0
S90
G01 Y35.76 F1200.0
S1
G00 X60.79 Y35.76 F3000.0
S90
G01 Y42.8 F1200.0
S1
G00 X60.99 Y42.8 F3000.0
S90
G01 Y35.76 F1200.0
S1
G00 X61.19 Y35.76 F3000.0
S90
G01 Y42.8 F1200.0
S1
G00 X61.39 Y42.8 F3000.0
S90
G01 Y35.76 F1200.0
S1
G00 X61.59 Y35.76 F3000.0
S90
G01 Y42.8 F1200.0
S1
G00 X61.79 Y42.8 F3000.0
S90
G01 Y35.76 F1200.0
S1
G00 X61.99 Y35.76 F3000.0
S90
G01 Y42.8 F1200.0
S1
G00 X62.19 Y42.8 F3000.0
S90
G01 Y35.76 F1200.0
S1
G00 X62.39 Y35.76 F3000.0
S90
G01 Y42.8 F1200.0
S1
G00 X62.59 Y42.8 F3000.0
S90
G01 Y35.76 F1200.0
S1
G00 X62.79 Y35.76 F3000.0
S90
G01 Y42.8 F1200.0
S1
G00 X62.99 Y42.8 F3000.0
S90
G01 Y35.76 F1200.0
S1
G00 X63.19 Y35.76 F3000.0
S90
G01 Y42.8 F1200.0
S1
G00 X63.39 Y42.8 F3000.0
S90
G01 Y35.76 F1200.0
S1
G00 X63.59 Y35.76 F3000.0
S90
G01 Y42.8 F1200.0
S1
G00 X63.79 Y42.8 F3000.0
S90
G01 Y35.76 F1200.0
S1
G00 X63.99 Y35.76 F3000.0
S90
G01 Y42.8 F1200.0
S1
G00 X71.19 Y42.8 F3000.0
S90
G01 Y46.32 F1200.0
S1
G00 X71.39 Y46.32 F3000.0
S90
G01 Y42.8 F1200.0
S1
G00 X71.59 Y42.8 F3000.0
S90
G01 Y46.32 F1200.0
S1
G00 X71.79 Y46.32 F3000.0
S90
G01 Y42.8 F1200.0
S1
G00 X71.99 Y42.8 F3000.0
S90
G01 Y46.32 F1200.0
S1
G00 X72.19 Y46.32 F3000.0
S90
G01 Y42.8 F1200.0
S1
G00 X72.39 Y42.8 F3000.0
S90
G01 Y46.32 F1200.0
S1
G00 X72.59 Y46.32 F3000.0
S90
G01 Y42.8 F1200.0
S1
G00 X72.79 Y42.8 F3000.0
S90
G01 Y46.32 F1200.0
S1
G00 X72.99 Y46.32 F3000.0
S90
G01 Y42.8 F1200.0
S1
G00 X73.19 Y42.8 F3000.0
S90
G01 Y46.32 F1200.0
S1
G00 X73.39 Y46.32 F3000.0
S90
G01 Y42.8 F1200.0
S1
G00 X73.59 Y42.8 F3000.0
S90
G01 Y46.32 F1200.0
S1
G00 X73.79 Y46.32 F3000.0
S90
G01 Y42.8 F1200.0
S1
G00 X73.99 Y42.8 F3000.0
S90
G01 Y46.32 F1200.0
S1
G00 X74.19 Y46.32 F3000.0
S90
G01 Y42.8 F1200.0
S1
G00 X74.39 Y42.8 F3000.0
S90
G01 Y46.32 F1200.0
S1
G00 X74.39 Y49.84 F3000.0
S90
G01 Y56.88 F1200.0
S1
G00 X74.19 Y56.88 F3000.0
S90
G01 Y49.84 F1200.0
S1
G00 X73.99 Y49.84 F3000.0
S90
G01 Y56.88 F1200.0
S1
G00 X73.79 Y56.88 F3000.0
S90
G01 Y49.84 F1200.0
S1
G00 X73.59 Y49.84 F3000.0
S90
G01 Y56.88 F1200.0
S1
G00 X73.39 Y56.88 F3000.0
S90
G01 Y49.84 F1200.0
S1
G00 X73.19 Y49.84 F3000.0
S90
G01 Y56.88 F1200.0
S1
G00 X72.99 Y56.88 F3000.0
S90
G01 Y49.84 F1200.0
S1
G00 X72.79 Y49.84 F3000.0
S90
G01 Y56.88 F1200.0
S1
G00 X72.59 Y56.88 F3000.0
S90
G01 Y49.84 F1200.0
S1
G00 X72.39 Y49.84 F3000.0
S90
G01 Y56.88 F1200.0
S1
G00 X72.19 Y56.88 F3000.0
S90
G01 Y49.84 F1200.0
S1
G00 X71.99 Y49.84 F3000.0
S90
G01 Y56.88 F1200.0
S1
G00 X71.79 Y56.88 F3000.0
S90
G01 Y49.84 F1200.0
S1
G00 X71.59 Y49.84 F3000.0
S90
G01 Y56.88 F1200.0
S1
G00 X71.39 Y56.88 F3000.0
S90
G01 Y49.84 F1200.0
S1
G00 X71.19 Y49.84 F3000.0
S90
G01 Y56.88 F1200.0
S1
G00 X70.99 Y56.88 F3000.0
S90
G01 Y60.4 F1200.0
S1
G00 X70.79 Y60.4 F3000.0
S90
G01 Y56.88 F1200.0
S1
G00 X70.59 Y56.88 F3000.0
S90
G01 Y60.4 F1200.0
S1
G00 X70.39 Y60.4 F3000.0
S90
G01 Y56.88 F1200.0
S1
G00 X70.19 Y56.88 F3000.0
S90
G01 Y60.4 F1200.0
S1
G00 X69.99 Y60.4 F3000.0
S90
G01 Y56.88 F1200.0
S1
G00 X69.79 Y56.88 F3000.0
S90
G01 Y60.4 F1200.0
S1
G00 X69.59 Y60.4 F3000.0
S90
G01 Y56.88 F1200.0
S1
G00 X69.39 Y56.88 F3000.0
S90
G01 Y60.4 F1200.0
S1
G00 X69.19 Y60.4 F3000.0
S90
G01 Y56.88 F1200.0
S1
G00 X68.99 Y56.88 F3000.0
S90
G01 Y60.4 F1200.0
S1
G00 X68.79 Y60.4 F3000.0
S90
G01 Y56.88 F1200.0
S1
G00 X68.59 Y56.88 F3000.0
S90
G01 Y60.4 F1200.0
S1
G00 X68.39 Y60.4 F3000.0
S90
G01 Y56.88 F1200.0
S1
G00 X68.19 Y56.88 F3000.0
S90
G01 Y60.4 F1200.0
S1
G00 X67.99 Y60.4 F3000.0
S90
G01 Y56.88 F1200.0
S1
G00 X67.79 Y56.88 F3000.0
S90
G01 Y60.4 F1200.0
S1
G00 X67.59 Y60.4 F3000.0
S90
G01 Y56.88 F1200.0
S1
G00 X64.79 Y56.91 F3000.0
S90
G01 Y53.37 F1200.0
S1
G00 X64.59 Y52.39 F3000.0
S90
G01 Y58.12 F1200.0
S1
G00 X64.39 Y58.87 F3000.0
S90
G01 Y51.6 F1200.0
S1
G00 X64.19 Y51.12 F3000.0
S90
G01 Y59.47 F1200.0
S1
G00 X63.99 Y59.85 F3000.0
S90
G01 Y50.76 F1200.0
S1
G00 X63.79 Y50.41 F3000.0
S90
G01 Y60.22 F1200.0
S1
G00 X63.59 Y60.6 F3000.0
S90
G01 Y50.05 F1200.0
S1
G00 X63.39 Y49.73 F3000.0
S90
G01 Y60.89 F1200.0
S1
G00 X63.19 Y61.16 F3000.0
S90
G01 Y49.48 F1200.0
S1
G00 X62.99 Y49.24 F3000.0
S90
G01 Y61.44 F1200.0
S1
G00 X62.79 Y61.71 F3000.0
S90
G01 Y49.0 F1200.0
S1
G00 X62.59 Y48.76 F3000.0
S90
G01 Y61.95 F1200.0
S1
G00 X62.39 Y62.15 F3000.0
S90
G01 Y48.52 F1200.0
S1
G00 X62.19 Y48.28 F3000.0
S90
G01 Y62.36 F1200.0
S1
G00 X61.99 Y62.56 F3000.0
S90
G01 Y48.11 F1200.0
S1
G00 X61.79 Y47.94 F3000.0
S90
G01 Y62.77 F1200.0
S1
G00 X61.59 Y62.96 F3000.0
S90
G01 Y47.76 F1200.0
S1
G00 X61.39 Y47.59 F3000.0
S90
G01 Y63.11 F1200.0
S1
G00 X61.19 Y63.26 F3000.0
S90
G01 Y47.42 F1200.0
S1
G00 X60.99 Y47.24 F3000.0
S90
G01 Y63.41 F1200.0
S1
G00 X60.79 Y63.56 F3000.0
S90
G01 Y47.07 F1200.0
S1
G00 X60.59 Y46.93 F3000.0
S90
G01 Y63.72 F1200.0
S1
G00 X60.59 Y70.96 F3000.0
S90
G01 Y74.48 F1200.0
S1
G00 X60.79 Y74.48 F3000.0
S90
G01 Y70.96 F1200.0
S1
G00 X60.99 Y70.96 F3000.0
S90
G01 Y74.48 F1200.0
S1
G00 X61.19 Y74.48 F3000.0
S90
G01 Y70.96 F1200.0
S1
G00 X61.39 Y70.96 F3000.0
S90
G01 Y74.48 F1200.0
S1
G00 X61.59 Y74.48 F3000.0
S90
G01 Y70.96 F1200.0
S1
G00 X61.79 Y70.96 F3000.0
S90
G01 Y74.48 F1200.0
S1
G00 X61.99 Y74.48 F3000.0
S90
G01 Y70.96 F1200.0
S1
G00 X62.19 Y70.96 F3000.0
S90
G01 Y74.48 F1200.0
S1
G00 X62.39 Y74.48 F3000.0
S90
G01 Y70.96 F1200.0
S1
G00 X62.59 Y70.96 F3000.0
S90
G01 Y74.48 F1200.0
S1
G00 X62.79 Y74.48 F3000.0
S90
G01 Y70.96 F1200.0
S1
G00 X62.99 Y70.96 F3000.0
S90
G01 Y74.48 F1200.0
S1
G00 X63.19 Y74.48 F3000.0
S90
G01 Y70.96 F1200.0
S1
G00 X63.39 Y70.96 F3000.0
S90
G01 Y74.48 F1200.0
S1
G00 X63.59 Y74.48 F3000.0
S90
G01 Y70.96 F1200.0
S1
G00 X63.79 Y70.96 F3000.0
S90
G01 Y74.48 F1200.0
S1
G00 X63.99 Y74.48 F3000.0
S90
G01 Y70.96 F1200.0
S1
G00 X64.19 Y70.96 F3000.0
S90
G01 Y67.44 F1200.0
S1
G00 X64.39 Y67.44 F3000.0
S90
G01 Y70.96 F1200.0
S1
G00 X64.59 Y70.96 F3000.0
S90
G01 Y67.44 F1200.0
S1
G00 X64.79 Y67.44 F3000.0
S90
G01 Y70.96 F1200.0
S1
G00 X64.99 Y70.96 F3000.0
S90
G01 Y67.44 F1200.0
S1
G00 X65.19 Y67.44 F3000.0
S90
G01 Y70.96 F1200.0
S1
G00 X65.39 Y70.96 F3000.0
S90
G01 Y67.44 F1200.0
S1
G00 X65.59 Y67.44 F3000.0
S90
G01 Y70.96 F1200.0
S1
G00 X65.79 Y70.96 F3000.0
S90
G01 Y67.44 F1200.0
S1
G00 X65.99 Y67.44 F3000.0
S90
G01 Y70.96 F1200.0
S1
G00 X66.19 Y70.96 F3000.0
S90
G01 Y67.44 F1200.0
S1
G00 X66.39 Y67.44 F3000.0
S90
G01 Y70.96 F1200.0
S1
G00 X66.59 Y70.96 F3000.0
S90
G01 Y67.44 F1200.0
S1
G00 X66.79 Y67.44 F3000.0
S90
G01 Y70.96 F1200.0
S1
G00 X66.99 Y70.96 F3000.0
S90
G01 Y67.44 F1200.0
S1
G00 X67.19 Y67.44 F3000.0
S90
G01 Y70.96 F1200.0
S1
G00 X67.39 Y70.96 F3000.0
S90
G01 Y67.44 F1200.0
S1
G00 X71.19 Y67.44 F3000.0
S90
G01 Y74.48 F1200.0
S1
G00 X71.39 Y74.48 F3000.0
S90
G01 Y67.44 F1200.0
S1
G00 X71.59 Y67.44 F3000.0
S90
G01 Y74.48 F1200.0
S1
G00 X71.79 Y74.48 F3000.0
S90
G01 Y67.44 F1200.0
S1
G00 X71.99 Y67.44 F3000.0
S90
G01 Y74.48 F1200.0
S1
G00 X72.19 Y74.48 F3000.0
S90
G01 Y67.44 F1200.0
S1
G00 X72.39 Y67.44 F3000.0
S90
G01 Y74.48 F1200.0
S1
G00 X72.59 Y74.48 F3000.0
S90
G01 Y67.44 F1200.0
S1
G00 X72.79 Y67.44 F3000.0
S90
G01 Y74.48 F1200.0
S1
G00 X72.99 Y74.48 F3000.0
S90
G01 Y67.44 F1200.0
S1
G00 X73.19 Y67.44 F3000.0
S90
G01 Y74.48 F1200.0
S1
G00 X73.39 Y74.48 F3000.0
S90
G01 Y67.44 F1200.0
S1
G00 X73.59 Y67.44 F3000.0
S90
G01 Y74.48 F1200.0
S1
G00 X73.79 Y74.48 F3000.0
S90
G01 Y67.44 F1200.0
S1
G00 X73.99 Y67.44 F3000.0
S90
G01 Y74.48 F1200.0
S1
G00 X74.19 Y74.48 F3000.0
S90
G01 Y67.44 F1200.0
S1
G00 X74.39 Y67.44 F3000.0
S90
G01 Y74.48 F1200.0
S1
G00 X74.59 Y74.48 F3000.0
S90
G01 Y70.96 F1200.0
S1
G00 X74.79 Y70.96 F3000.0
S90
G01 Y74.48 F1200.0
S1
G00 X74.99 Y74.48 F3000.0
S90
G01 Y70.96 F1200.0
S1
G00 X75.19 Y70.96 F3000.0
S90
G01 Y74.48 F1200.0
S1
G00 X75.39 Y74.48 F3000.0
S90
G01 Y70.96 F1200.0
S1
G00 X75.59 Y70.96 F3000.0
S90
G01 Y74.48 F1200.0
S1
G00 X75.79 Y74.48 F3000.0
S90
G01 Y70.96 F1200.0
S1
G00 X75.99 Y70.96 F3000.0
S90
G01 Y74.48 F1200.0
S1
G00 X76.19 Y74.48 F3000.0
S90
G01 Y70.96 F1200.0
S1
G00 X76.39 Y70.96 F3000.0
S90
G01 Y74.48 F1200.0
S1
G00 X76.59 Y74.48 F3000.0
S90
G01 Y70.96 F1200.0
S1
G00 X76.79 Y70.96 F3000.0
S90
G01 Y74.48 F1200.0
S1
G00 X76.99 Y74.48 F3000.0
S90
G01 Y70.96 F1200.0
S1
G00 X77.19 Y70.96 F3000.0
S90
G01 Y74.48 F1200.0
S1
G00 X77.39 Y74.48 F3000.0
S90
G01 Y70.96 F1200.0
S1
G00 X77.59 Y70.96 F3000.0
S90
G01 Y74.48 F1200.0
S1
G00 X77.79 Y74.48 F3000.0
S90
G01 Y70.96 F1200.0
S1
G00 X77.99 Y70.96 F3000.0
S90
G01 Y74.48 F1200.0
S1
G00 X77.99 Y78. F3000.0
S90
G01 Y99.12 F1200.0
S1
G00 X77.79 Y99.12 F3000.0
S90
G01 Y78.0 F1200.0
S1
G00 X77.59 Y78. F3000.0
S90
G01 Y99.12 F1200.0
S1
G00 X77.39 Y99.12 F3000.0
S90
G01 Y78.0 F1200.0
S1
G00 X77.19 Y78. F3000.0
S90
G01 Y99.12 F1200.0
S1
G00 X76.99 Y99.12 F3000.0
S90
G01 Y78.0 F1200.0
S1
G00 X76.79 Y78. F3000.0
S90
G01 Y99.12 F1200.0
S1
G00 X76.59 Y99.12 F3000.0
S90
G01 Y78.0 F1200.0
S1
G00 X76.39 Y78. F3000.0
S90
G01 Y99.12 F1200.0
S1
G00 X76.19 Y99.12 F3000.0
S90
G01 Y78.0 F1200.0
S1
G00 X75.99 Y78. F3000.0
S90
G01 Y99.12 F1200.0
S1
G00 X75.79 Y99.12 F3000.0
S90
G01 Y78.0 F1200.0
S1
G00 X75.59 Y78. F3000.0
S90
G01 Y99.12 F1200.0
S1
G00 X75.39 Y99.12 F3000.0
S90
G01 Y78.0 F1200.0
S1
G00 X75.19 Y78. F3000.0
S90
G01 Y99.12 F1200.0
S1
G00 X74.99 Y99.12 F3000.0
S90
G01 Y78.0 F1200.0
S1
G00 X74.79 Y78. F3000.0
S90
G01 Y99.12 F1200.0
S1
G00 X74.59 Y99.12 F3000.0
S90
G01 Y78.0 F1200.0
S1
G00 X70.99 Y78. F3000.0
S90
G01 Y74.48 F1200.0
S1
G00 X70.79 Y74.48 F3000.0
S90
G01 Y78.0 F1200.0
S1
G00 X70.59 Y78. F3000.0
S90
G01 Y74.48 F1200.0
S1
G00 X70.39 Y74.48 F3000.0
S90
G01 Y78.0 F1200.0
S1
G00 X70.19 Y78. F3000.0
S90
G01 Y74.48 F1200.0
S1
G00 X69.99 Y74.48 F3000.0
S90
G01 Y78.0 F1200.0
S1
G00 X69.79 Y78. F3000.0
S90
G01 Y74.48 F1200.0
S1
G00 X69.59 Y74.48 F3000.0
S90
G01 Y78.0 F1200.0
S1
G00 X69.39 Y78. F3000.0
S90
G01 Y74.48 F1200.0
S1
G00 X69.19 Y74.48 F3000.0
S90
G01 Y78.0 F1200.0
S1
G00 X68.99 Y78. F3000.0
S90
G01 Y74.48 F1200.0
S1
G00 X68.79 Y74.48 F3000.0
S90
G01 Y78.0 F1200.0
S1
G00 X68.59 Y78. F3000.0
S90
G01 Y74.48 F1200.0
S1
G00 X68.39 Y74.48 F3000.0
S90
G01 Y78.0 F1200.0
S1
G00 X68.19 Y78. F3000.0
S90
G01 Y74.48 F1200.0
S1
G00 X67.99 Y74.48 F3000.0
S90
G01 Y78.0 F1200.0
S1
G00 X67.79 Y78. F3000.0
S90
G01 Y74.48 F1200.0
S1
G00 X67.59 Y74.48 F3000.0
S90
G01 Y78.0 F1200.0
S1
G00 X67.59 Y81.52 F3000.0
S90
G01 Y95.6 F1200.0
S1
G00 X67.39 Y95.6 F3000.0
S90
G01 Y85.04 F1200.0
S1
G00 X67.19 Y85.04 F3000.0
S90
G01 Y95.6 F1200.0
S1
G00 X66.99 Y95.6 F3000.0
S90
G01 Y85.04 F1200.0
S1
G00 X66.79 Y85.04 F3000.0
S90
G01 Y95.6 F1200.0
S1
G00 X66.59 Y95.6 F3000.0
S90
G01 Y85.04 F1200.0
S1
G00 X66.39 Y85.04 F3000.0
S90
G01 Y95.6 F1200.0
S1
G00 X66.19 Y95.6 F3000.0
S90
G01 Y85.04 F1200.0
S1
G00 X65.99 Y85.04 F3000.0
S90
G01 Y95.6 F1200.0
S1
G00 X65.79 Y95.6 F3000.0
S90
G01 Y85.04 F1200.0
S1
G00 X65.59 Y85.04 F3000.0
S90
G01 Y95.6 F1200.0
S1
G00 X65.39 Y95.6 F3000.0
S90
G01 Y85.04 F1200.0
S1
G00 X65.19 Y85.04 F3000.0
S90
G01 Y95.6 F1200.0
S1
G00 X64.99 Y95.6 F3000.0
S90
G01 Y85.04 F1200.0
S1
G00 X64.79 Y85.04 F3000.0
S90
G01 Y95.6 F1200.0
S1
G00 X64.59 Y95.6 F3000.0
S90
G01 Y85.04 F1200.0
S1
G00 X64.39 Y85.04 F3000.0
S90
G01 Y95.6 F1200.0
S1
G00 X64.19 Y95.6 F3000.0
S90
G01 Y85.04 F1200.0
S1
G00 X64.19 Y81.52 F3000.0
S90
G01 Y74.48 F1200.0
S1
G00 X64.39 Y74.48 F3000.0
S90
G01 Y81.52 F1200.0
S1
G00 X64.59 Y81.52 F3000.0
S90
G01 Y74.48 F1200.0
S1
G00 X64.79 Y74.48 F3000.0
S90
G01 Y81.52 F1200.0
S1
G00 X64.99 Y81.52 F3000.0
S90
G01 Y74.48 F1200.0
S1
G00 X65.19 Y74.48 F3000.0
S90
G01 Y81.52 F1200.0
S1
G00 X65.39 Y81.52 F3000.0
S90
G01 Y74.48 F1200.0
S1
G00 X65.59 Y74.48 F3000.0
S90
G01 Y81.52 F1200.0
S1
G00 X65.79 Y81.52 F3000.0
S90
G01 Y74.48 F1200.0
S1
G00 X65.99 Y74.48 F3000.0
S90
G01 Y81.52 F1200.0
S1
G00 X66.19 Y81.52 F3000.0
S90
G01 Y74.48 F1200.0
S1
G00 X66.39 Y74.48 F3000.0
S90
G01 Y81.52 F1200.0
S1
G00 X66.59 Y81.52 F3000.0
S90
G01 Y74.48 F1200.0
S1
G00 X66.79 Y74.48 F3000.0
S90
G01 Y81.52 F1200.0
S1
G00 X66.99 Y81.52 F3000.0
S90
G01 Y74.48 F1200.0
S1
G00 X67.19 Y74.48 F3000.0
S90
G01 Y81.52 F1200.0
S1
G00 X67.39 Y81.52 F3000.0
S90
G01 Y74.48 F1200.0
S1
G00 X63.99 Y78. F3000.0
S90
G01 Y88.56 F1200.0
S1
G00 X63.79 Y88.56 F3000.0
S90
G01 Y78.0 F1200.0
S1
G00 X63.59 Y78. F3000.0
S90
G01 Y88.56 F1200.0
S1
G00 X63.39 Y88.56 F3000.0
S90
G01 Y78.0 F1200.0
S1
G00 X63.19 Y78. F3000.0
S90
G01 Y88.56 F1200.0
S1
G00 X62.99 Y88.56 F3000.0
S90
G01 Y78.0 F1200.0
S1
G00 X62.79 Y78. F3000.0
S90
G01 Y88.56 F1200.0
S1
G00 X62.59 Y88.56 F3000.0
S90
G01 Y78.0 F1200.0
S1
G00 X62.39 Y78. F3000.0
S90
G01 Y88.56 F1200.0
S1
G00 X62.19 Y88.56 F3000.0
S90
G01 Y78.0 F1200.0
S1
G00 X61.99 Y78. F3000.0
S90
G01 Y88.56 F1200.0
S1
G00 X61.79 Y88.56 F3000.0
S90
G01 Y78.0 F1200.0
S1
G00 X61.59 Y78. F3000.0
S90
G01 Y88.56 F1200.0
S1
G00 X61.39 Y88.56 F3000.0
S90
G01 Y78.0 F1200.0
S1
G00 X61.19 Y78. F3000.0
S90
G01 Y88.56 F1200.0
S1
G00 X60.99 Y88.56 F3000.0
S90
G01 Y78.0 F1200.0
S1
G00 X60.79 Y78. F3000.0
S90
G01 Y88.56 F1200.0
S1
G00 X60.59 Y88.56 F3000.0
S90
G01 Y78.0 F1200.0
S1
G00 X56.79 Y78. F3000.0
S90
G01 Y85.04 F1200.0
S1
G00 X56.59 Y85.04 F3000.0
S90
G01 Y78.0 F1200.0
S1
G00 X56.39 Y78. F3000.0
S90
G01 Y85.04 F1200.0
S1
G00 X56.19 Y85.04 F3000.0
S90
G01 Y78.0 F1200.0
S1
G00 X55.99 Y78. F3000.0
S90
G01 Y85.04 F1200.0
S1
G00 X55.79 Y85.04 F3000.0
S90
G01 Y78.0 F1200.0
S1
G00 X55.59 Y78. F3000.0
S90
G01 Y85.04 F1200.0
S1
G00 X55.39 Y85.04 F3000.0
S90
G01 Y78.0 F1200.0
S1
G00 X55.19 Y78. F3000.0
S90
G01 Y85.04 F1200.0
S1
G00 X54.99 Y85.04 F3000.0
S90
G01 Y78.0 F1200.0
S1
G00 X54.79 Y78. F3000.0
S90
G01 Y85.04 F1200.0
S1
G00 X54.59 Y85.04 F3000.0
S90
G01 Y78.0 F1200.0
S1
G00 X54.39 Y78. F3000.0
S90
G01 Y85.04 F1200.0
S1
G00 X54.19 Y85.04 F3000.0
S90
G01 Y78.0 F1200.0
S1
G00 X53.99 Y78. F3000.0
S90
G01 Y85.04 F1200.0
S1
G00 X53.79 Y85.04 F3000.0
S90
G01 Y78.0 F1200.0
S1
G00 X53.59 Y78. F3000.0
S90
G01 Y85.04 F1200.0
S1
G00 X53.39 Y88.56 F3000.0
S90
G01 Y106.16 F1200.0
S1
G00 X53.19 Y106.16 F3000.0
S90
G01 Y88.56 F1200.0
S1
G00 X52.99 Y88.56 F3000.0
S90
G01 Y106.16 F1200.0
S1
G00 X52.79 Y106.16 F3000.0
S90
G01 Y88.56 F1200.0
S1
G00 X52.59 Y88.56 F3000.0
S90
G01 Y106.16 F1200.0
S1
G00 X52.39 Y106.16 F3000.0
S90
G01 Y88.56 F1200.0
S1
G00 X52.19 Y88.56 F3000.0
S90
G01 Y106.16 F1200.0
S1
G00 X51.99 Y106.16 F3000.0
S90
G01 Y88.56 F1200.0
S1
G00 X51.79 Y88.56 F3000.0
S90
G01 Y106.16 F1200.0
S1
G00 X51.59 Y106.16 F3000.0
S90
G01 Y88.56 F1200.0
S1
G00 X51.39 Y88.56 F3000.0
S90
G01 Y106.16 F1200.0
S1
G00 X51.19 Y106.16 F3000.0
S90
G01 Y88.56 F1200.0
S1
G00 X50.99 Y88.56 F3000.0
S90
G01 Y106.16 F1200.0
S1
G00 X50.79 Y106.16 F3000.0
S90
G01 Y88.56 F1200.0
S1
G00 X50.59 Y88.56 F3000.0
S90
G01 Y106.16 F1200.0
S1
G00 X50.39 Y106.16 F3000.0
S90
G01 Y88.56 F1200.0
S1
G00 X50.19 Y88.56 F3000.0
S90
G01 Y106.16 F1200.0
S1
G00 X49.99 Y106.16 F3000.0
S90
G01 Y88.56 F1200.0
S1
G00 X49.79 Y88.56 F3000.0
S90
G01 Y92.08 F1200.0
S1
G00 X49.59 Y92.08 F3000.0
S90
G01 Y88.56 F1200.0
S1
G00 X49.39 Y88.56 F3000.0
S90
G01 Y92.08 F1200.0
S1
G00 X49.19 Y92.08 F3000.0
S90
G01 Y88.56 F1200.0
S1
G00 X48.99 Y88.56 F3000.0
S90
G01 Y92.08 F1200.0
S1
G00 X48.79 Y92.08 F3000.0
S90
G01 Y88.56 F1200.0
S1
G00 X48.59 Y88.56 F3000.0
S90
G01 Y92.08 F1200.0
S1
G00 X48.39 Y92.08 F3000.0
S90
G01 Y88.56 F1200.0
S1
G00 X48.19 Y88.56 F3000.0
S90
G01 Y92.08 F1200.0
S1
G00 X47.99 Y92.08 F3000.0
S90
G01 Y88.56 F1200.0
S1
G00 X47.79 Y88.56 F3000.0
S90
G01 Y92.08 F1200.0
S1
G00 X47.59 Y92.08 F3000.0
S90
G01 Y88.56 F1200.0
S1
G00 X47.39 Y88.56 F3000.0
S90
G01 Y92.08 F1200.0
S1
G00 X47.19 Y92.08 F3000.0
S90
G01 Y88.56 F1200.0
S1
G00 X46.99 Y88.56 F3000.0
S90
G01 Y92.08 F1200.0
S1
G00 X46.79 Y92.08 F3000.0
S90
G01 Y88.56 F1200.0
S1
G00 X46.59 Y88.56 F3000.0
S90
G01 Y92.08 F1200.0
S1
G00 X53.59 Y92.08 F3000.0
S90
G01 Y95.6 F1200.0
S1
G00 X53.79 Y95.6 F3000.0
S90
G01 Y92.08 F1200.0
S1
G00 X53.99 Y92.08 F3000.0
S90
G01 Y95.6 F1200.0
S1
G00 X54.19 Y95.6 F3000.0
S90
G01 Y92.08 F1200.0
S1
G00 X54.39 Y92.08 F3000.0
S90
G01 Y95.6 F1200.0
S1
G00 X54.59 Y95.6 F3000.0
S90
G01 Y92.08 F1200.0
S1
G00 X54.79 Y92.08 F3000.0
S90
G01 Y95.6 F1200.0
S1
G00 X54.99 Y95.6 F3000.0
S90
G01 Y92.08 F1200.0
S1
G00 X55.19 Y92.08 F3000.0
S90
G01 Y95.6 F1200.0
S1
G00 X55.39 Y95.6 F3000.0
S90
G01 Y92.08 F1200.0
S1
G00 X55.59 Y92.08 F3000.0
S90
G01 Y95.6 F1200.0
S1
G00 X55.79 Y95.6 F3000.0
S90
G01 Y92.08 F1200.0
S1
G00 X55.99 Y92.08 F3000.0
S90
G01 Y95.6 F1200.0
S1
G00 X56.19 Y95.6 F3000.0
S90
G01 Y92.08 F1200.0
S1
G00 X56.39 Y92.08 F3000.0
S90
G01 Y95.6 F1200.0
S1
G00 X56.59 Y95.6 F3000.0
S90
G01 Y92.08 F1200.0
S1
G00 X56.79 Y92.08 F3000.0
S90
G01 Y95.6 F1200.0
S1
G00 X56.99 Y95.6 F3000.0
S90
G01 Y106.16 F1200.0
S1
G00 X56.79 Y106.16 F3000.0
S90
G01 Y99.12 F1200.0
S1
G00 X56.59 Y99.12 F3000.0
S90
G01 Y106.16 F1200.0
S1
G00 X56.39 Y106.16 F3000.0
S90
G01 Y99.12 F1200.0
S1
G00 X56.19 Y99.12 F3000.0
S90
G01 Y106.16 F1200.0
S1
G00 X55.99 Y106.16 F3000.0
S90
G01 Y99.12 F1200.0
S1
G00 X55.79 Y99.12 F3000.0
S90
G01 Y106.16 F1200.0
S1
G00 X55.59 Y106.16 F3000.0
S90
G01 Y99.12 F1200.0
S1
G00 X55.39 Y99.12 F3000.0
S90
G01 Y106.16 F1200.0
S1
G00 X55.19 Y106.16 F3000.0
S90
G01 Y99.12 F1200.0
S1
G00 X54.99 Y99.12 F3000.0
S90
G01 Y106.16 F1200.0
S1
G00 X54.79 Y106.16 F3000.0
S90
G01 Y99.12 F1200.0
S1
G00 X54.59 Y99.12 F3000.0
S90
G01 Y106.16 F1200.0
S1
G00 X54.39 Y106.16 F3000.0
S90
G01 Y99.12 F1200.0
S1
G00 X54.19 Y99.12 F3000.0
S90
G01 Y106.16 F1200.0
S1
G00 X53.99 Y106.16 F3000.0
S90
G01 Y99.12 F1200.0
S1
G00 X53.79 Y99.12 F3000.0
S90
G01 Y106.16 F1200.0
S1
G00 X53.59 Y106.16 F3000.0
S90
G01 Y99.12 F1200.0
S1
G00 X49.79 Y99.12 F3000.0
S90
G01 Y102.64 F1200.0
S1
G00 X49.59 Y102.64 F3000.0
S90
G01 Y99.12 F1200.0
S1
G00 X49.39 Y99.12 F3000.0
S90
G01 Y102.64 F1200.0
S1
G00 X49.19 Y102.64 F3000.0
S90
G01 Y99.12 F1200.0
S1
G00 X48.99 Y99.12 F3000.0
S90
G01 Y102.64 F1200.0
S1
G00 X48.79 Y102.64 F3000.0
S90
G01 Y99.12 F1200.0
S1
G00 X48.59 Y99.12 F3000.0
S90
G01 Y102.64 F1200.0
S1
G00 X48.39 Y102.64 F3000.0
S90
G01 Y99.12 F1200.0
S1
G00 X48.19 Y99.12 F3000.0
S90
G01 Y102.64 F1200.0
S1
G00 X47.99 Y102.64 F3000.0
S90
G01 Y99.12 F1200.0
S1
G00 X47.79 Y99.12 F3000.0
S90
G01 Y102.64 F1200.0
S1
G00 X47.59 Y102.64 F3000.0
S90
G01 Y99.12 F1200.0
S1
G00 X47.39 Y99.12 F3000.0
S90
G01 Y102.64 F1200.0
S1
G00 X47.19 Y102.64 F3000.0
S90
G01 Y99.12 F1200.0
S1
G00 X46.99 Y99.12 F3000.0
S90
G01 Y102.64 F1200.0
S1
G00 X46.79 Y102.64 F3000.0
S90
G01 Y99.12 F1200.0
S1
G00 X46.59 Y99.12 F3000.0
S90
