
;Inkscape Lasertools G-code
;https://github.com/ChrisWag91/Inkscape-Lasertools-Plugin

G90	;Absolute programming
G21	;Programming in millimeters (mm)
M03 S1 ;Activate laser and set power to 0 (CUSTOM)

; START infill strategy
G01 F1200.0
G00 X3.72 Y5.99 F3000.0
S90
G01 Y30.13 F1200.0
S1
G00 X3.92 Y30.13 F3000.0
S90
G01 Y5.99 F1200.0
S1
G00 X4.12 Y5.99 F3000.0
S90
G01 Y30.13 F1200.0
S1
G00 X4.32 Y30.13 F3000.0
S90
G01 Y5.99 F1200.0
S1
G00 X4.52 Y5.99 F3000.0
S90
G01 Y30.13 F1200.0
S1
G00 X4.72 Y30.13 F3000.0
S90
G01 Y5.99 F1200.0
S1
G00 X4.92 Y5.99 F3000.0
S90
G01 Y30.13 F1200.0
S1
G00 X5.12 Y30.13 F3000.0
S90
G01 Y5.99 F1200.0
S1
G00 X5.32 Y5.99 F3000.0
S90
G01 Y30.13 F1200.0
S1
G00 X5.52 Y30.13 F3000.0
S90
G01 Y5.99 F1200.0
S1
G00 X5.72 Y5.99 F3000.0
S90
G01 Y30.13 F1200.0
S1
G00 X5.92 Y30.13 F3000.0
S90
G01 Y5.99 F1200.0
S1
G00 X6.12 Y5.99 F3000.0
S90
G01 Y30.13 F1200.0
S1
G00 X6.32 Y30.13 F3000.0
S90
G01 Y5.99 F1200.0
S1
G00 X6.52 Y5.99 F3000.0
S90
G01 Y30.13 F1200.0
S1
G00 X6.72 Y30.13 F3000.0
S90
G01 Y5.99 F1200.0
S1
G00 X6.92 Y5.99 F3000.0
S90
G01 Y30.13 F1200.0
S1
G00 X7.12 Y30.13 F3000.0
S90
G01 Y5.99 F1200.0
S1
G00 X7.32 Y5.99 F3000.0
S90
G01 Y9.44 F1200.0
S1
G00 X7.52 Y9.44 F3000.0
S90
G01 Y5.99 F1200.0
S1
G00 X7.72 Y5.99 F3000.0
S90
G01 Y9.44 F1200.0
S1
G00 X7.92 Y9.44 F3000.0
S90
G01 Y5.99 F1200.0
S1
G00 X8.12 Y5.99 F3000.0
S90
G01 Y9.44 F1200.0
S1
G00 X8.32 Y9.44 F3000.0
S90
G01 Y5.99 F1200.0
S1
G00 X8.52 Y5.99 F3000.0
S90
G01 Y9.44 F1200.0
S1
G00 X8.72 Y9.44 F3000.0
S90
G01 Y5.99 F1200.0
S1
G00 X8.92 Y5.99 F3000.0
S90
G01 Y9.44 F1200.0
S1
G00 X9.12 Y9.44 F3000.0
S90
G01 Y5.99 F1200.0
S1
G00 X9.32 Y5.99 F3000.0
S90
G01 Y9.44 F1200.0
S1
G00 X9.52 Y9.44 F3000.0
S90
G01 Y5.99 F1200.0
S1
G00 X9.72 Y5.99 F3000.0
S90
G01 Y9.44 F1200.0
S1
G00 X9.92 Y9.44 F3000.0
S90
G01 Y5.99 F1200.0
S1
G00 X10.12 Y5.99 F3000.0
S90
G01 Y9.44 F1200.0
S1
G00 X10.32 Y9.44 F3000.0
S90
G01 Y5.99 F1200.0
S1
G00 X10.52 Y5.99 F3000.0
S90
G01 Y9.44 F1200.0
S1
G00 X10.72 Y9.44 F3000.0
S90
G01 Y5.99 F1200.0
S1
G00 X10.92 Y5.99 F3000.0
S90
G01 Y9.44 F1200.0
S1
G00 X11.12 Y9.44 F3000.0
S90
G01 Y5.99 F1200.0
S1
G00 X11.32 Y5.99 F3000.0
S90
G01 Y9.44 F1200.0
S1
G00 X11.52 Y9.44 F3000.0
S90
G01 Y5.99 F1200.0
S1
G00 X11.72 Y5.99 F3000.0
S90
G01 Y9.44 F1200.0
S1
G00 X11.92 Y9.44 F3000.0
S90
G01 Y5.99 F1200.0
S1
G00 X12.12 Y5.99 F3000.0
S90
G01 Y9.44 F1200.0
S1
G00 X12.32 Y9.44 F3000.0
S90
G01 Y5.99 F1200.0
S1
G00 X12.52 Y5.99 F3000.0
S90
G01 Y9.44 F1200.0
S1
G00 X12.72 Y9.44 F3000.0
S90
G01 Y5.99 F1200.0
S1
G00 X12.92 Y5.99 F3000.0
S90
G01 Y9.44 F1200.0
S1
G00 X13.12 Y9.44 F3000.0
S90
G01 Y5.99 F1200.0
S1
G00 X13.32 Y5.99 F3000.0
S90
G01 Y9.44 F1200.0
S1
G00 X13.52 Y9.44 F3000.0
S90
G01 Y5.99 F1200.0
S1
G00 X13.72 Y5.99 F3000.0
S90
G01 Y9.44 F1200.0
S1
G00 X13.92 Y9.44 F3000.0
S90
G01 Y5.99 F1200.0
S1
G00 X14.12 Y5.99 F3000.0
S90
G01 Y9.44 F1200.0
S1
G00 X14.32 Y9.44 F3000.0
S90
G01 Y5.99 F1200.0
S1
G00 X14.52 Y5.99 F3000.0
S90
G01 Y9.44 F1200.0
S1
G00 X14.72 Y9.44 F3000.0
S90
G01 Y5.99 F1200.0
S1
G00 X14.92 Y5.99 F3000.0
S90
G01 Y9.44 F1200.0
S1
G00 X15.12 Y9.44 F3000.0
S90
G01 Y5.99 F1200.0
S1
G00 X15.32 Y5.99 F3000.0
S90
G01 Y9.44 F1200.0
S1
G00 X15.52 Y9.44 F3000.0
S90
G01 Y5.99 F1200.0
S1
G00 X15.72 Y5.99 F3000.0
S90
G01 Y9.44 F1200.0
S1
G00 X15.92 Y9.44 F3000.0
S90
G01 Y5.99 F1200.0
S1
G00 X16.12 Y5.99 F3000.0
S90
G01 Y9.44 F1200.0
S1
G00 X16.32 Y9.44 F3000.0
S90
G01 Y5.99 F1200.0
S1
G00 X16.52 Y5.99 F3000.0
S90
G01 Y9.44 F1200.0
S1
G00 X16.72 Y9.44 F3000.0
S90
G01 Y5.99 F1200.0
S1
G00 X16.92 Y5.99 F3000.0
S90
G01 Y9.44 F1200.0
S1
G00 X17.12 Y9.44 F3000.0
S90
G01 Y5.99 F1200.0
S1
G00 X17.32 Y5.99 F3000.0
S90
G01 Y9.44 F1200.0
S1
G00 X17.52 Y9.44 F3000.0
S90
G01 Y5.99 F1200.0
S1
G00 X17.72 Y5.99 F3000.0
S90
G01 Y9.44 F1200.0
S1
G00 X17.92 Y9.44 F3000.0
S90
G01 Y5.99 F1200.0
S1
G00 X18.12 Y5.99 F3000.0
S90
G01 Y9.44 F1200.0
S1
G00 X18.32 Y9.44 F3000.0
S90
G01 Y5.99 F1200.0
S1
G00 X18.52 Y5.99 F3000.0
S90
G01 Y9.44 F1200.0
S1
G00 X18.72 Y9.44 F3000.0
S90
G01 Y5.99 F1200.0
S1
G00 X18.92 Y5.99 F3000.0
S90
G01 Y9.44 F1200.0
S1
G00 X19.12 Y9.44 F3000.0
S90
G01 Y5.99 F1200.0
S1
G00 X19.32 Y5.99 F3000.0
S90
G01 Y9.44 F1200.0
S1
G00 X19.52 Y9.44 F3000.0
S90
G01 Y5.99 F1200.0
S1
G00 X19.72 Y5.99 F3000.0
S90
G01 Y9.44 F1200.0
S1
G00 X19.92 Y9.44 F3000.0
S90
G01 Y5.99 F1200.0
S1
G00 X20.12 Y5.99 F3000.0
S90
G01 Y9.44 F1200.0
S1
G00 X20.32 Y9.44 F3000.0
S90
G01 Y5.99 F1200.0
S1
G00 X20.52 Y5.99 F3000.0
S90
G01 Y9.44 F1200.0
S1
G00 X20.72 Y9.44 F3000.0
S90
G01 Y5.99 F1200.0
S1
G00 X20.92 Y5.99 F3000.0
S90
G01 Y9.44 F1200.0
S1
G00 X21.12 Y9.44 F3000.0
S90
G01 Y5.99 F1200.0
S1
G00 X21.32 Y5.99 F3000.0
S90
G01 Y9.44 F1200.0
S1
G00 X21.52 Y9.44 F3000.0
S90
G01 Y5.99 F1200.0
S1
G00 X21.72 Y5.99 F3000.0
S90
G01 Y9.44 F1200.0
S1
G00 X21.92 Y9.44 F3000.0
S90
G01 Y5.99 F1200.0
S1
G00 X22.12 Y5.99 F3000.0
S90
G01 Y9.44 F1200.0
S1
G00 X22.32 Y9.44 F3000.0
S90
G01 Y5.99 F1200.0
S1
G00 X22.52 Y5.99 F3000.0
S90
G01 Y9.44 F1200.0
S1
G00 X22.72 Y9.44 F3000.0
S90
G01 Y5.99 F1200.0
S1
G00 X22.92 Y5.99 F3000.0
S90
G01 Y9.44 F1200.0
S1
G00 X23.12 Y9.44 F3000.0
S90
G01 Y5.99 F1200.0
S1
G00 X23.32 Y5.99 F3000.0
S90
G01 Y9.44 F1200.0
S1
G00 X23.52 Y9.44 F3000.0
S90
G01 Y5.99 F1200.0
S1
G00 X23.72 Y5.99 F3000.0
S90
G01 Y9.44 F1200.0
S1
G00 X23.92 Y9.44 F3000.0
S90
G01 Y5.99 F1200.0
S1
G00 X24.12 Y5.99 F3000.0
S90
G01 Y9.44 F1200.0
S1
G00 X24.32 Y9.44 F3000.0
S90
G01 Y5.99 F1200.0
S1
G00 X24.52 Y5.99 F3000.0
S90
G01 Y30.13 F1200.0
S1
G00 X24.72 Y30.13 F3000.0
S90
G01 Y5.99 F1200.0
S1
G00 X24.92 Y5.99 F3000.0
S90
G01 Y30.13 F1200.0
S1
G00 X25.12 Y30.13 F3000.0
S90
G01 Y5.99 F1200.0
S1
G00 X25.32 Y5.99 F3000.0
S90
G01 Y30.13 F1200.0
S1
G00 X25.52 Y30.13 F3000.0
S90
G01 Y5.99 F1200.0
S1
G00 X25.72 Y5.99 F3000.0
S90
G01 Y30.13 F1200.0
S1
G00 X25.92 Y30.13 F3000.0
S90
G01 Y5.99 F1200.0
S1
G00 X26.12 Y5.99 F3000.0
S90
G01 Y30.13 F1200.0
S1
G00 X26.32 Y30.13 F3000.0
S90
G01 Y5.99 F1200.0
S1
G00 X26.52 Y5.99 F3000.0
S90
G01 Y30.13 F1200.0
S1
G00 X26.72 Y30.13 F3000.0
S90
G01 Y5.99 F1200.0
S1
G00 X26.92 Y5.99 F3000.0
S90
G01 Y30.13 F1200.0
S1
G00 X27.12 Y30.13 F3000.0
S90
G01 Y5.99 F1200.0
S1
G00 X27.32 Y5.99 F3000.0
S90
G01 Y30.13 F1200.0
S1
G00 X27.52 Y30.13 F3000.0
S90
G01 Y5.99 F1200.0
S1
G00 X27.72 Y5.99 F3000.0
S90
G01 Y30.13 F1200.0
S1
G00 X24.32 Y30.13 F3000.0
S90
G01 Y26.68 F1200.0
S1
G00 X24.12 Y26.68 F3000.0
S90
G01 Y30.13 F1200.0
S1
G00 X23.92 Y30.13 F3000.0
S90
G01 Y26.68 F1200.0
S1
G00 X23.72 Y26.68 F3000.0
S90
G01 Y30.13 F1200.0
S1
G00 X23.52 Y30.13 F3000.0
S90
G01 Y26.68 F1200.0
S1
G00 X23.32 Y26.68 F3000.0
S90
G01 Y30.13 F1200.0
S1
G00 X23.12 Y30.13 F3000.0
S90
G01 Y26.68 F1200.0
S1
G00 X22.92 Y26.68 F3000.0
S90
G01 Y30.13 F1200.0
S1
G00 X22.72 Y30.13 F3000.0
S90
G01 Y26.68 F1200.0
S1
G00 X22.52 Y26.68 F3000.0
S90
G01 Y30.13 F1200.0
S1
G00 X22.32 Y30.13 F3000.0
S90
G01 Y26.68 F1200.0
S1
G00 X22.12 Y26.68 F3000.0
S90
G01 Y30.13 F1200.0
S1
G00 X21.92 Y30.13 F3000.0
S90
G01 Y26.68 F1200.0
S1
G00 X21.72 Y26.68 F3000.0
S90
G01 Y30.13 F1200.0
S1
G00 X21.52 Y30.13 F3000.0
S90
G01 Y26.68 F1200.0
S1
G00 X21.32 Y26.68 F3000.0
S90
G01 Y30.13 F1200.0
S1
G00 X21.12 Y30.13 F3000.0
S90
G01 Y26.68 F1200.0
S1
G00 X20.92 Y26.68 F3000.0
S90
G01 Y30.13 F1200.0
S1
G00 X20.72 Y30.13 F3000.0
S90
G01 Y26.68 F1200.0
S1
G00 X20.52 Y26.68 F3000.0
S90
G01 Y30.13 F1200.0
S1
G00 X20.32 Y30.13 F3000.0
S90
G01 Y26.68 F1200.0
S1
G00 X20.12 Y26.68 F3000.0
S90
G01 Y30.13 F1200.0
S1
G00 X19.92 Y30.13 F3000.0
S90
G01 Y26.68 F1200.0
S1
G00 X19.72 Y26.68 F3000.0
S90
G01 Y30.13 F1200.0
S1
G00 X19.52 Y30.13 F3000.0
S90
G01 Y26.68 F1200.0
S1
G00 X19.32 Y26.68 F3000.0
S90
G01 Y30.13 F1200.0
S1
G00 X19.12 Y30.13 F3000.0
S90
G01 Y26.68 F1200.0
S1
G00 X18.92 Y26.68 F3000.0
S90
G01 Y30.13 F1200.0
S1
G00 X18.72 Y30.13 F3000.0
S90
G01 Y26.68 F1200.0
S1
G00 X18.52 Y26.68 F3000.0
S90
G01 Y30.13 F1200.0
S1
G00 X18.32 Y30.13 F3000.0
S90
G01 Y26.68 F1200.0
S1
G00 X18.12 Y26.68 F3000.0
S90
G01 Y30.13 F1200.0
S1
G00 X17.92 Y30.13 F3000.0
S90
G01 Y26.68 F1200.0
S1
G00 X17.72 Y26.68 F3000.0
S90
G01 Y30.13 F1200.0
S1
G00 X17.52 Y30.13 F3000.0
S90
G01 Y26.68 F1200.0
S1
G00 X17.32 Y26.68 F3000.0
S90
G01 Y30.13 F1200.0
S1
G00 X17.12 Y30.13 F3000.0
S90
G01 Y26.68 F1200.0
S1
G00 X16.92 Y26.68 F3000.0
S90
G01 Y30.13 F1200.0
S1
G00 X16.72 Y30.13 F3000.0
S90
G01 Y26.68 F1200.0
S1
G00 X16.52 Y26.68 F3000.0
S90
G01 Y30.13 F1200.0
S1
G00 X16.32 Y30.13 F3000.0
S90
G01 Y26.68 F1200.0
S1
G00 X16.12 Y26.68 F3000.0
S90
G01 Y30.13 F1200.0
S1
G00 X15.92 Y30.13 F3000.0
S90
G01 Y26.68 F1200.0
S1
G00 X15.72 Y26.68 F3000.0
S90
G01 Y30.13 F1200.0
S1
G00 X15.52 Y30.13 F3000.0
S90
G01 Y26.68 F1200.0
S1
G00 X15.32 Y26.68 F3000.0
S90
G01 Y30.13 F1200.0
S1
G00 X15.12 Y30.13 F3000.0
S90
G01 Y26.68 F1200.0
S1
G00 X14.92 Y26.68 F3000.0
S90
G01 Y30.13 F1200.0
S1
G00 X14.72 Y30.13 F3000.0
S90
G01 Y26.68 F1200.0
S1
G00 X14.52 Y26.68 F3000.0
S90
G01 Y30.13 F1200.0
S1
G00 X14.32 Y30.13 F3000.0
S90
G01 Y26.68 F1200.0
S1
G00 X14.12 Y26.68 F3000.0
S90
G01 Y30.13 F1200.0
S1
G00 X13.92 Y30.13 F3000.0
S90
G01 Y26.68 F1200.0
S1
G00 X13.72 Y26.68 F3000.0
S90
G01 Y30.13 F1200.0
S1
G00 X13.52 Y30.13 F3000.0
S90
G01 Y26.68 F1200.0
S1
G00 X13.32 Y26.68 F3000.0
S90
G01 Y30.13 F1200.0
S1
G00 X13.12 Y30.13 F3000.0
S90
G01 Y26.68 F1200.0
S1
G00 X12.92 Y26.68 F3000.0
S90
G01 Y30.13 F1200.0
S1
G00 X12.72 Y30.13 F3000.0
S90
G01 Y26.68 F1200.0
S1
G00 X12.52 Y26.68 F3000.0
S90
G01 Y30.13 F1200.0
S1
G00 X12.32 Y30.13 F3000.0
S90
G01 Y26.68 F1200.0
S1
G00 X12.12 Y26.68 F3000.0
S90
G01 Y30.13 F1200.0
S1
G00 X11.92 Y30.13 F3000.0
S90
G01 Y26.68 F1200.0
S1
G00 X11.72 Y26.68 F3000.0
S90
G01 Y30.13 F1200.0
S1
G00 X11.52 Y30.13 F3000.0
S90
G01 Y26.68 F1200.0
S1
G00 X11.32 Y26.68 F3000.0
S90
G01 Y30.13 F1200.0
S1
G00 X11.12 Y30.13 F3000.0
S90
G01 Y26.68 F1200.0
S1
G00 X10.92 Y26.68 F3000.0
S90
G01 Y30.13 F1200.0
S1
G00 X10.72 Y30.13 F3000.0
S90
G01 Y26.68 F1200.0
S1
G00 X10.52 Y26.68 F3000.0
S90
G01 Y30.13 F1200.0
S1
G00 X10.32 Y30.13 F3000.0
S90
G01 Y26.68 F1200.0
S1
G00 X10.12 Y26.68 F3000.0
S90
G01 Y30.13 F1200.0
S1
G00 X9.92 Y30.13 F3000.0
S90
G01 Y26.68 F1200.0
S1
G00 X9.72 Y26.68 F3000.0
S90
G01 Y30.13 F1200.0
S1
G00 X9.52 Y30.13 F3000.0
S90
G01 Y26.68 F1200.0
S1
G00 X9.32 Y26.68 F3000.0
S90
G01 Y30.13 F1200.0
S1
G00 X9.12 Y30.13 F3000.0
S90
G01 Y26.68 F1200.0
S1
G00 X8.92 Y26.68 F3000.0
S90
G01 Y30.13 F1200.0
S1
G00 X8.72 Y30.13 F3000.0
S90
G01 Y26.68 F1200.0
S1
G00 X8.52 Y26.68 F3000.0
S90
G01 Y30.13 F1200.0
S1
G00 X8.32 Y30.13 F3000.0
S90
G01 Y26.68 F1200.0
S1
G00 X8.12 Y26.68 F3000.0
S90
G01 Y30.13 F1200.0
S1
G00 X7.92 Y30.13 F3000.0
S90
G01 Y26.68 F1200.0
S1
G00 X7.72 Y26.68 F3000.0
S90
G01 Y30.13 F1200.0
S1
G00 X7.52 Y30.13 F3000.0
S90
G01 Y26.68 F1200.0
S1
G00 X7.32 Y26.68 F3000.0
S90
G01 Y30.13 F1200.0
S1
G00 X7.12 Y33.58 F3000.0
S90
G01 Y50.82 F1200.0
S1
G00 X6.92 Y50.82 F3000.0
S90
G01 Y33.58 F1200.0
S1
G00 X6.72 Y33.58 F3000.0
S90
G01 Y50.82 F1200.0
S1
G00 X6.52 Y50.82 F3000.0
S90
G01 Y33.58 F1200.0
S1
G00 X6.32 Y33.58 F3000.0
S90
G01 Y50.82 F1200.0
S1
G00 X6.12 Y50.82 F3000.0
S90
G01 Y33.58 F1200.0
S1
G00 X5.92 Y33.58 F3000.0
S90
G01 Y50.82 F1200.0
S1
G00 X5.72 Y50.82 F3000.0
S90
G01 Y33.58 F1200.0
S1
G00 X5.52 Y33.58 F3000.0
S90
G01 Y50.82 F1200.0
S1
G00 X5.32 Y50.82 F3000.0
S90
G01 Y33.58 F1200.0
S1
G00 X5.12 Y33.58 F3000.0
S90
G01 Y50.82 F1200.0
S1
G00 X4.92 Y50.82 F3000.0
S90
G01 Y33.58 F1200.0
S1
G00 X4.72 Y33.58 F3000.0
S90
G01 Y50.82 F1200.0
S1
G00 X4.52 Y50.82 F3000.0
S90
G01 Y33.58 F1200.0
S1
G00 X4.32 Y33.58 F3000.0
S90
G01 Y50.82 F1200.0
S1
G00 X4.12 Y50.82 F3000.0
S90
G01 Y33.58 F1200.0
S1
G00 X3.92 Y33.58 F3000.0
S90
G01 Y50.82 F1200.0
S1
G00 X3.72 Y50.82 F3000.0
S90
G01 Y33.58 F1200.0
S1
G00 X14.12 Y33.58 F3000.0
S90
G01 Y37.03 F1200.0
S1
G00 X13.92 Y37.03 F3000.0
S90
G01 Y50.82 F1200.0
S1
G00 X13.72 Y50.82 F3000.0
S90
G01 Y37.03 F1200.0
S1
G00 X13.52 Y37.03 F3000.0
S90
G01 Y50.82 F1200.0
S1
G00 X13.32 Y50.82 F3000.0
S90
G01 Y37.03 F1200.0
S1
G00 X13.12 Y37.03 F3000.0
S90
G01 Y50.82 F1200.0
S1
G00 X12.92 Y50.82 F3000.0
S90
G01 Y37.03 F1200.0
S1
G00 X12.72 Y37.03 F3000.0
S90
G01 Y50.82 F1200.0
S1
G00 X12.52 Y50.82 F3000.0
S90
G01 Y37.03 F1200.0
S1
G00 X12.32 Y37.03 F3000.0
S90
G01 Y50.82 F1200.0
S1
G00 X12.12 Y50.82 F3000.0
S90
G01 Y37.03 F1200.0
S1
G00 X11.92 Y37.03 F3000.0
S90
G01 Y50.82 F1200.0
S1
G00 X11.72 Y50.82 F3000.0
S90
G01 Y37.03 F1200.0
S1
G00 X11.52 Y37.03 F3000.0
S90
G01 Y50.82 F1200.0
S1
G00 X11.32 Y50.82 F3000.0
S90
G01 Y37.03 F1200.0
S1
G00 X11.12 Y37.03 F3000.0
S90
G01 Y50.82 F1200.0
S1
G00 X10.92 Y50.82 F3000.0
S90
G01 Y37.03 F1200.0
S1
G00 X10.72 Y37.03 F3000.0
S90
G01 Y50.82 F1200.0
S1
G00 X10.52 Y54.27 F3000.0
S90
G01 Y61.16 F1200.0
S1
G00 X10.32 Y61.16 F3000.0
S90
G01 Y54.27 F1200.0
S1
G00 X10.12 Y54.27 F3000.0
S90
G01 Y61.16 F1200.0
S1
G00 X9.92 Y61.16 F3000.0
S90
G01 Y54.27 F1200.0
S1
G00 X9.72 Y54.27 F3000.0
S90
G01 Y61.16 F1200.0
S1
G00 X9.52 Y61.16 F3000.0
S90
G01 Y54.27 F1200.0
S1
G00 X9.32 Y54.27 F3000.0
S90
G01 Y61.16 F1200.0
S1
G00 X9.12 Y61.16 F3000.0
S90
G01 Y54.27 F1200.0
S1
G00 X8.92 Y54.27 F3000.0
S90
G01 Y61.16 F1200.0
S1
G00 X8.72 Y61.16 F3000.0
S90
G01 Y54.27 F1200.0
S1
G00 X8.52 Y54.27 F3000.0
S90
G01 Y61.16 F1200.0
S1
G00 X8.32 Y61.16 F3000.0
S90
G01 Y54.27 F1200.0
S1
G00 X8.12 Y54.27 F3000.0
S90
G01 Y61.16 F1200.0
S1
G00 X7.92 Y61.16 F3000.0
S90
G01 Y54.27 F1200.0
S1
G00 X7.72 Y54.27 F3000.0
S90
G01 Y61.16 F1200.0
S1
G00 X7.52 Y61.16 F3000.0
S90
G01 Y54.27 F1200.0
S1
G00 X7.32 Y54.27 F3000.0
S90
G01 Y61.16 F1200.0
S1
G00 X7.12 Y61.16 F3000.0
S90
G01 Y57.72 F1200.0
S1
G00 X6.92 Y57.72 F3000.0
S90
G01 Y61.16 F1200.0
S1
G00 X6.72 Y61.16 F3000.0
S90
G01 Y57.72 F1200.0
S1
G00 X6.52 Y57.72 F3000.0
S90
G01 Y61.16 F1200.0
S1
G00 X6.32 Y61.16 F3000.0
S90
G01 Y57.72 F1200.0
S1
G00 X6.12 Y57.72 F3000.0
S90
G01 Y61.16 F1200.0
S1
G00 X5.92 Y61.16 F3000.0
S90
G01 Y57.72 F1200.0
S1
G00 X5.72 Y57.72 F3000.0
S90
G01 Y61.16 F1200.0
S1
G00 X5.52 Y61.16 F3000.0
S90
G01 Y57.72 F1200.0
S1
G00 X5.32 Y57.72 F3000.0
S90
G01 Y61.16 F1200.0
S1
G00 X5.12 Y61.16 F3000.0
S90
G01 Y57.72 F1200.0
S1
G00 X4.92 Y57.72 F3000.0
S90
G01 Y61.16 F1200.0
S1
G00 X4.72 Y61.16 F3000.0
S90
G01 Y57.72 F1200.0
S1
G00 X4.52 Y57.72 F3000.0
S90
G01 Y61.16 F1200.0
S1
G00 X4.32 Y61.16 F3000.0
S90
G01 Y57.72 F1200.0
S1
G00 X4.12 Y57.72 F3000.0
S90
G01 Y61.16 F1200.0
S1
G00 X3.92 Y61.16 F3000.0
S90
G01 Y57.72 F1200.0
S1
G00 X3.72 Y57.72 F3000.0
S90
G01 Y61.16 F1200.0
S1
G00 X3.72 Y64.61 F3000.0
S90
G01 Y71.51 F1200.0
S1
G00 X3.92 Y71.51 F3000.0
S90
G01 Y64.61 F1200.0
S1
G00 X4.12 Y64.61 F3000.0
S90
G01 Y71.51 F1200.0
S1
G00 X4.32 Y71.51 F3000.0
S90
G01 Y64.61 F1200.0
S1
G00 X4.52 Y64.61 F3000.0
S90
G01 Y71.51 F1200.0
S1
G00 X4.72 Y71.51 F3000.0
S90
G01 Y64.61 F1200.0
S1
G00 X4.92 Y64.61 F3000.0
S90
G01 Y71.51 F1200.0
S1
G00 X5.12 Y71.51 F3000.0
S90
G01 Y64.61 F1200.0
S1
G00 X5.32 Y64.61 F3000.0
S90
G01 Y71.51 F1200.0
S1
G00 X5.52 Y71.51 F3000.0
S90
G01 Y64.61 F1200.0
S1
G00 X5.72 Y64.61 F3000.0
S90
G01 Y71.51 F1200.0
S1
G00 X5.92 Y71.51 F3000.0
S90
G01 Y64.61 F1200.0
S1
G00 X6.12 Y64.61 F3000.0
S90
G01 Y71.51 F1200.0
S1
G00 X6.32 Y71.51 F3000.0
S90
G01 Y64.61 F1200.0
S1
G00 X6.52 Y64.61 F3000.0
S90
G01 Y71.51 F1200.0
S1
G00 X6.72 Y71.51 F3000.0
S90
G01 Y64.61 F1200.0
S1
G00 X6.92 Y64.61 F3000.0
S90
G01 Y71.51 F1200.0
S1
G00 X7.12 Y71.51 F3000.0
S90
G01 Y64.61 F1200.0
S1
G00 X7.32 Y68.06 F3000.0
S90
G01 Y71.51 F1200.0
S1
G00 X7.52 Y71.51 F3000.0
S90
G01 Y68.06 F1200.0
S1
G00 X7.72 Y68.06 F3000.0
S90
G01 Y71.51 F1200.0
S1
G00 X7.92 Y71.51 F3000.0
S90
G01 Y68.06 F1200.0
S1
G00 X8.12 Y68.06 F3000.0
S90
G01 Y71.51 F1200.0
S1
G00 X8.32 Y71.51 F3000.0
S90
G01 Y68.06 F1200.0
S1
G00 X8.52 Y68.06 F3000.0
S90
G01 Y71.51 F1200.0
S1
G00 X8.72 Y71.51 F3000.0
S90
G01 Y68.06 F1200.0
S1
G00 X8.92 Y68.06 F3000.0
S90
G01 Y71.51 F1200.0
S1
G00 X9.12 Y71.51 F3000.0
S90
G01 Y68.06 F1200.0
S1
G00 X9.32 Y68.06 F3000.0
S90
G01 Y71.51 F1200.0
S1
G00 X9.52 Y71.51 F3000.0
S90
G01 Y68.06 F1200.0
S1
G00 X9.72 Y68.06 F3000.0
S90
G01 Y71.51 F1200.0
S1
G00 X9.92 Y71.51 F3000.0
S90
G01 Y68.06 F1200.0
S1
G00 X10.12 Y68.06 F3000.0
S90
G01 Y71.51 F1200.0
S1
G00 X10.32 Y71.51 F3000.0
S90
G01 Y68.06 F1200.0
S1
G00 X10.52 Y68.06 F3000.0
S90
G01 Y71.51 F1200.0
S1
G00 X10.72 Y71.51 F3000.0
S90
G01 Y78.4 F1200.0
S1
G00 X10.92 Y78.4 F3000.0
S90
G01 Y71.51 F1200.0
S1
G00 X11.12 Y71.51 F3000.0
S90
G01 Y78.4 F1200.0
S1
G00 X11.32 Y78.4 F3000.0
S90
G01 Y71.51 F1200.0
S1
G00 X11.52 Y71.51 F3000.0
S90
G01 Y78.4 F1200.0
S1
G00 X11.72 Y78.4 F3000.0
S90
G01 Y71.51 F1200.0
S1
G00 X11.92 Y71.51 F3000.0
S90
G01 Y78.4 F1200.0
S1
G00 X12.12 Y78.4 F3000.0
S90
G01 Y71.51 F1200.0
S1
G00 X12.32 Y71.51 F3000.0
S90
G01 Y78.4 F1200.0
S1
G00 X12.52 Y78.4 F3000.0
S90
G01 Y71.51 F1200.0
S1
G00 X12.72 Y71.51 F3000.0
S90
G01 Y78.4 F1200.0
S1
G00 X12.92 Y78.4 F3000.0
S90
G01 Y71.51 F1200.0
S1
G00 X13.12 Y71.51 F3000.0
S90
G01 Y78.4 F1200.0
S1
G00 X13.32 Y78.4 F3000.0
S90
G01 Y71.51 F1200.0
S1
G00 X13.52 Y71.51 F3000.0
S90
G01 Y78.4 F1200.0
S1
G00 X13.72 Y78.4 F3000.0
S90
G01 Y71.51 F1200.0
S1
G00 X13.92 Y71.51 F3000.0
S90
G01 Y78.4 F1200.0
S1
G00 X14.12 Y78.4 F3000.0
S90
G01 Y74.96 F1200.0
S1
G00 X14.32 Y74.96 F3000.0
S90
G01 Y78.4 F1200.0
S1
G00 X14.52 Y78.4 F3000.0
S90
G01 Y74.96 F1200.0
S1
G00 X14.72 Y74.96 F3000.0
S90
G01 Y78.4 F1200.0
S1
G00 X14.92 Y78.4 F3000.0
S90
G01 Y74.96 F1200.0
S1
G00 X15.12 Y74.96 F3000.0
S90
G01 Y78.4 F1200.0
S1
G00 X15.32 Y78.4 F3000.0
S90
G01 Y74.96 F1200.0
S1
G00 X15.52 Y74.96 F3000.0
S90
G01 Y78.4 F1200.0
S1
G00 X15.72 Y78.4 F3000.0
S90
G01 Y74.96 F1200.0
S1
G00 X15.92 Y74.96 F3000.0
S90
G01 Y78.4 F1200.0
S1
G00 X16.12 Y78.4 F3000.0
S90
G01 Y74.96 F1200.0
S1
G00 X16.32 Y74.96 F3000.0
S90
G01 Y78.4 F1200.0
S1
G00 X16.52 Y78.4 F3000.0
S90
G01 Y74.96 F1200.0
S1
G00 X16.72 Y74.96 F3000.0
S90
G01 Y78.4 F1200.0
S1
G00 X16.92 Y78.4 F3000.0
S90
G01 Y74.96 F1200.0
S1
G00 X17.12 Y74.96 F3000.0
S90
G01 Y78.4 F1200.0
S1
G00 X17.32 Y78.4 F3000.0
S90
G01 Y74.96 F1200.0
S1
G00 X17.32 Y71.51 F3000.0
S90
G01 Y54.27 F1200.0
S1
G00 X17.12 Y54.27 F3000.0
S90
G01 Y71.51 F1200.0
S1
G00 X16.92 Y71.51 F3000.0
S90
G01 Y54.27 F1200.0
S1
G00 X16.72 Y54.27 F3000.0
S90
G01 Y71.51 F1200.0
S1
G00 X16.52 Y71.51 F3000.0
S90
G01 Y54.27 F1200.0
S1
G00 X16.32 Y54.27 F3000.0
S90
G01 Y71.51 F1200.0
S1
G00 X16.12 Y71.51 F3000.0
S90
G01 Y54.27 F1200.0
S1
G00 X15.92 Y54.27 F3000.0
S90
G01 Y71.51 F1200.0
S1
G00 X15.72 Y71.51 F3000.0
S90
G01 Y54.27 F1200.0
S1
G00 X15.52 Y54.27 F3000.0
S90
G01 Y71.51 F1200.0
S1
G00 X15.32 Y71.51 F3000.0
S90
G01 Y54.27 F1200.0
S1
G00 X15.12 Y54.27 F3000.0
S90
G01 Y71.51 F1200.0
S1
G00 X14.92 Y71.51 F3000.0
S90
G01 Y54.27 F1200.0
S1
G00 X14.72 Y54.27 F3000.0
S90
G01 Y71.51 F1200.0
S1
G00 X14.52 Y71.51 F3000.0
S90
G01 Y54.27 F1200.0
S1
G00 X14.32 Y54.27 F3000.0
S90
G01 Y71.51 F1200.0
S1
G00 X14.12 Y71.51 F3000.0
S90
G01 Y54.27 F1200.0
S1
G00 X17.52 Y54.27 F3000.0
S90
G01 Y50.82 F1200.0
S1
G00 X17.72 Y50.82 F3000.0
S90
G01 Y54.27 F1200.0
S1
G00 X17.92 Y54.27 F3000.0
S90
G01 Y50.82 F1200.0
S1
G00 X18.12 Y50.82 F3000.0
S90
G01 Y54.27 F1200.0
S1
G00 X18.32 Y54.27 F3000.0
S90
G01 Y50.82 F1200.0
S1
G00 X18.52 Y50.82 F3000.0
S90
G01 Y54.27 F1200.0
S1
G00 X18.72 Y54.27 F3000.0
S90
G01 Y50.82 F1200.0
S1
G00 X18.92 Y50.82 F3000.0
S90
G01 Y54.27 F1200.0
S1
G00 X19.12 Y54.27 F3000.0
S90
G01 Y50.82 F1200.0
S1
G00 X19.32 Y50.82 F3000.0
S90
G01 Y54.27 F1200.0
S1
G00 X19.52 Y54.27 F3000.0
S90
G01 Y50.82 F1200.0
S1
G00 X19.72 Y50.82 F3000.0
S90
G01 Y54.27 F1200.0
S1
G00 X19.92 Y54.27 F3000.0
S90
G01 Y50.82 F1200.0
S1
G00 X20.12 Y50.82 F3000.0
S90
G01 Y54.27 F1200.0
S1
G00 X20.32 Y54.27 F3000.0
S90
G01 Y50.82 F1200.0
S1
G00 X20.52 Y50.82 F3000.0
S90
G01 Y54.27 F1200.0
S1
G00 X20.72 Y54.27 F3000.0
S90
G01 Y50.82 F1200.0
S1
G00 X20.92 Y50.82 F3000.0
S90
G01 Y54.27 F1200.0
S1
G00 X21.12 Y54.27 F3000.0
S90
G01 Y50.82 F1200.0
S1
G00 X21.32 Y50.82 F3000.0
S90
G01 Y54.27 F1200.0
S1
G00 X21.52 Y54.27 F3000.0
S90
G01 Y50.82 F1200.0
S1
G00 X21.72 Y50.82 F3000.0
S90
G01 Y54.27 F1200.0
S1
G00 X21.92 Y54.27 F3000.0
S90
G01 Y50.82 F1200.0
S1
G00 X22.12 Y50.82 F3000.0
S90
G01 Y54.27 F1200.0
S1
G00 X22.32 Y54.27 F3000.0
S90
G01 Y50.82 F1200.0
S1
G00 X22.52 Y50.82 F3000.0
S90
G01 Y54.27 F1200.0
S1
G00 X22.72 Y54.27 F3000.0
S90
G01 Y50.82 F1200.0
S1
G00 X22.92 Y50.82 F3000.0
S90
G01 Y54.27 F1200.0
S1
G00 X23.12 Y54.27 F3000.0
S90
G01 Y50.82 F1200.0
S1
G00 X23.32 Y50.82 F3000.0
S90
G01 Y54.27 F1200.0
S1
G00 X23.52 Y54.27 F3000.0
S90
G01 Y50.82 F1200.0
S1
G00 X23.72 Y50.82 F3000.0
S90
G01 Y54.27 F1200.0
S1
G00 X23.92 Y54.27 F3000.0
S90
G01 Y50.82 F1200.0
S1
G00 X24.12 Y50.82 F3000.0
S90
G01 Y54.27 F1200.0
S1
G00 X24.32 Y54.27 F3000.0
S90
G01 Y50.82 F1200.0
S1
G00 X24.52 Y50.82 F3000.0
S90
G01 Y47.37 F1200.0
S1
G00 X24.72 Y47.37 F3000.0
S90
G01 Y50.82 F1200.0
S1
G00 X24.92 Y50.82 F3000.0
S90
G01 Y47.37 F1200.0
S1
G00 X25.12 Y47.37 F3000.0
S90
G01 Y50.82 F1200.0
S1
G00 X25.32 Y50.82 F3000.0
S90
G01 Y47.37 F1200.0
S1
G00 X25.52 Y47.37 F3000.0
S90
G01 Y50.82 F1200.0
S1
G00 X25.72 Y50.82 F3000.0
S90
G01 Y47.37 F1200.0
S1
G00 X25.92 Y47.37 F3000.0
S90
G01 Y50.82 F1200.0
S1
G00 X26.12 Y50.82 F3000.0
S90
G01 Y47.37 F1200.0
S1
G00 X26.32 Y47.37 F3000.0
S90
G01 Y50.82 F1200.0
S1
G00 X26.52 Y50.82 F3000.0
S90
G01 Y47.37 F1200.0
S1
G00 X26.72 Y47.37 F3000.0
S90
G01 Y50.82 F1200.0
S1
G00 X26.92 Y50.82 F3000.0
S90
G01 Y47.37 F1200.0
S1
G00 X27.12 Y47.37 F3000.0
S90
G01 Y50.82 F1200.0
S1
G00 X27.32 Y50.82 F3000.0
S90
G01 Y47.37 F1200.0
S1
G00 X27.52 Y47.37 F3000.0
S90
G01 Y50.82 F1200.0
S1
G00 X27.72 Y50.82 F3000.0
S90
G01 Y47.37 F1200.0
S1
G00 X24.32 Y47.37 F3000.0
S90
G01 Y37.03 F1200.0
S1
G00 X24.12 Y37.03 F3000.0
S90
G01 Y47.37 F1200.0
S1
G00 X23.92 Y47.37 F3000.0
S90
G01 Y37.03 F1200.0
S1
G00 X23.72 Y37.03 F3000.0
S90
G01 Y47.37 F1200.0
S1
G00 X23.52 Y47.37 F3000.0
S90
G01 Y37.03 F1200.0
S1
G00 X23.32 Y37.03 F3000.0
S90
G01 Y47.37 F1200.0
S1
G00 X23.12 Y47.37 F3000.0
S90
G01 Y37.03 F1200.0
S1
G00 X22.92 Y37.03 F3000.0
S90
G01 Y47.37 F1200.0
S1
G00 X22.72 Y47.37 F3000.0
S90
G01 Y37.03 F1200.0
S1
G00 X22.52 Y37.03 F3000.0
S90
G01 Y47.37 F1200.0
S1
G00 X22.32 Y47.37 F3000.0
S90
G01 Y37.03 F1200.0
S1
G00 X22.12 Y37.03 F3000.0
S90
G01 Y47.37 F1200.0
S1
G00 X21.92 Y47.37 F3000.0
S90
G01 Y37.03 F1200.0
S1
G00 X21.72 Y37.03 F3000.0
S90
G01 Y47.37 F1200.0
S1
G00 X21.52 Y47.37 F3000.0
S90
G01 Y37.03 F1200.0
S1
G00 X21.32 Y37.03 F3000.0
S90
G01 Y47.37 F1200.0
S1
G00 X21.12 Y47.37 F3000.0
S90
G01 Y37.03 F1200.0
S1
G00 X24.52 Y37.03 F3000.0
S90
G01 Y33.58 F1200.0
S1
G00 X24.72 Y33.58 F3000.0
S90
G01 Y37.03 F1200.0
S1
G00 X24.92 Y37.03 F3000.0
S90
G01 Y33.58 F1200.0
S1
G00 X25.12 Y33.58 F3000.0
S90
G01 Y37.03 F1200.0
S1
G00 X25.32 Y37.03 F3000.0
S90
G01 Y33.58 F1200.0
S1
G00 X25.52 Y33.58 F3000.0
S90
G01 Y37.03 F1200.0
S1
G00 X25.72 Y37.03 F3000.0
S90
G01 Y33.58 F1200.0
S1
G00 X25.92 Y33.58 F3000.0
S90
G01 Y37.03 F1200.0
S1
G00 X26.12 Y37.03 F3000.0
S90
G01 Y33.58 F1200.0
S1
G00 X26.32 Y33.58 F3000.0
S90
G01 Y37.03 F1200.0
S1
G00 X26.52 Y37.03 F3000.0
S90
G01 Y33.58 F1200.0
S1
G00 X26.72 Y33.58 F3000.0
S90
G01 Y37.03 F1200.0
S1
G00 X26.92 Y37.03 F3000.0
S90
G01 Y33.58 F1200.0
S1
G00 X27.12 Y33.58 F3000.0
S90
G01 Y37.03 F1200.0
S1
G00 X27.32 Y37.03 F3000.0
S90
G01 Y33.58 F1200.0
S1
G00 X27.52 Y33.58 F3000.0
S90
G01 Y37.03 F1200.0
S1
G00 X27.72 Y37.03 F3000.0
S90
G01 Y33.58 F1200.0
S1
G00 X20.92 Y33.58 F3000.0
S90
G01 Y40.47 F1200.0
S1
G00 X20.72 Y40.47 F3000.0
S90
G01 Y33.58 F1200.0
S1
G00 X20.52 Y33.58 F3000.0
S90
G01 Y40.47 F1200.0
S1
G00 X20.32 Y40.47 F3000.0
S90
G01 Y33.58 F1200.0
S1
G00 X20.12 Y33.58 F3000.0
S90
G01 Y40.47 F1200.0
S1
G00 X19.92 Y40.47 F3000.0
S90
G01 Y33.58 F1200.0
S1
G00 X19.72 Y33.58 F3000.0
S90
G01 Y40.47 F1200.0
S1
G00 X19.52 Y40.47 F3000.0
S90
G01 Y33.58 F1200.0
S1
G00 X19.32 Y33.58 F3000.0
S90
G01 Y40.47 F1200.0
S1
G00 X19.12 Y40.47 F3000.0
S90
G01 Y33.58 F1200.0
S1
G00 X18.92 Y33.58 F3000.0
S90
G01 Y40.47 F1200.0
S1
G00 X18.72 Y40.47 F3000.0
S90
G01 Y33.58 F1200.0
S1
G00 X18.52 Y33.58 F3000.0
S90
G01 Y40.47 F1200.0
S1
G00 X18.32 Y40.47 F3000.0
S90
G01 Y33.58 F1200.0
S1
G00 X18.12 Y33.58 F3000.0
S90
G01 Y40.47 F1200.0
S1
G00 X17.92 Y40.47 F3000.0
S90
G01 Y33.58 F1200.0
S1
G00 X17.72 Y33.58 F3000.0
S90
G01 Y40.47 F1200.0
S1
G00 X17.52 Y40.47 F3000.0
S90
G01 Y33.58 F1200.0
S1
G00 X17.32 Y33.58 F3000.0
S90
G01 Y37.03 F1200.0
S1
G00 X17.12 Y37.03 F3000.0
S90
G01 Y33.58 F1200.0
S1
G00 X16.92 Y33.58 F3000.0
S90
G01 Y37.03 F1200.0
S1
G00 X16.72 Y37.03 F3000.0
S90
G01 Y33.58 F1200.0
S1
G00 X16.52 Y33.58 F3000.0
S90
G01 Y37.03 F1200.0
S1
G00 X16.32 Y37.03 F3000.0
S90
G01 Y33.58 F1200.0
S1
G00 X16.12 Y33.58 F3000.0
S90
G01 Y37.03 F1200.0
S1
G00 X15.92 Y37.03 F3000.0
S90
G01 Y33.58 F1200.0
S1
G00 X15.72 Y33.58 F3000.0
S90
G01 Y37.03 F1200.0
S1
G00 X15.52 Y37.03 F3000.0
S90
G01 Y33.58 F1200.0
S1
G00 X15.32 Y33.58 F3000.0
S90
G01 Y37.03 F1200.0
S1
G00 X15.12 Y37.03 F3000.0
S90
G01 Y33.58 F1200.0
S1
G00 X14.92 Y33.58 F3000.0
S90
G01 Y37.03 F1200.0
S1
G00 X14.72 Y37.03 F3000.0
S90
G01 Y33.58 F1200.0
S1
G00 X14.52 Y33.58 F3000.0
S90
G01 Y37.03 F1200.0
S1
G00 X14.32 Y37.03 F3000.0
S90
G01 Y33.58 F1200.0
S1
G00 X14.32 Y23.23 F3000.0
S90
G01 Y12.89 F1200.0
S1
G00 X14.52 Y12.89 F3000.0
S90
G01 Y23.23 F1200.0
S1
G00 X14.72 Y23.23 F3000.0
S90
G01 Y12.89 F1200.0
S1
G00 X14.92 Y12.89 F3000.0
S90
G01 Y23.23 F1200.0
S1
G00 X15.12 Y23.23 F3000.0
S90
G01 Y12.89 F1200.0
S1
G00 X15.32 Y12.89 F3000.0
S90
G01 Y23.23 F1200.0
S1
G00 X15.52 Y23.23 F3000.0
S90
G01 Y12.89 F1200.0
S1
G00 X15.72 Y12.89 F3000.0
S90
G01 Y23.23 F1200.0
S1
G00 X15.92 Y23.23 F3000.0
S90
G01 Y12.89 F1200.0
S1
G00 X16.12 Y12.89 F3000.0
S90
G01 Y23.23 F1200.0
S1
G00 X16.32 Y23.23 F3000.0
S90
G01 Y12.89 F1200.0
S1
G00 X16.52 Y12.89 F3000.0
S90
G01 Y23.23 F1200.0
S1
G00 X16.72 Y23.23 F3000.0
S90
G01 Y12.89 F1200.0
S1
G00 X16.92 Y12.89 F3000.0
S90
G01 Y23.23 F1200.0
S1
G00 X17.12 Y23.23 F3000.0
S90
G01 Y12.89 F1200.0
S1
G00 X17.32 Y12.89 F3000.0
S90
G01 Y23.23 F1200.0
S1
G00 X17.52 Y23.23 F3000.0
S90
G01 Y12.89 F1200.0
S1
G00 X17.72 Y12.89 F3000.0
S90
G01 Y23.23 F1200.0
S1
G00 X17.92 Y23.23 F3000.0
S90
G01 Y12.89 F1200.0
S1
G00 X18.12 Y12.89 F3000.0
S90
G01 Y23.23 F1200.0
S1
G00 X18.32 Y23.23 F3000.0
S90
G01 Y12.89 F1200.0
S1
G00 X18.52 Y12.89 F3000.0
S90
G01 Y23.23 F1200.0
S1
G00 X18.72 Y23.23 F3000.0
S90
G01 Y12.89 F1200.0
S1
G00 X18.92 Y12.89 F3000.0
S90
G01 Y23.23 F1200.0
S1
G00 X19.12 Y23.23 F3000.0
S90
G01 Y12.89 F1200.0
S1
G00 X19.32 Y12.89 F3000.0
S90
G01 Y23.23 F1200.0
S1
G00 X19.52 Y23.23 F3000.0
S90
G01 Y12.89 F1200.0
S1
G00 X19.72 Y12.89 F3000.0
S90
G01 Y23.23 F1200.0
S1
G00 X19.92 Y23.23 F3000.0
S90
G01 Y12.89 F1200.0
S1
G00 X20.12 Y12.89 F3000.0
S90
G01 Y23.23 F1200.0
S1
G00 X20.32 Y23.23 F3000.0
S90
G01 Y12.89 F1200.0
S1
G00 X20.52 Y12.89 F3000.0
S90
G01 Y23.23 F1200.0
S1
G00 X20.72 Y23.23 F3000.0
S90
G01 Y12.89 F1200.0
S1
G00 X20.92 Y12.89 F3000.0
S90
G01 Y23.23 F1200.0
S1
G00 X14.12 Y23.23 F3000.0
S90
G01 Y12.89 F1200.0
S1
G00 X13.92 Y12.89 F3000.0
S90
G01 Y23.23 F1200.0
S1
G00 X13.72 Y23.23 F3000.0
S90
G01 Y12.89 F1200.0
S1
G00 X13.52 Y12.89 F3000.0
S90
G01 Y23.23 F1200.0
S1
G00 X13.32 Y23.23 F3000.0
S90
G01 Y12.89 F1200.0
S1
G00 X13.12 Y12.89 F3000.0
S90
G01 Y23.23 F1200.0
S1
G00 X12.92 Y23.23 F3000.0
S90
G01 Y12.89 F1200.0
S1
G00 X12.72 Y12.89 F3000.0
S90
G01 Y23.23 F1200.0
S1
G00 X12.52 Y23.23 F3000.0
S90
G01 Y12.89 F1200.0
S1
G00 X12.32 Y12.89 F3000.0
S90
G01 Y23.23 F1200.0
S1
G00 X12.12 Y23.23 F3000.0
S90
G01 Y12.89 F1200.0
S1
G00 X11.92 Y12.89 F3000.0
S90
G01 Y23.23 F1200.0
S1
G00 X11.72 Y23.23 F3000.0
S90
G01 Y12.89 F1200.0
S1
G00 X11.52 Y12.89 F3000.0
S90
G01 Y23.23 F1200.0
S1
G00 X11.32 Y23.23 F3000.0
S90
G01 Y12.89 F1200.0
S1
G00 X11.12 Y12.89 F3000.0
S90
G01 Y23.23 F1200.0
S1
G00 X10.92 Y23.23 F3000.0
S90
G01 Y12.89 F1200.0
S1
G00 X10.72 Y12.89 F3000.0
S90
G01 Y23.23 F1200.0
S1
G00 X31.32 Y26.68 F3000.0
S90
G01 Y12.89 F1200.0
S1
G00 X31.52 Y12.89 F3000.0
S90
G01 Y26.68 F1200.0
S1
G00 X31.72 Y26.68 F3000.0
S90
G01 Y12.89 F1200.0
S1
G00 X31.92 Y12.89 F3000.0
S90
G01 Y26.68 F1200.0
S1
G00 X32.12 Y26.68 F3000.0
S90
G01 Y12.89 F1200.0
S1
G00 X32.32 Y12.89 F3000.0
S90
G01 Y26.68 F1200.0
S1
G00 X32.52 Y26.68 F3000.0
S90
G01 Y12.89 F1200.0
S1
G00 X32.72 Y12.89 F3000.0
S90
G01 Y26.68 F1200.0
S1
G00 X32.92 Y26.68 F3000.0
S90
G01 Y12.89 F1200.0
S1
G00 X33.12 Y12.89 F3000.0
S90
G01 Y26.68 F1200.0
S1
G00 X33.32 Y26.68 F3000.0
S90
G01 Y12.89 F1200.0
S1
G00 X33.52 Y12.89 F3000.0
S90
G01 Y26.68 F1200.0
S1
G00 X33.72 Y26.68 F3000.0
S90
G01 Y12.89 F1200.0
S1
G00 X33.92 Y12.89 F3000.0
S90
G01 Y26.68 F1200.0
S1
G00 X34.12 Y26.68 F3000.0
S90
G01 Y12.89 F1200.0
S1
G00 X34.32 Y12.89 F3000.0
S90
G01 Y26.68 F1200.0
S1
G00 X34.52 Y26.68 F3000.0
S90
G01 Y12.89 F1200.0
S1
G00 X34.72 Y12.89 F3000.0
S90
G01 Y26.68 F1200.0
S1
G00 X34.72 Y30.13 F3000.0
S90
G01 Y37.03 F1200.0
S1
G00 X34.52 Y37.03 F3000.0
S90
G01 Y30.13 F1200.0
S1
G00 X34.32 Y30.13 F3000.0
S90
G01 Y37.03 F1200.0
S1
G00 X34.12 Y37.03 F3000.0
S90
G01 Y30.13 F1200.0
S1
G00 X33.92 Y30.13 F3000.0
S90
G01 Y37.03 F1200.0
S1
G00 X33.72 Y37.03 F3000.0
S90
G01 Y30.13 F1200.0
S1
G00 X33.52 Y30.13 F3000.0
S90
G01 Y37.03 F1200.0
S1
G00 X33.32 Y37.03 F3000.0
S90
G01 Y30.13 F1200.0
S1
G00 X33.12 Y30.13 F3000.0
S90
G01 Y37.03 F1200.0
S1
G00 X32.92 Y37.03 F3000.0
S90
G01 Y30.13 F1200.0
S1
G00 X32.72 Y30.13 F3000.0
S90
G01 Y37.03 F1200.0
S1
G00 X32.52 Y37.03 F3000.0
S90
G01 Y30.13 F1200.0
S1
G00 X32.32 Y30.13 F3000.0
S90
G01 Y37.03 F1200.0
S1
G00 X32.12 Y37.03 F3000.0
S90
G01 Y30.13 F1200.0
S1
G00 X31.92 Y30.13 F3000.0
S90
G01 Y37.03 F1200.0
S1
G00 X31.72 Y37.03 F3000.0
S90
G01 Y30.13 F1200.0
S1
G00 X31.52 Y30.13 F3000.0
S90
G01 Y37.03 F1200.0
S1
G00 X31.32 Y37.03 F3000.0
S90
G01 Y30.13 F1200.0
S1
G00 X34.92 Y33.58 F3000.0
S90
G01 Y40.47 F1200.0
S1
G00 X35.12 Y40.47 F3000.0
S90
G01 Y33.58 F1200.0
S1
G00 X35.32 Y33.58 F3000.0
S90
G01 Y40.47 F1200.0
S1
G00 X35.52 Y40.47 F3000.0
S90
G01 Y33.58 F1200.0
S1
G00 X35.72 Y33.58 F3000.0
S90
G01 Y40.47 F1200.0
S1
G00 X35.92 Y40.47 F3000.0
S90
G01 Y33.58 F1200.0
S1
G00 X36.12 Y33.58 F3000.0
S90
G01 Y40.47 F1200.0
S1
G00 X36.32 Y40.47 F3000.0
S90
G01 Y33.58 F1200.0
S1
G00 X36.52 Y33.58 F3000.0
S90
G01 Y40.47 F1200.0
S1
G00 X36.72 Y40.47 F3000.0
S90
G01 Y33.58 F1200.0
S1
G00 X36.92 Y33.58 F3000.0
S90
G01 Y40.47 F1200.0
S1
G00 X37.12 Y40.47 F3000.0
S90
G01 Y33.58 F1200.0
S1
G00 X37.32 Y33.58 F3000.0
S90
G01 Y40.47 F1200.0
S1
G00 X37.52 Y40.47 F3000.0
S90
G01 Y33.58 F1200.0
S1
G00 X37.72 Y33.58 F3000.0
S90
G01 Y40.47 F1200.0
S1
G00 X37.92 Y40.47 F3000.0
S90
G01 Y33.58 F1200.0
S1
G00 X38.12 Y33.58 F3000.0
S90
G01 Y40.47 F1200.0
S1
G00 X38.32 Y40.47 F3000.0
S90
G01 Y54.27 F1200.0
S1
G00 X38.52 Y54.27 F3000.0
S90
G01 Y40.47 F1200.0
S1
G00 X38.72 Y40.47 F3000.0
S90
G01 Y54.27 F1200.0
S1
G00 X38.92 Y54.27 F3000.0
S90
G01 Y40.47 F1200.0
S1
G00 X39.12 Y40.47 F3000.0
S90
G01 Y54.27 F1200.0
S1
G00 X39.32 Y54.27 F3000.0
S90
G01 Y40.47 F1200.0
S1
G00 X39.52 Y40.47 F3000.0
S90
G01 Y54.27 F1200.0
S1
G00 X39.72 Y54.27 F3000.0
S90
G01 Y40.47 F1200.0
S1
G00 X39.92 Y40.47 F3000.0
S90
G01 Y54.27 F1200.0
S1
G00 X40.12 Y54.27 F3000.0
S90
G01 Y40.47 F1200.0
S1
G00 X40.32 Y40.47 F3000.0
S90
G01 Y54.27 F1200.0
S1
G00 X40.52 Y54.27 F3000.0
S90
G01 Y40.47 F1200.0
S1
G00 X40.72 Y40.47 F3000.0
S90
G01 Y54.27 F1200.0
S1
G00 X40.92 Y54.27 F3000.0
S90
G01 Y40.47 F1200.0
S1
G00 X41.12 Y40.47 F3000.0
S90
G01 Y54.27 F1200.0
S1
G00 X41.32 Y54.27 F3000.0
S90
G01 Y40.47 F1200.0
S1
G00 X41.52 Y40.47 F3000.0
S90
G01 Y54.27 F1200.0
S1
G00 X44.32 Y54.75 F3000.0
S90
G01 Y57.36 F1200.0
S1
G00 X44.52 Y58.83 F3000.0
S90
G01 Y53.42 F1200.0
S1
G00 X44.72 Y52.62 F3000.0
S90
G01 Y59.59 F1200.0
S1
G00 X44.92 Y60.22 F3000.0
S90
G01 Y52.1 F1200.0
S1
G00 X45.12 Y51.75 F3000.0
S90
G01 Y60.6 F1200.0
S1
G00 X45.32 Y60.98 F3000.0
S90
G01 Y51.39 F1200.0
S1
G00 X45.52 Y51.04 F3000.0
S90
G01 Y61.35 F1200.0
S1
G00 X45.72 Y61.64 F3000.0
S90
G01 Y50.71 F1200.0
S1
G00 X45.92 Y50.47 F3000.0
S90
G01 Y61.92 F1200.0
S1
G00 X46.12 Y62.19 F3000.0
S90
G01 Y50.23 F1200.0
S1
G00 X46.32 Y49.99 F3000.0
S90
G01 Y62.46 F1200.0
S1
G00 X46.52 Y62.7 F3000.0
S90
G01 Y49.74 F1200.0
S1
G00 X46.72 Y49.5 F3000.0
S90
G01 Y62.9 F1200.0
S1
G00 X46.92 Y63.11 F3000.0
S90
G01 Y49.27 F1200.0
S1
G00 X47.12 Y49.1 F3000.0
S90
G01 Y63.31 F1200.0
S1
G00 X47.32 Y63.51 F3000.0
S90
G01 Y48.93 F1200.0
S1
G00 X47.52 Y48.75 F3000.0
S90
G01 Y63.7 F1200.0
S1
G00 X47.72 Y63.85 F3000.0
S90
G01 Y48.58 F1200.0
S1
G00 X47.92 Y48.41 F3000.0
S90
G01 Y64.0 F1200.0
S1
G00 X48.12 Y64.15 F3000.0
S90
G01 Y48.23 F1200.0
S1
G00 X48.32 Y48.06 F3000.0
S90
G01 Y64.3 F1200.0
S1
G00 X48.52 Y64.46 F3000.0
S90
G01 Y47.94 F1200.0
S1
G00 X48.72 Y47.82 F3000.0
S90
G01 Y64.58 F1200.0
S1
G00 X48.92 Y64.69 F3000.0
S90
G01 Y53.75 F1200.0
S1
G00 X48.92 Y53.74 F3000.0
S90
G01 Y47.7 F1200.0
S1
G00 X49.12 Y47.58 F3000.0
S90
G01 Y52.98 F1200.0
S1
G00 X49.32 Y52.78 F3000.0
S90
G01 Y47.46 F1200.0
S1
G00 X49.52 Y47.34 F3000.0
S90
G01 Y52.59 F1200.0
S1
G00 X49.72 Y52.41 F3000.0
S90
G01 Y47.22 F1200.0
S1
G00 X49.92 Y47.11 F3000.0
S90
G01 Y52.24 F1200.0
S1
G00 X50.12 Y51.99 F3000.0
S90
G01 Y47.04 F1200.0
S1
G00 X50.32 Y46.97 F3000.0
S90
G01 Y51.64 F1200.0
S1
G00 X50.52 Y51.31 F3000.0
S90
G01 Y46.91 F1200.0
S1
G00 X50.72 Y46.84 F3000.0
S90
G01 Y51.0 F1200.0
S1
G00 X50.92 Y50.75 F3000.0
S90
G01 Y46.77 F1200.0
S1
G00 X51.12 Y46.7 F3000.0
S90
G01 Y50.62 F1200.0
S1
G00 X51.32 Y50.49 F3000.0
S90
G01 Y46.64 F1200.0
S1
G00 X51.52 Y46.57 F3000.0
S90
G01 Y50.47 F1200.0
S1
G00 X51.72 Y50.48 F3000.0
S90
G01 Y46.5 F1200.0
S1
G00 X51.92 Y46.44 F3000.0
S90
G01 Y50.74 F1200.0
S1
G00 X52.12 Y50.99 F3000.0
S90
G01 Y46.42 F1200.0
S1
G00 X52.32 Y46.4 F3000.0
S90
G01 Y50.81 F1200.0
S1
G00 X52.52 Y50.59 F3000.0
S90
G01 Y46.38 F1200.0
S1
G00 X52.72 Y46.36 F3000.0
S90
G01 Y50.34 F1200.0
S1
G00 X52.92 Y50.05 F3000.0
S90
G01 Y46.34 F1200.0
S1
G00 X53.12 Y46.33 F3000.0
S90
G01 Y49.77 F1200.0
S1
G00 X53.32 Y49.59 F3000.0
S90
G01 Y46.31 F1200.0
S1
G00 X53.52 Y46.29 F3000.0
S90
G01 Y49.9 F1200.0
S1
G00 X53.72 Y50.2 F3000.0
S90
G01 Y46.27 F1200.0
S1
G00 X53.92 Y46.25 F3000.0
S90
G01 Y50.45 F1200.0
S1
G00 X54.12 Y50.63 F3000.0
S90
G01 Y46.23 F1200.0
S1
G00 X54.32 Y46.25 F3000.0
S90
G01 Y50.81 F1200.0
S1
G00 X54.52 Y50.97 F3000.0
S90
G01 Y46.27 F1200.0
S1
G00 X54.72 Y46.29 F3000.0
S90
G01 Y51.03 F1200.0
S1
G00 X54.92 Y51.09 F3000.0
S90
G01 Y46.31 F1200.0
S1
G00 X55.12 Y46.33 F3000.0
S90
G01 Y51.16 F1200.0
S1
G00 X55.32 Y51.22 F3000.0
S90
G01 Y46.35 F1200.0
S1
G00 X55.52 Y46.37 F3000.0
S90
G01 Y51.28 F1200.0
S1
G00 X55.72 Y51.33 F3000.0
S90
G01 Y46.39 F1200.0
S1
G00 X55.92 Y46.4 F3000.0
S90
G01 Y51.39 F1200.0
S1
G00 X56.12 Y51.45 F3000.0
S90
G01 Y46.42 F1200.0
S1
G00 X56.32 Y46.47 F3000.0
S90
G01 Y51.53 F1200.0
S1
G00 X56.52 Y51.67 F3000.0
S90
G01 Y46.53 F1200.0
S1
G00 X56.72 Y46.59 F3000.0
S90
G01 Y51.8 F1200.0
S1
G00 X56.92 Y51.94 F3000.0
S90
G01 Y46.65 F1200.0
S1
G00 X57.12 Y46.71 F3000.0
S90
G01 Y52.07 F1200.0
S1
G00 X57.32 Y52.21 F3000.0
S90
G01 Y46.77 F1200.0
S1
G00 X57.52 Y46.83 F3000.0
S90
G01 Y52.42 F1200.0
S1
G00 X57.72 Y52.63 F3000.0
S90
G01 Y46.89 F1200.0
S1
G00 X57.92 Y46.94 F3000.0
S90
G01 Y52.85 F1200.0
S1
G00 X58.12 Y53.06 F3000.0
S90
G01 Y47.02 F1200.0
S1
G00 X58.32 Y47.13 F3000.0
S90
G01 Y53.49 F1200.0
S1
G00 X58.32 Y54.9 F3000.0
S90
G01 Y56.57 F1200.0
S1
G00 X58.52 Y56.85 F3000.0
S90
G01 Y47.24 F1200.0
S1
G00 X58.72 Y47.34 F3000.0
S90
G01 Y57.13 F1200.0
S1
G00 X58.72 Y58.4 F3000.0
S90
G01 Y65.02 F1200.0
S1
G00 X58.92 Y64.92 F3000.0
S90
G01 Y47.45 F1200.0
S1
G00 X59.12 Y47.55 F3000.0
S90
G01 Y64.81 F1200.0
S1
G00 X59.32 Y64.71 F3000.0
S90
G01 Y47.66 F1200.0
S1
G00 X59.52 Y47.76 F3000.0
S90
G01 Y64.6 F1200.0
S1
G00 X59.72 Y64.49 F3000.0
S90
G01 Y47.88 F1200.0
S1
G00 X59.92 Y48.04 F3000.0
S90
G01 Y64.32 F1200.0
S1
G00 X60.12 Y64.16 F3000.0
S90
G01 Y48.21 F1200.0
S1
G00 X60.32 Y48.37 F3000.0
S90
G01 Y63.99 F1200.0
S1
G00 X60.52 Y63.83 F3000.0
S90
G01 Y48.54 F1200.0
S1
G00 X60.72 Y48.71 F3000.0
S90
G01 Y63.66 F1200.0
S1
G00 X60.92 Y63.49 F3000.0
S90
G01 Y48.87 F1200.0
S1
G00 X61.12 Y49.04 F3000.0
S90
G01 Y63.33 F1200.0
S1
G00 X61.32 Y63.08 F3000.0
S90
G01 Y49.29 F1200.0
S1
G00 X61.52 Y49.54 F3000.0
S90
G01 Y62.83 F1200.0
S1
G00 X61.72 Y62.58 F3000.0
S90
G01 Y49.79 F1200.0
S1
G00 X61.92 Y50.04 F3000.0
S90
G01 Y62.33 F1200.0
S1
G00 X62.12 Y62.08 F3000.0
S90
G01 Y50.29 F1200.0
S1
G00 X62.32 Y50.57 F3000.0
S90
G01 Y61.8 F1200.0
S1
G00 X62.52 Y61.4 F3000.0
S90
G01 Y50.96 F1200.0
S1
G00 X62.72 Y51.36 F3000.0
S90
G01 Y61.01 F1200.0
S1
G00 X62.92 Y60.62 F3000.0
S90
G01 Y51.75 F1200.0
S1
G00 X63.12 Y52.14 F3000.0
S90
G01 Y60.22 F1200.0
S1
G00 X63.32 Y59.55 F3000.0
S90
G01 Y52.82 F1200.0
S1
G00 X63.52 Y53.53 F3000.0
S90
G01 Y58.84 F1200.0
S1
G00 X63.72 Y57.81 F3000.0
S90
G01 Y54.55 F1200.0
S1
G00 X65.92 Y54.27 F3000.0
S90
G01 Y61.16 F1200.0
S1
G00 X66.12 Y61.16 F3000.0
S90
G01 Y54.27 F1200.0
S1
G00 X66.32 Y54.27 F3000.0
S90
G01 Y61.16 F1200.0
S1
G00 X66.52 Y61.16 F3000.0
S90
G01 Y54.27 F1200.0
S1
G00 X66.72 Y54.27 F3000.0
S90
G01 Y61.16 F1200.0
S1
G00 X66.92 Y61.16 F3000.0
S90
G01 Y54.27 F1200.0
S1
G00 X67.12 Y54.27 F3000.0
S90
G01 Y61.16 F1200.0
S1
G00 X67.32 Y61.16 F3000.0
S90
G01 Y54.27 F1200.0
S1
G00 X67.52 Y54.27 F3000.0
S90
G01 Y61.16 F1200.0
S1
G00 X67.72 Y61.16 F3000.0
S90
G01 Y54.27 F1200.0
S1
G00 X67.92 Y54.27 F3000.0
S90
G01 Y61.16 F1200.0
S1
G00 X68.12 Y61.16 F3000.0
S90
G01 Y54.27 F1200.0
S1
G00 X68.32 Y54.27 F3000.0
S90
G01 Y61.16 F1200.0
S1
G00 X68.52 Y61.16 F3000.0
S90
G01 Y54.27 F1200.0
S1
G00 X68.72 Y54.27 F3000.0
S90
G01 Y61.16 F1200.0
S1
G00 X68.92 Y61.16 F3000.0
S90
G01 Y54.27 F1200.0
S1
G00 X69.12 Y54.27 F3000.0
S90
G01 Y61.16 F1200.0
S1
G00 X72.72 Y61.16 F3000.0
S90
G01 Y57.72 F1200.0
S1
G00 X72.92 Y57.72 F3000.0
S90
G01 Y61.16 F1200.0
S1
G00 X73.12 Y61.16 F3000.0
S90
G01 Y57.72 F1200.0
S1
G00 X73.32 Y57.72 F3000.0
S90
G01 Y61.16 F1200.0
S1
G00 X73.52 Y61.16 F3000.0
S90
G01 Y57.72 F1200.0
S1
G00 X73.72 Y57.72 F3000.0
S90
G01 Y61.16 F1200.0
S1
G00 X73.92 Y61.16 F3000.0
S90
G01 Y57.72 F1200.0
S1
G00 X74.12 Y57.72 F3000.0
S90
G01 Y61.16 F1200.0
S1
G00 X74.32 Y61.16 F3000.0
S90
G01 Y57.72 F1200.0
S1
G00 X74.52 Y57.72 F3000.0
S90
G01 Y61.16 F1200.0
S1
G00 X74.72 Y61.16 F3000.0
S90
G01 Y57.72 F1200.0
S1
G00 X74.92 Y57.72 F3000.0
S90
G01 Y61.16 F1200.0
S1
G00 X75.12 Y61.16 F3000.0
S90
G01 Y57.72 F1200.0
S1
G00 X75.32 Y57.72 F3000.0
S90
G01 Y61.16 F1200.0
S1
G00 X75.52 Y61.16 F3000.0
S90
G01 Y57.72 F1200.0
S1
G00 X75.72 Y57.72 F3000.0
S90
G01 Y61.16 F1200.0
S1
G00 X75.92 Y61.16 F3000.0
S90
G01 Y57.72 F1200.0
S1
G00 X76.12 Y57.72 F3000.0
S90
G01 Y61.16 F1200.0
S1
G00 X76.12 Y64.61 F3000.0
S90
G01 Y71.51 F1200.0
S1
G00 X75.92 Y71.51 F3000.0
S90
G01 Y64.61 F1200.0
S1
G00 X75.72 Y64.61 F3000.0
S90
G01 Y71.51 F1200.0
S1
G00 X75.52 Y71.51 F3000.0
S90
G01 Y64.61 F1200.0
S1
G00 X75.32 Y64.61 F3000.0
S90
G01 Y71.51 F1200.0
S1
G00 X75.12 Y71.51 F3000.0
S90
G01 Y64.61 F1200.0
S1
G00 X74.92 Y64.61 F3000.0
S90
G01 Y71.51 F1200.0
S1
G00 X74.72 Y71.51 F3000.0
S90
G01 Y64.61 F1200.0
S1
G00 X74.52 Y64.61 F3000.0
S90
G01 Y71.51 F1200.0
S1
G00 X74.32 Y71.51 F3000.0
S90
G01 Y64.61 F1200.0
S1
G00 X74.12 Y64.61 F3000.0
S90
G01 Y71.51 F1200.0
S1
G00 X73.92 Y71.51 F3000.0
S90
G01 Y64.61 F1200.0
S1
G00 X73.72 Y64.61 F3000.0
S90
G01 Y71.51 F1200.0
S1
G00 X73.52 Y71.51 F3000.0
S90
G01 Y64.61 F1200.0
S1
G00 X73.32 Y64.61 F3000.0
S90
G01 Y71.51 F1200.0
S1
G00 X73.12 Y71.51 F3000.0
S90
G01 Y64.61 F1200.0
S1
G00 X72.92 Y64.61 F3000.0
S90
G01 Y71.51 F1200.0
S1
G00 X72.72 Y71.51 F3000.0
S90
G01 Y64.61 F1200.0
S1
G00 X72.52 Y64.61 F3000.0
S90
G01 Y68.06 F1200.0
S1
G00 X72.32 Y68.06 F3000.0
S90
G01 Y64.61 F1200.0
S1
G00 X72.12 Y64.61 F3000.0
S90
G01 Y68.06 F1200.0
S1
G00 X71.92 Y68.06 F3000.0
S90
G01 Y64.61 F1200.0
S1
G00 X71.72 Y64.61 F3000.0
S90
G01 Y68.06 F1200.0
S1
G00 X71.52 Y68.06 F3000.0
S90
G01 Y64.61 F1200.0
S1
G00 X71.32 Y64.61 F3000.0
S90
G01 Y68.06 F1200.0
S1
G00 X71.12 Y68.06 F3000.0
S90
G01 Y64.61 F1200.0
S1
G00 X70.92 Y64.61 F3000.0
S90
G01 Y68.06 F1200.0
S1
G00 X70.72 Y68.06 F3000.0
S90
G01 Y64.61 F1200.0
S1
G00 X70.52 Y64.61 F3000.0
S90
G01 Y68.06 F1200.0
S1
G00 X70.32 Y68.06 F3000.0
S90
G01 Y64.61 F1200.0
S1
G00 X70.12 Y64.61 F3000.0
S90
G01 Y68.06 F1200.0
S1
G00 X69.92 Y68.06 F3000.0
S90
G01 Y64.61 F1200.0
S1
G00 X69.72 Y64.61 F3000.0
S90
G01 Y68.06 F1200.0
S1
G00 X69.52 Y68.06 F3000.0
S90
G01 Y64.61 F1200.0
S1
G00 X69.32 Y64.61 F3000.0
S90
G01 Y68.06 F1200.0
S1
G00 X69.12 Y68.06 F3000.0
S90
G01 Y71.51 F1200.0
S1
G00 X68.92 Y71.51 F3000.0
S90
G01 Y68.06 F1200.0
S1
G00 X68.72 Y68.06 F3000.0
S90
G01 Y71.51 F1200.0
S1
G00 X68.52 Y71.51 F3000.0
S90
G01 Y68.06 F1200.0
S1
G00 X68.32 Y68.06 F3000.0
S90
G01 Y71.51 F1200.0
S1
G00 X68.12 Y71.51 F3000.0
S90
G01 Y68.06 F1200.0
S1
G00 X67.92 Y68.06 F3000.0
S90
G01 Y71.51 F1200.0
S1
G00 X67.72 Y71.51 F3000.0
S90
G01 Y68.06 F1200.0
S1
G00 X67.52 Y68.06 F3000.0
S90
G01 Y71.51 F1200.0
S1
G00 X67.32 Y71.51 F3000.0
S90
G01 Y68.06 F1200.0
S1
G00 X67.12 Y68.06 F3000.0
S90
G01 Y71.51 F1200.0
S1
G00 X66.92 Y71.51 F3000.0
S90
G01 Y68.06 F1200.0
S1
G00 X66.72 Y68.06 F3000.0
S90
G01 Y71.51 F1200.0
S1
G00 X66.52 Y71.51 F3000.0
S90
G01 Y68.06 F1200.0
S1
G00 X66.32 Y68.06 F3000.0
S90
G01 Y71.51 F1200.0
S1
G00 X66.12 Y71.51 F3000.0
S90
G01 Y68.06 F1200.0
S1
G00 X65.92 Y68.06 F3000.0
S90
G01 Y71.51 F1200.0
S1
G00 X69.32 Y71.51 F3000.0
S90
G01 Y74.96 F1200.0
S1
G00 X69.52 Y74.96 F3000.0
S90
G01 Y71.51 F1200.0
S1
G00 X69.72 Y71.51 F3000.0
S90
G01 Y74.96 F1200.0
S1
G00 X69.92 Y74.96 F3000.0
S90
G01 Y71.51 F1200.0
S1
G00 X70.12 Y71.51 F3000.0
S90
G01 Y74.96 F1200.0
S1
G00 X70.32 Y74.96 F3000.0
S90
G01 Y71.51 F1200.0
S1
G00 X70.52 Y71.51 F3000.0
S90
G01 Y74.96 F1200.0
S1
G00 X70.72 Y74.96 F3000.0
S90
G01 Y71.51 F1200.0
S1
G00 X70.92 Y71.51 F3000.0
S90
G01 Y74.96 F1200.0
S1
G00 X71.12 Y74.96 F3000.0
S90
G01 Y71.51 F1200.0
S1
G00 X71.32 Y71.51 F3000.0
S90
G01 Y74.96 F1200.0
S1
G00 X71.52 Y74.96 F3000.0
S90
G01 Y71.51 F1200.0
S1
G00 X71.72 Y71.51 F3000.0
S90
G01 Y74.96 F1200.0
S1
G00 X71.92 Y74.96 F3000.0
S90
G01 Y71.51 F1200.0
S1
G00 X72.12 Y71.51 F3000.0
S90
G01 Y74.96 F1200.0
S1
G00 X72.32 Y74.96 F3000.0
S90
G01 Y71.51 F1200.0
S1
G00 X72.52 Y71.51 F3000.0
S90
G01 Y74.96 F1200.0
S1
G00 X72.72 Y74.96 F3000.0
S90
G01 Y78.4 F1200.0
S1
G00 X72.52 Y78.4 F3000.0
S90
G01 Y81.85 F1200.0
S1
G00 X72.32 Y81.85 F3000.0
S90
G01 Y78.4 F1200.0
S1
G00 X72.12 Y78.4 F3000.0
S90
G01 Y81.85 F1200.0
S1
G00 X71.92 Y81.85 F3000.0
S90
G01 Y78.4 F1200.0
S1
G00 X71.72 Y78.4 F3000.0
S90
G01 Y81.85 F1200.0
S1
G00 X71.52 Y81.85 F3000.0
S90
G01 Y78.4 F1200.0
S1
G00 X71.32 Y78.4 F3000.0
S90
G01 Y81.85 F1200.0
S1
G00 X71.12 Y81.85 F3000.0
S90
G01 Y78.4 F1200.0
S1
G00 X70.92 Y78.4 F3000.0
S90
G01 Y81.85 F1200.0
S1
G00 X70.72 Y81.85 F3000.0
S90
G01 Y78.4 F1200.0
S1
G00 X70.52 Y78.4 F3000.0
S90
G01 Y81.85 F1200.0
S1
G00 X70.32 Y81.85 F3000.0
S90
G01 Y78.4 F1200.0
S1
G00 X70.12 Y78.4 F3000.0
S90
G01 Y81.85 F1200.0
S1
G00 X69.92 Y81.85 F3000.0
S90
G01 Y78.4 F1200.0
S1
G00 X69.72 Y78.4 F3000.0
S90
G01 Y81.85 F1200.0
S1
G00 X69.52 Y81.85 F3000.0
S90
G01 Y78.4 F1200.0
S1
G00 X69.32 Y78.4 F3000.0
S90
G01 Y81.85 F1200.0
S1
G00 X72.72 Y81.85 F3000.0
S90
G01 Y92.2 F1200.0
S1
G00 X72.92 Y92.2 F3000.0
S90
G01 Y81.85 F1200.0
S1
G00 X73.12 Y81.85 F3000.0
S90
G01 Y92.2 F1200.0
S1
G00 X73.32 Y92.2 F3000.0
S90
G01 Y81.85 F1200.0
S1
G00 X73.52 Y81.85 F3000.0
S90
G01 Y92.2 F1200.0
S1
G00 X73.72 Y92.2 F3000.0
S90
G01 Y81.85 F1200.0
S1
G00 X73.92 Y81.85 F3000.0
S90
G01 Y92.2 F1200.0
S1
G00 X74.12 Y92.2 F3000.0
S90
G01 Y81.85 F1200.0
S1
G00 X74.32 Y81.85 F3000.0
S90
G01 Y92.2 F1200.0
S1
G00 X74.52 Y92.2 F3000.0
S90
G01 Y81.85 F1200.0
S1
G00 X74.72 Y81.85 F3000.0
S90
G01 Y92.2 F1200.0
S1
G00 X74.92 Y92.2 F3000.0
S90
G01 Y81.85 F1200.0
S1
G00 X75.12 Y81.85 F3000.0
S90
G01 Y92.2 F1200.0
S1
G00 X75.32 Y92.2 F3000.0
S90
G01 Y81.85 F1200.0
S1
G00 X75.52 Y81.85 F3000.0
S90
G01 Y92.2 F1200.0
S1
G00 X75.72 Y92.2 F3000.0
S90
G01 Y81.85 F1200.0
S1
G00 X75.92 Y81.85 F3000.0
S90
G01 Y92.2 F1200.0
S1
G00 X76.12 Y92.2 F3000.0
S90
G01 Y81.85 F1200.0
S1
G00 X76.12 Y78.4 F3000.0
S90
G01 Y74.96 F1200.0
S1
G00 X75.92 Y74.96 F3000.0
S90
G01 Y78.4 F1200.0
S1
G00 X75.72 Y78.4 F3000.0
S90
G01 Y74.96 F1200.0
S1
G00 X75.52 Y74.96 F3000.0
S90
G01 Y78.4 F1200.0
S1
G00 X75.32 Y78.4 F3000.0
S90
G01 Y74.96 F1200.0
S1
G00 X75.12 Y74.96 F3000.0
S90
G01 Y78.4 F1200.0
S1
G00 X74.92 Y78.4 F3000.0
S90
G01 Y74.96 F1200.0
S1
G00 X74.72 Y74.96 F3000.0
S90
G01 Y78.4 F1200.0
S1
G00 X74.52 Y78.4 F3000.0
S90
G01 Y74.96 F1200.0
S1
G00 X74.32 Y74.96 F3000.0
S90
G01 Y78.4 F1200.0
S1
G00 X74.12 Y78.4 F3000.0
S90
G01 Y74.96 F1200.0
S1
G00 X73.92 Y74.96 F3000.0
S90
G01 Y78.4 F1200.0
S1
G00 X73.72 Y78.4 F3000.0
S90
G01 Y74.96 F1200.0
S1
G00 X73.52 Y74.96 F3000.0
S90
G01 Y78.4 F1200.0
S1
G00 X73.32 Y78.4 F3000.0
S90
G01 Y74.96 F1200.0
S1
G00 X73.12 Y74.96 F3000.0
S90
G01 Y78.4 F1200.0
S1
G00 X72.92 Y78.4 F3000.0
S90
G01 Y74.96 F1200.0
S1
G00 X76.32 Y74.96 F3000.0
S90
G01 Y68.06 F1200.0
S1
G00 X76.52 Y68.06 F3000.0
S90
G01 Y74.96 F1200.0
S1
G00 X76.72 Y74.96 F3000.0
S90
G01 Y68.06 F1200.0
S1
G00 X76.92 Y68.06 F3000.0
S90
G01 Y74.96 F1200.0
S1
G00 X77.12 Y74.96 F3000.0
S90
G01 Y68.06 F1200.0
S1
G00 X77.32 Y68.06 F3000.0
S90
G01 Y74.96 F1200.0
S1
G00 X77.52 Y74.96 F3000.0
S90
G01 Y68.06 F1200.0
S1
G00 X77.72 Y68.06 F3000.0
S90
G01 Y74.96 F1200.0
S1
G00 X77.92 Y74.96 F3000.0
S90
G01 Y68.06 F1200.0
S1
G00 X78.12 Y68.06 F3000.0
S90
G01 Y74.96 F1200.0
S1
G00 X78.32 Y74.96 F3000.0
S90
G01 Y68.06 F1200.0
S1
G00 X78.52 Y68.06 F3000.0
S90
G01 Y74.96 F1200.0
S1
G00 X78.72 Y74.96 F3000.0
S90
G01 Y68.06 F1200.0
S1
G00 X78.92 Y68.06 F3000.0
S90
G01 Y74.96 F1200.0
S1
G00 X79.12 Y74.96 F3000.0
S90
G01 Y68.06 F1200.0
S1
G00 X79.32 Y68.06 F3000.0
S90
G01 Y74.96 F1200.0
S1
G00 X79.52 Y74.96 F3000.0
S90
G01 Y68.06 F1200.0
S1
G00 X79.72 Y68.06 F3000.0
S90
G01 Y64.61 F1200.0
S1
G00 X79.92 Y64.61 F3000.0
S90
G01 Y68.06 F1200.0
S1
G00 X80.12 Y68.06 F3000.0
S90
G01 Y64.61 F1200.0
S1
G00 X80.32 Y64.61 F3000.0
S90
G01 Y68.06 F1200.0
S1
G00 X80.52 Y68.06 F3000.0
S90
G01 Y64.61 F1200.0
S1
G00 X80.72 Y64.61 F3000.0
S90
G01 Y68.06 F1200.0
S1
G00 X80.92 Y68.06 F3000.0
S90
G01 Y64.61 F1200.0
S1
G00 X81.12 Y64.61 F3000.0
S90
G01 Y68.06 F1200.0
S1
G00 X81.32 Y68.06 F3000.0
S90
G01 Y64.61 F1200.0
S1
G00 X81.52 Y64.61 F3000.0
S90
G01 Y68.06 F1200.0
S1
G00 X81.72 Y68.06 F3000.0
S90
G01 Y64.61 F1200.0
S1
G00 X81.92 Y64.61 F3000.0
S90
G01 Y68.06 F1200.0
S1
G00 X82.12 Y68.06 F3000.0
S90
G01 Y64.61 F1200.0
S1
G00 X82.32 Y64.61 F3000.0
S90
G01 Y68.06 F1200.0
S1
G00 X82.52 Y68.06 F3000.0
S90
G01 Y64.61 F1200.0
S1
G00 X82.72 Y64.61 F3000.0
S90
G01 Y68.06 F1200.0
S1
G00 X82.92 Y68.06 F3000.0
S90
G01 Y64.61 F1200.0
S1
G00 X82.92 Y61.16 F3000.0
S90
G01 Y57.72 F1200.0
S1
G00 X82.72 Y57.72 F3000.0
S90
G01 Y61.16 F1200.0
S1
G00 X82.52 Y61.16 F3000.0
S90
G01 Y57.72 F1200.0
S1
G00 X82.32 Y57.72 F3000.0
S90
G01 Y61.16 F1200.0
S1
G00 X82.12 Y61.16 F3000.0
S90
G01 Y57.72 F1200.0
S1
G00 X81.92 Y57.72 F3000.0
S90
G01 Y61.16 F1200.0
S1
G00 X81.72 Y61.16 F3000.0
S90
G01 Y57.72 F1200.0
S1
G00 X81.52 Y57.72 F3000.0
S90
G01 Y61.16 F1200.0
S1
G00 X81.32 Y61.16 F3000.0
S90
G01 Y57.72 F1200.0
S1
G00 X81.12 Y57.72 F3000.0
S90
G01 Y61.16 F1200.0
S1
G00 X80.92 Y61.16 F3000.0
S90
G01 Y57.72 F1200.0
S1
G00 X80.72 Y57.72 F3000.0
S90
G01 Y61.16 F1200.0
S1
G00 X80.52 Y61.16 F3000.0
S90
G01 Y57.72 F1200.0
S1
G00 X80.32 Y57.72 F3000.0
S90
G01 Y61.16 F1200.0
S1
G00 X80.12 Y61.16 F3000.0
S90
G01 Y57.72 F1200.0
S1
G00 X79.92 Y57.72 F3000.0
S90
G01 Y61.16 F1200.0
S1
G00 X79.72 Y61.16 F3000.0
S90
G01 Y57.72 F1200.0
S1
G00 X79.72 Y54.27 F3000.0
S90
G01 Y50.82 F1200.0
S1
G00 X79.52 Y50.82 F3000.0
S90
G01 Y47.37 F1200.0
S1
G00 X79.32 Y47.37 F3000.0
S90
G01 Y50.82 F1200.0
S1
G00 X79.12 Y50.82 F3000.0
S90
G01 Y47.37 F1200.0
S1
G00 X78.92 Y47.37 F3000.0
S90
G01 Y50.82 F1200.0
S1
G00 X78.72 Y50.82 F3000.0
S90
G01 Y47.37 F1200.0
S1
G00 X78.52 Y47.37 F3000.0
S90
G01 Y50.82 F1200.0
S1
G00 X78.32 Y50.82 F3000.0
S90
G01 Y47.37 F1200.0
S1
G00 X78.12 Y47.37 F3000.0
S90
G01 Y50.82 F1200.0
S1
G00 X77.92 Y50.82 F3000.0
S90
G01 Y47.37 F1200.0
S1
G00 X77.72 Y47.37 F3000.0
S90
G01 Y50.82 F1200.0
S1
G00 X77.52 Y50.82 F3000.0
S90
G01 Y47.37 F1200.0
S1
G00 X77.32 Y47.37 F3000.0
S90
G01 Y50.82 F1200.0
S1
G00 X77.12 Y50.82 F3000.0
S90
G01 Y47.37 F1200.0
S1
G00 X76.92 Y47.37 F3000.0
S90
G01 Y50.82 F1200.0
S1
G00 X76.72 Y50.82 F3000.0
S90
G01 Y47.37 F1200.0
S1
G00 X76.52 Y47.37 F3000.0
S90
G01 Y50.82 F1200.0
S1
G00 X76.32 Y50.82 F3000.0
S90
G01 Y47.37 F1200.0
S1
G00 X79.72 Y47.37 F3000.0
S90
G01 Y43.92 F1200.0
S1
G00 X79.92 Y43.92 F3000.0
S90
G01 Y47.37 F1200.0
S1
G00 X80.12 Y47.37 F3000.0
S90
G01 Y43.92 F1200.0
S1
G00 X80.32 Y43.92 F3000.0
S90
G01 Y47.37 F1200.0
S1
G00 X80.52 Y47.37 F3000.0
S90
G01 Y43.92 F1200.0
S1
G00 X80.72 Y43.92 F3000.0
S90
G01 Y47.37 F1200.0
S1
G00 X80.92 Y47.37 F3000.0
S90
G01 Y43.92 F1200.0
S1
G00 X81.12 Y43.92 F3000.0
S90
G01 Y47.37 F1200.0
S1
G00 X81.32 Y47.37 F3000.0
S90
G01 Y43.92 F1200.0
S1
G00 X81.52 Y43.92 F3000.0
S90
G01 Y47.37 F1200.0
S1
G00 X81.72 Y47.37 F3000.0
S90
G01 Y43.92 F1200.0
S1
G00 X81.92 Y43.92 F3000.0
S90
G01 Y47.37 F1200.0
S1
G00 X82.12 Y47.37 F3000.0
S90
G01 Y43.92 F1200.0
S1
G00 X82.32 Y43.92 F3000.0
S90
G01 Y47.37 F1200.0
S1
G00 X82.52 Y47.37 F3000.0
S90
G01 Y43.92 F1200.0
S1
G00 X82.72 Y43.92 F3000.0
S90
G01 Y47.37 F1200.0
S1
G00 X82.92 Y47.37 F3000.0
S90
G01 Y43.92 F1200.0
S1
G00 X83.12 Y47.37 F3000.0
S90
G01 Y40.47 F1200.0
S1
G00 X83.32 Y40.47 F3000.0
S90
G01 Y47.37 F1200.0
S1
G00 X83.52 Y47.37 F3000.0
S90
G01 Y40.47 F1200.0
S1
G00 X83.72 Y40.47 F3000.0
S90
G01 Y47.37 F1200.0
S1
G00 X83.92 Y47.37 F3000.0
S90
G01 Y40.47 F1200.0
S1
G00 X84.12 Y40.47 F3000.0
S90
G01 Y47.37 F1200.0
S1
G00 X84.32 Y47.37 F3000.0
S90
G01 Y40.47 F1200.0
S1
G00 X84.52 Y40.47 F3000.0
S90
G01 Y47.37 F1200.0
S1
G00 X84.72 Y47.37 F3000.0
S90
G01 Y40.47 F1200.0
S1
G00 X84.92 Y40.47 F3000.0
S90
G01 Y47.37 F1200.0
S1
G00 X85.12 Y47.37 F3000.0
S90
G01 Y40.47 F1200.0
S1
G00 X85.32 Y40.47 F3000.0
S90
G01 Y47.37 F1200.0
S1
G00 X85.52 Y47.37 F3000.0
S90
G01 Y40.47 F1200.0
S1
G00 X85.72 Y40.47 F3000.0
S90
G01 Y47.37 F1200.0
S1
G00 X85.92 Y47.37 F3000.0
S90
G01 Y40.47 F1200.0
S1
G00 X86.12 Y40.47 F3000.0
S90
G01 Y47.37 F1200.0
S1
G00 X86.32 Y47.37 F3000.0
S90
G01 Y40.47 F1200.0
S1
G00 X86.32 Y37.03 F3000.0
S90
G01 Y33.58 F1200.0
S1
G00 X86.12 Y33.58 F3000.0
S90
G01 Y37.03 F1200.0
S1
G00 X85.92 Y37.03 F3000.0
S90
G01 Y33.58 F1200.0
S1
G00 X85.72 Y33.58 F3000.0
S90
G01 Y37.03 F1200.0
S1
G00 X85.52 Y37.03 F3000.0
S90
G01 Y33.58 F1200.0
S1
G00 X85.32 Y33.58 F3000.0
S90
G01 Y37.03 F1200.0
S1
G00 X85.12 Y37.03 F3000.0
S90
G01 Y33.58 F1200.0
S1
G00 X84.92 Y33.58 F3000.0
S90
G01 Y37.03 F1200.0
S1
G00 X84.72 Y37.03 F3000.0
S90
G01 Y33.58 F1200.0
S1
G00 X84.52 Y33.58 F3000.0
S90
G01 Y37.03 F1200.0
S1
G00 X84.32 Y37.03 F3000.0
S90
G01 Y33.58 F1200.0
S1
G00 X84.12 Y33.58 F3000.0
S90
G01 Y37.03 F1200.0
S1
G00 X83.92 Y37.03 F3000.0
S90
G01 Y33.58 F1200.0
S1
G00 X83.72 Y33.58 F3000.0
S90
G01 Y37.03 F1200.0
S1
G00 X83.52 Y37.03 F3000.0
S90
G01 Y33.58 F1200.0
S1
G00 X83.32 Y33.58 F3000.0
S90
G01 Y37.03 F1200.0
S1
G00 X83.12 Y37.03 F3000.0
S90
G01 Y33.58 F1200.0
S1
G00 X82.92 Y33.58 F3000.0
S90
G01 Y37.03 F1200.0
S1
G00 X82.72 Y37.03 F3000.0
S90
G01 Y33.58 F1200.0
S1
G00 X82.52 Y33.58 F3000.0
S90
G01 Y37.03 F1200.0
S1
G00 X82.32 Y37.03 F3000.0
S90
G01 Y33.58 F1200.0
S1
G00 X82.12 Y33.58 F3000.0
S90
G01 Y37.03 F1200.0
S1
G00 X81.92 Y37.03 F3000.0
S90
G01 Y33.58 F1200.0
S1
G00 X81.72 Y33.58 F3000.0
S90
G01 Y37.03 F1200.0
S1
G00 X81.52 Y37.03 F3000.0
S90
G01 Y33.58 F1200.0
S1
G00 X81.32 Y33.58 F3000.0
S90
G01 Y37.03 F1200.0
S1
G00 X81.12 Y37.03 F3000.0
S90
G01 Y33.58 F1200.0
S1
G00 X80.92 Y33.58 F3000.0
S90
G01 Y37.03 F1200.0
S1
G00 X80.72 Y37.03 F3000.0
S90
G01 Y33.58 F1200.0
S1
G00 X80.52 Y33.58 F3000.0
S90
G01 Y37.03 F1200.0
S1
G00 X80.32 Y37.03 F3000.0
S90
G01 Y33.58 F1200.0
S1
G00 X80.12 Y33.58 F3000.0
S90
G01 Y37.03 F1200.0
S1
G00 X79.92 Y37.03 F3000.0
S90
G01 Y33.58 F1200.0
S1
G00 X79.72 Y33.58 F3000.0
S90
G01 Y37.03 F1200.0
S1
G00 X79.52 Y40.47 F3000.0
S90
G01 Y33.58 F1200.0
S1
G00 X79.32 Y33.58 F3000.0
S90
G01 Y40.47 F1200.0
S1
G00 X79.12 Y40.47 F3000.0
S90
G01 Y33.58 F1200.0
S1
G00 X78.92 Y33.58 F3000.0
S90
G01 Y40.47 F1200.0
S1
G00 X78.72 Y40.47 F3000.0
S90
G01 Y33.58 F1200.0
S1
G00 X78.52 Y33.58 F3000.0
S90
G01 Y40.47 F1200.0
S1
G00 X78.32 Y40.47 F3000.0
S90
G01 Y33.58 F1200.0
S1
G00 X78.12 Y33.58 F3000.0
S90
G01 Y40.47 F1200.0
S1
G00 X77.92 Y40.47 F3000.0
S90
G01 Y33.58 F1200.0
S1
G00 X77.72 Y33.58 F3000.0
S90
G01 Y40.47 F1200.0
S1
G00 X77.52 Y40.47 F3000.0
S90
G01 Y33.58 F1200.0
S1
G00 X77.32 Y33.58 F3000.0
S90
G01 Y40.47 F1200.0
S1
G00 X77.12 Y40.47 F3000.0
S90
G01 Y33.58 F1200.0
S1
G00 X76.92 Y33.58 F3000.0
S90
G01 Y40.47 F1200.0
S1
G00 X76.72 Y40.47 F3000.0
S90
G01 Y33.58 F1200.0
S1
G00 X76.52 Y33.58 F3000.0
S90
G01 Y40.47 F1200.0
S1
G00 X76.32 Y40.47 F3000.0
S90
G01 Y33.58 F1200.0
S1
G00 X72.52 Y33.58 F3000.0
S90
G01 Y26.68 F1200.0
S1
G00 X72.32 Y26.68 F3000.0
S90
G01 Y33.58 F1200.0
S1
G00 X72.12 Y33.58 F3000.0
S90
G01 Y26.68 F1200.0
S1
G00 X71.92 Y26.68 F3000.0
S90
G01 Y33.58 F1200.0
S1
G00 X71.72 Y33.58 F3000.0
S90
G01 Y26.68 F1200.0
S1
G00 X71.52 Y26.68 F3000.0
S90
G01 Y33.58 F1200.0
S1
G00 X71.32 Y33.58 F3000.0
S90
G01 Y26.68 F1200.0
S1
G00 X71.12 Y26.68 F3000.0
S90
G01 Y33.58 F1200.0
S1
G00 X70.92 Y33.58 F3000.0
S90
G01 Y26.68 F1200.0
S1
G00 X70.72 Y26.68 F3000.0
S90
G01 Y33.58 F1200.0
S1
G00 X70.52 Y33.58 F3000.0
S90
G01 Y26.68 F1200.0
S1
G00 X70.32 Y26.68 F3000.0
S90
G01 Y33.58 F1200.0
S1
G00 X70.12 Y33.58 F3000.0
S90
G01 Y26.68 F1200.0
S1
G00 X69.92 Y26.68 F3000.0
S90
G01 Y33.58 F1200.0
S1
G00 X69.72 Y33.58 F3000.0
S90
G01 Y26.68 F1200.0
S1
G00 X69.52 Y26.68 F3000.0
S90
G01 Y33.58 F1200.0
S1
G00 X69.32 Y33.58 F3000.0
S90
G01 Y26.68 F1200.0
S1
G00 X62.32 Y26.68 F3000.0
S90
G01 Y19.78 F1200.0
S1
G00 X62.12 Y19.78 F3000.0
S90
G01 Y26.68 F1200.0
S1
G00 X61.92 Y26.68 F3000.0
S90
G01 Y19.78 F1200.0
S1
G00 X61.72 Y19.78 F3000.0
S90
G01 Y26.68 F1200.0
S1
G00 X61.52 Y26.68 F3000.0
S90
G01 Y19.78 F1200.0
S1
G00 X61.32 Y19.78 F3000.0
S90
G01 Y26.68 F1200.0
S1
G00 X61.12 Y26.68 F3000.0
S90
G01 Y19.78 F1200.0
S1
G00 X60.92 Y19.78 F3000.0
S90
G01 Y26.68 F1200.0
S1
G00 X60.72 Y26.68 F3000.0
S90
G01 Y19.78 F1200.0
S1
G00 X60.52 Y19.78 F3000.0
S90
G01 Y26.68 F1200.0
S1
G00 X60.32 Y26.68 F3000.0
S90
G01 Y19.78 F1200.0
S1
G00 X60.12 Y19.78 F3000.0
S90
G01 Y26.68 F1200.0
S1
G00 X59.92 Y26.68 F3000.0
S90
G01 Y19.78 F1200.0
S1
G00 X59.72 Y19.78 F3000.0
S90
G01 Y26.68 F1200.0
S1
G00 X59.52 Y26.68 F3000.0
S90
G01 Y19.78 F1200.0
S1
G00 X59.32 Y19.78 F3000.0
S90
G01 Y26.68 F1200.0
S1
G00 X59.12 Y26.68 F3000.0
S90
G01 Y19.78 F1200.0
S1
G00 X58.92 Y19.78 F3000.0
S90
G01 Y26.68 F1200.0
S1
G00 X55.32 Y26.68 F3000.0
S90
G01 Y23.23 F1200.0
S1
G00 X55.12 Y23.23 F3000.0
S90
G01 Y26.68 F1200.0
S1
G00 X54.92 Y26.68 F3000.0
S90
G01 Y23.23 F1200.0
S1
G00 X54.72 Y23.23 F3000.0
S90
G01 Y26.68 F1200.0
S1
G00 X54.52 Y26.68 F3000.0
S90
G01 Y23.23 F1200.0
S1
G00 X54.32 Y23.23 F3000.0
S90
G01 Y26.68 F1200.0
S1
G00 X54.12 Y26.68 F3000.0
S90
G01 Y23.23 F1200.0
S1
G00 X53.92 Y23.23 F3000.0
S90
G01 Y26.68 F1200.0
S1
G00 X53.72 Y26.68 F3000.0
S90
G01 Y23.23 F1200.0
S1
G00 X53.52 Y23.23 F3000.0
S90
G01 Y26.68 F1200.0
S1
G00 X53.32 Y26.68 F3000.0
S90
G01 Y23.23 F1200.0
S1
G00 X53.12 Y23.23 F3000.0
S90
G01 Y26.68 F1200.0
S1
G00 X52.92 Y26.68 F3000.0
S90
G01 Y23.23 F1200.0
S1
G00 X52.72 Y23.23 F3000.0
S90
G01 Y26.68 F1200.0
S1
G00 X52.52 Y26.68 F3000.0
S90
G01 Y23.23 F1200.0
S1
G00 X52.32 Y23.23 F3000.0
S90
G01 Y26.68 F1200.0
S1
G00 X52.12 Y26.68 F3000.0
S90
G01 Y23.23 F1200.0
S1
G00 X52.12 Y19.78 F3000.0
S90
G01 Y12.89 F1200.0
S1
G00 X52.32 Y12.89 F3000.0
S90
G01 Y19.78 F1200.0
S1
G00 X52.52 Y19.78 F3000.0
S90
G01 Y12.89 F1200.0
S1
G00 X52.72 Y12.89 F3000.0
S90
G01 Y19.78 F1200.0
S1
G00 X52.92 Y19.78 F3000.0
S90
G01 Y12.89 F1200.0
S1
G00 X53.12 Y12.89 F3000.0
S90
G01 Y19.78 F1200.0
S1
G00 X53.32 Y19.78 F3000.0
S90
G01 Y12.89 F1200.0
S1
G00 X53.52 Y12.89 F3000.0
S90
G01 Y19.78 F1200.0
S1
G00 X53.72 Y19.78 F3000.0
S90
G01 Y12.89 F1200.0
S1
G00 X53.92 Y12.89 F3000.0
S90
G01 Y19.78 F1200.0
S1
G00 X54.12 Y19.78 F3000.0
S90
G01 Y12.89 F1200.0
S1
G00 X54.32 Y12.89 F3000.0
S90
G01 Y19.78 F1200.0
S1
G00 X54.52 Y19.78 F3000.0
S90
G01 Y12.89 F1200.0
S1
G00 X54.72 Y12.89 F3000.0
S90
G01 Y19.78 F1200.0
S1
G00 X54.92 Y19.78 F3000.0
S90
G01 Y12.89 F1200.0
S1
G00 X55.12 Y12.89 F3000.0
S90
G01 Y19.78 F1200.0
S1
G00 X55.32 Y19.78 F3000.0
S90
G01 Y12.89 F1200.0
S1
G00 X55.32 Y9.44 F3000.0
S90
G01 Y5.99 F1200.0
S1
G00 X55.12 Y5.99 F3000.0
S90
G01 Y9.44 F1200.0
S1
G00 X54.92 Y9.44 F3000.0
S90
G01 Y5.99 F1200.0
S1
G00 X54.72 Y5.99 F3000.0
S90
G01 Y9.44 F1200.0
S1
G00 X54.52 Y9.44 F3000.0
S90
G01 Y5.99 F1200.0
S1
G00 X54.32 Y5.99 F3000.0
S90
G01 Y9.44 F1200.0
S1
G00 X54.12 Y9.44 F3000.0
S90
G01 Y5.99 F1200.0
S1
G00 X53.92 Y5.99 F3000.0
S90
G01 Y9.44 F1200.0
S1
G00 X53.72 Y9.44 F3000.0
S90
G01 Y5.99 F1200.0
S1
G00 X53.52 Y5.99 F3000.0
S90
G01 Y9.44 F1200.0
S1
G00 X53.32 Y9.44 F3000.0
S90
G01 Y5.99 F1200.0
S1
G00 X53.12 Y5.99 F3000.0
S90
G01 Y9.44 F1200.0
S1
G00 X52.92 Y9.44 F3000.0
S90
G01 Y5.99 F1200.0
S1
G00 X52.72 Y5.99 F3000.0
S90
G01 Y9.44 F1200.0
S1
G00 X52.52 Y9.44 F3000.0
S90
G01 Y5.99 F1200.0
S1
G00 X52.32 Y5.99 F3000.0
S90
G01 Y9.44 F1200.0
S1
G00 X52.12 Y9.44 F3000.0
S90
G01 Y5.99 F1200.0
S1
G00 X51.92 Y5.99 F3000.0
S90
G01 Y9.44 F1200.0
S1
G00 X51.72 Y9.44 F3000.0
S90
G01 Y5.99 F1200.0
S1
G00 X51.52 Y5.99 F3000.0
S90
G01 Y9.44 F1200.0
S1
G00 X51.32 Y9.44 F3000.0
S90
G01 Y5.99 F1200.0
S1
G00 X51.12 Y5.99 F3000.0
S90
G01 Y9.44 F1200.0
S1
G00 X50.92 Y9.44 F3000.0
S90
G01 Y5.99 F1200.0
S1
G00 X50.72 Y5.99 F3000.0
S90
G01 Y9.44 F1200.0
S1
G00 X50.52 Y9.44 F3000.0
S90
G01 Y5.99 F1200.0
S1
G00 X50.32 Y5.99 F3000.0
S90
G01 Y9.44 F1200.0
S1
G00 X50.12 Y9.44 F3000.0
S90
G01 Y5.99 F1200.0
S1
G00 X49.92 Y5.99 F3000.0
S90
G01 Y9.44 F1200.0
S1
G00 X49.72 Y9.44 F3000.0
S90
G01 Y5.99 F1200.0
S1
G00 X49.52 Y5.99 F3000.0
S90
G01 Y9.44 F1200.0
S1
G00 X49.32 Y9.44 F3000.0
S90
G01 Y5.99 F1200.0
S1
G00 X49.12 Y5.99 F3000.0
S90
G01 Y9.44 F1200.0
S1
G00 X48.92 Y9.44 F3000.0
S90
G01 Y5.99 F1200.0
S1
G00 X48.72 Y5.99 F3000.0
S90
G01 Y9.44 F1200.0
S1
G00 X48.52 Y9.44 F3000.0
S90
G01 Y5.99 F1200.0
S1
G00 X48.32 Y5.99 F3000.0
S90
G01 Y9.44 F1200.0
S1
G00 X48.12 Y9.44 F3000.0
S90
G01 Y5.99 F1200.0
S1
G00 X47.92 Y5.99 F3000.0
S90
G01 Y9.44 F1200.0
S1
G00 X47.72 Y9.44 F3000.0
S90
G01 Y5.99 F1200.0
S1
G00 X47.52 Y5.99 F3000.0
S90
G01 Y9.44 F1200.0
S1
G00 X47.32 Y9.44 F3000.0
S90
G01 Y5.99 F1200.0
S1
G00 X47.12 Y5.99 F3000.0
S90
G01 Y9.44 F1200.0
S1
G00 X46.92 Y9.44 F3000.0
S90
G01 Y5.99 F1200.0
S1
G00 X46.72 Y5.99 F3000.0
S90
G01 Y9.44 F1200.0
S1
G00 X46.52 Y9.44 F3000.0
S90
G01 Y5.99 F1200.0
S1
G00 X46.32 Y5.99 F3000.0
S90
G01 Y9.44 F1200.0
S1
G00 X46.12 Y9.44 F3000.0
S90
G01 Y5.99 F1200.0
S1
G00 X45.92 Y5.99 F3000.0
S90
G01 Y9.44 F1200.0
S1
G00 X45.72 Y9.44 F3000.0
S90
G01 Y5.99 F1200.0
S1
G00 X45.52 Y5.99 F3000.0
S90
G01 Y9.44 F1200.0
S1
G00 X45.32 Y9.44 F3000.0
S90
G01 Y5.99 F1200.0
S1
G00 X45.12 Y5.99 F3000.0
S90
G01 Y9.44 F1200.0
S1
G00 X44.92 Y5.99 F3000.0
S90
G01 Y16.34 F1200.0
S1
G00 X45.12 Y16.34 F3000.0
S90
G01 Y26.68 F1200.0
S1
G00 X44.92 Y26.68 F3000.0
S90
G01 Y19.78 F1200.0
S1
G00 X44.72 Y19.78 F3000.0
S90
G01 Y26.68 F1200.0
S1
G00 X44.52 Y26.68 F3000.0
S90
G01 Y19.78 F1200.0
S1
G00 X44.32 Y19.78 F3000.0
S90
G01 Y26.68 F1200.0
S1
G00 X44.12 Y26.68 F3000.0
S90
G01 Y19.78 F1200.0
S1
G00 X43.92 Y19.78 F3000.0
S90
G01 Y26.68 F1200.0
S1
G00 X43.72 Y26.68 F3000.0
S90
G01 Y19.78 F1200.0
S1
G00 X43.52 Y19.78 F3000.0
S90
G01 Y26.68 F1200.0
S1
G00 X43.32 Y26.68 F3000.0
S90
G01 Y19.78 F1200.0
S1
G00 X43.12 Y19.78 F3000.0
S90
G01 Y26.68 F1200.0
S1
G00 X42.92 Y26.68 F3000.0
S90
G01 Y19.78 F1200.0
S1
G00 X42.72 Y19.78 F3000.0
S90
G01 Y26.68 F1200.0
S1
G00 X42.52 Y26.68 F3000.0
S90
G01 Y19.78 F1200.0
S1
G00 X42.32 Y19.78 F3000.0
S90
G01 Y26.68 F1200.0
S1
G00 X42.12 Y26.68 F3000.0
S90
G01 Y19.78 F1200.0
S1
G00 X41.92 Y19.78 F3000.0
S90
G01 Y26.68 F1200.0
S1
G00 X41.72 Y26.68 F3000.0
S90
G01 Y19.78 F1200.0
S1
G00 X41.72 Y16.34 F3000.0
S90
G01 Y5.99 F1200.0
S1
G00 X41.92 Y5.99 F3000.0
S90
G01 Y16.34 F1200.0
S1
G00 X42.12 Y16.34 F3000.0
S90
G01 Y5.99 F1200.0
S1
G00 X42.32 Y5.99 F3000.0
S90
G01 Y16.34 F1200.0
S1
G00 X42.52 Y16.34 F3000.0
S90
G01 Y5.99 F1200.0
S1
G00 X42.72 Y5.99 F3000.0
S90
G01 Y16.34 F1200.0
S1
G00 X42.92 Y16.34 F3000.0
S90
G01 Y5.99 F1200.0
S1
G00 X43.12 Y5.99 F3000.0
S90
G01 Y16.34 F1200.0
S1
G00 X43.32 Y16.34 F3000.0
S90
G01 Y5.99 F1200.0
S1
G00 X43.52 Y5.99 F3000.0
S90
G01 Y16.34 F1200.0
S1
G00 X43.72 Y16.34 F3000.0
S90
G01 Y5.99 F1200.0
S1
G00 X43.92 Y5.99 F3000.0
S90
G01 Y16.34 F1200.0
S1
G00 X44.12 Y16.34 F3000.0
S90
G01 Y5.99 F1200.0
S1
G00 X44.32 Y5.99 F3000.0
S90
G01 Y16.34 F1200.0
S1
G00 X44.52 Y16.34 F3000.0
S90
G01 Y5.99 F1200.0
S1
G00 X44.72 Y5.99 F3000.0
S90
G01 Y16.34 F1200.0
S1
G00 X45.32 Y16.34 F3000.0
S90
G01 Y26.68 F1200.0
S1
G00 X45.52 Y26.68 F3000.0
S90
G01 Y16.34 F1200.0
S1
G00 X45.72 Y16.34 F3000.0
S90
G01 Y26.68 F1200.0
S1
G00 X45.92 Y26.68 F3000.0
S90
G01 Y16.34 F1200.0
S1
G00 X46.12 Y16.34 F3000.0
S90
G01 Y26.68 F1200.0
S1
G00 X46.32 Y26.68 F3000.0
S90
G01 Y16.34 F1200.0
S1
G00 X46.52 Y16.34 F3000.0
S90
G01 Y26.68 F1200.0
S1
G00 X46.72 Y26.68 F3000.0
S90
G01 Y16.34 F1200.0
S1
G00 X46.92 Y16.34 F3000.0
S90
G01 Y26.68 F1200.0
S1
G00 X47.12 Y26.68 F3000.0
S90
G01 Y16.34 F1200.0
S1
G00 X47.32 Y16.34 F3000.0
S90
G01 Y26.68 F1200.0
S1
G00 X47.52 Y26.68 F3000.0
S90
G01 Y16.34 F1200.0
S1
G00 X47.72 Y16.34 F3000.0
S90
G01 Y26.68 F1200.0
S1
G00 X47.92 Y26.68 F3000.0
S90
G01 Y16.34 F1200.0
S1
G00 X48.12 Y16.34 F3000.0
S90
G01 Y26.68 F1200.0
S1
G00 X48.32 Y26.68 F3000.0
S90
G01 Y16.34 F1200.0
S1
G00 X48.52 Y16.34 F3000.0
S90
G01 Y26.68 F1200.0
S1
G00 X48.52 Y30.13 F3000.0
S90
G01 Y33.58 F1200.0
S1
G00 X48.32 Y33.58 F3000.0
S90
G01 Y30.13 F1200.0
S1
G00 X48.12 Y30.13 F3000.0
S90
G01 Y33.58 F1200.0
S1
G00 X47.92 Y33.58 F3000.0
S90
G01 Y30.13 F1200.0
S1
G00 X47.72 Y30.13 F3000.0
S90
G01 Y33.58 F1200.0
S1
G00 X47.52 Y33.58 F3000.0
S90
G01 Y30.13 F1200.0
S1
G00 X47.32 Y30.13 F3000.0
S90
G01 Y33.58 F1200.0
S1
G00 X47.12 Y33.58 F3000.0
S90
G01 Y30.13 F1200.0
S1
G00 X46.92 Y30.13 F3000.0
S90
G01 Y33.58 F1200.0
S1
G00 X46.72 Y33.58 F3000.0
S90
G01 Y30.13 F1200.0
S1
G00 X46.52 Y30.13 F3000.0
S90
G01 Y33.58 F1200.0
S1
G00 X46.32 Y33.58 F3000.0
S90
G01 Y30.13 F1200.0
S1
G00 X46.12 Y30.13 F3000.0
S90
G01 Y33.58 F1200.0
S1
G00 X45.92 Y33.58 F3000.0
S90
G01 Y30.13 F1200.0
S1
G00 X45.72 Y30.13 F3000.0
S90
G01 Y33.58 F1200.0
S1
G00 X45.52 Y33.58 F3000.0
S90
G01 Y30.13 F1200.0
S1
G00 X45.32 Y30.13 F3000.0
S90
G01 Y33.58 F1200.0
S1
G00 X45.12 Y33.58 F3000.0
S90
G01 Y30.13 F1200.0
S1
G00 X44.92 Y33.58 F3000.0
S90
G01 Y43.92 F1200.0
S1
G00 X45.12 Y43.92 F3000.0
S90
G01 Y37.03 F1200.0
S1
G00 X45.32 Y37.03 F3000.0
S90
G01 Y43.92 F1200.0
S1
G00 X45.52 Y43.92 F3000.0
S90
G01 Y37.03 F1200.0
S1
G00 X45.72 Y37.03 F3000.0
S90
G01 Y43.92 F1200.0
S1
G00 X45.92 Y43.92 F3000.0
S90
G01 Y37.03 F1200.0
S1
G00 X46.12 Y37.03 F3000.0
S90
G01 Y43.92 F1200.0
S1
G00 X46.32 Y43.92 F3000.0
S90
G01 Y37.03 F1200.0
S1
G00 X46.52 Y37.03 F3000.0
S90
G01 Y43.92 F1200.0
S1
G00 X46.72 Y43.92 F3000.0
S90
G01 Y37.03 F1200.0
S1
G00 X46.92 Y37.03 F3000.0
S90
G01 Y43.92 F1200.0
S1
G00 X47.12 Y43.92 F3000.0
S90
G01 Y37.03 F1200.0
S1
G00 X47.32 Y37.03 F3000.0
S90
G01 Y43.92 F1200.0
S1
G00 X47.52 Y43.92 F3000.0
S90
G01 Y37.03 F1200.0
S1
G00 X47.72 Y37.03 F3000.0
S90
G01 Y43.92 F1200.0
S1
G00 X47.92 Y43.92 F3000.0
S90
G01 Y37.03 F1200.0
S1
G00 X48.12 Y37.03 F3000.0
S90
G01 Y43.92 F1200.0
S1
G00 X48.32 Y43.92 F3000.0
S90
G01 Y37.03 F1200.0
S1
G00 X48.52 Y37.03 F3000.0
S90
G01 Y43.92 F1200.0
S1
G00 X48.72 Y43.92 F3000.0
S90
G01 Y37.03 F1200.0
S1
G00 X48.92 Y37.03 F3000.0
S90
G01 Y43.92 F1200.0
S1
G00 X49.12 Y43.92 F3000.0
S90
G01 Y37.03 F1200.0
S1
G00 X49.32 Y37.03 F3000.0
S90
G01 Y43.92 F1200.0
S1
G00 X49.52 Y43.92 F3000.0
S90
G01 Y37.03 F1200.0
S1
G00 X49.72 Y37.03 F3000.0
S90
G01 Y43.92 F1200.0
S1
G00 X49.92 Y43.92 F3000.0
S90
G01 Y37.03 F1200.0
S1
G00 X50.12 Y37.03 F3000.0
S90
G01 Y43.92 F1200.0
S1
G00 X50.32 Y43.92 F3000.0
S90
G01 Y37.03 F1200.0
S1
G00 X50.52 Y37.03 F3000.0
S90
G01 Y43.92 F1200.0
S1
G00 X50.72 Y43.92 F3000.0
S90
G01 Y37.03 F1200.0
S1
G00 X50.92 Y37.03 F3000.0
S90
G01 Y43.92 F1200.0
S1
G00 X51.12 Y43.92 F3000.0
S90
G01 Y37.03 F1200.0
S1
G00 X51.32 Y37.03 F3000.0
S90
G01 Y43.92 F1200.0
S1
G00 X51.52 Y43.92 F3000.0
S90
G01 Y37.03 F1200.0
S1
G00 X51.72 Y37.03 F3000.0
S90
G01 Y43.92 F1200.0
S1
G00 X51.92 Y43.92 F3000.0
S90
G01 Y37.03 F1200.0
S1
G00 X52.12 Y37.03 F3000.0
S90
G01 Y33.58 F1200.0
S1
G00 X52.32 Y33.58 F3000.0
S90
G01 Y37.03 F1200.0
S1
G00 X52.52 Y37.03 F3000.0
S90
G01 Y33.58 F1200.0
S1
G00 X52.72 Y33.58 F3000.0
S90
G01 Y37.03 F1200.0
S1
G00 X52.92 Y37.03 F3000.0
S90
G01 Y33.58 F1200.0
S1
G00 X53.12 Y33.58 F3000.0
S90
G01 Y37.03 F1200.0
S1
G00 X53.32 Y37.03 F3000.0
S90
G01 Y33.58 F1200.0
S1
G00 X53.52 Y33.58 F3000.0
S90
G01 Y37.03 F1200.0
S1
G00 X53.72 Y37.03 F3000.0
S90
G01 Y33.58 F1200.0
S1
G00 X53.92 Y33.58 F3000.0
S90
G01 Y37.03 F1200.0
S1
G00 X54.12 Y37.03 F3000.0
S90
G01 Y33.58 F1200.0
S1
G00 X54.32 Y33.58 F3000.0
S90
G01 Y37.03 F1200.0
S1
G00 X54.52 Y37.03 F3000.0
S90
G01 Y33.58 F1200.0
S1
G00 X54.72 Y33.58 F3000.0
S90
G01 Y37.03 F1200.0
S1
G00 X54.92 Y37.03 F3000.0
S90
G01 Y33.58 F1200.0
S1
G00 X55.12 Y33.58 F3000.0
S90
G01 Y37.03 F1200.0
S1
G00 X55.32 Y37.03 F3000.0
S90
G01 Y33.58 F1200.0
S1
G00 X55.52 Y33.58 F3000.0
S90
G01 Y37.03 F1200.0
S1
G00 X55.72 Y37.03 F3000.0
S90
G01 Y33.58 F1200.0
S1
G00 X55.92 Y33.58 F3000.0
S90
G01 Y37.03 F1200.0
S1
G00 X56.12 Y37.03 F3000.0
S90
G01 Y33.58 F1200.0
S1
G00 X56.32 Y33.58 F3000.0
S90
G01 Y37.03 F1200.0
S1
G00 X56.52 Y37.03 F3000.0
S90
G01 Y33.58 F1200.0
S1
G00 X56.72 Y33.58 F3000.0
S90
G01 Y37.03 F1200.0
S1
G00 X56.92 Y37.03 F3000.0
S90
G01 Y33.58 F1200.0
S1
G00 X57.12 Y33.58 F3000.0
S90
G01 Y37.03 F1200.0
S1
G00 X57.32 Y37.03 F3000.0
S90
G01 Y33.58 F1200.0
S1
G00 X57.52 Y33.58 F3000.0
S90
G01 Y37.03 F1200.0
S1
G00 X57.72 Y37.03 F3000.0
S90
G01 Y33.58 F1200.0
S1
G00 X57.92 Y33.58 F3000.0
S90
G01 Y37.03 F1200.0
S1
G00 X58.12 Y37.03 F3000.0
S90
G01 Y33.58 F1200.0
S1
G00 X58.32 Y33.58 F3000.0
S90
G01 Y37.03 F1200.0
S1
G00 X58.52 Y37.03 F3000.0
S90
G01 Y33.58 F1200.0
S1
G00 X58.72 Y33.58 F3000.0
S90
G01 Y37.03 F1200.0
S1
G00 X58.92 Y37.03 F3000.0
S90
G01 Y33.58 F1200.0
S1
G00 X59.12 Y33.58 F3000.0
S90
G01 Y37.03 F1200.0
S1
G00 X59.32 Y37.03 F3000.0
S90
G01 Y33.58 F1200.0
S1
G00 X59.52 Y33.58 F3000.0
S90
G01 Y37.03 F1200.0
S1
G00 X59.72 Y37.03 F3000.0
S90
G01 Y33.58 F1200.0
S1
G00 X59.92 Y33.58 F3000.0
S90
G01 Y37.03 F1200.0
S1
G00 X60.12 Y37.03 F3000.0
S90
G01 Y33.58 F1200.0
S1
G00 X60.32 Y33.58 F3000.0
S90
G01 Y37.03 F1200.0
S1
G00 X60.52 Y37.03 F3000.0
S90
G01 Y33.58 F1200.0
S1
G00 X60.72 Y33.58 F3000.0
S90
G01 Y37.03 F1200.0
S1
G00 X60.92 Y37.03 F3000.0
S90
G01 Y33.58 F1200.0
S1
G00 X61.12 Y33.58 F3000.0
S90
G01 Y37.03 F1200.0
S1
G00 X61.32 Y37.03 F3000.0
S90
G01 Y33.58 F1200.0
S1
G00 X61.52 Y33.58 F3000.0
S90
G01 Y37.03 F1200.0
S1
G00 X61.72 Y37.03 F3000.0
S90
G01 Y33.58 F1200.0
S1
G00 X61.92 Y33.58 F3000.0
S90
G01 Y37.03 F1200.0
S1
G00 X62.12 Y37.03 F3000.0
S90
G01 Y33.58 F1200.0
S1
G00 X62.32 Y33.58 F3000.0
S90
G01 Y37.03 F1200.0
S1
G00 X65.92 Y37.03 F3000.0
S90
G01 Y43.92 F1200.0
S1
G00 X66.12 Y43.92 F3000.0
S90
G01 Y37.03 F1200.0
S1
G00 X66.32 Y37.03 F3000.0
S90
G01 Y43.92 F1200.0
S1
G00 X66.52 Y43.92 F3000.0
S90
G01 Y37.03 F1200.0
S1
G00 X66.72 Y37.03 F3000.0
S90
G01 Y43.92 F1200.0
S1
G00 X66.92 Y43.92 F3000.0
S90
G01 Y37.03 F1200.0
S1
G00 X67.12 Y37.03 F3000.0
S90
G01 Y43.92 F1200.0
S1
G00 X67.32 Y43.92 F3000.0
S90
G01 Y37.03 F1200.0
S1
G00 X67.52 Y37.03 F3000.0
S90
G01 Y43.92 F1200.0
S1
G00 X67.72 Y43.92 F3000.0
S90
G01 Y37.03 F1200.0
S1
G00 X67.92 Y37.03 F3000.0
S90
G01 Y43.92 F1200.0
S1
G00 X68.12 Y43.92 F3000.0
S90
G01 Y37.03 F1200.0
S1
G00 X68.32 Y37.03 F3000.0
S90
G01 Y43.92 F1200.0
S1
G00 X68.52 Y43.92 F3000.0
S90
G01 Y37.03 F1200.0
S1
G00 X68.72 Y37.03 F3000.0
S90
G01 Y43.92 F1200.0
S1
G00 X68.92 Y43.92 F3000.0
S90
G01 Y37.03 F1200.0
S1
G00 X69.12 Y37.03 F3000.0
S90
G01 Y43.92 F1200.0
S1
G00 X72.72 Y43.92 F3000.0
S90
G01 Y50.82 F1200.0
S1
G00 X72.52 Y50.82 F3000.0
S90
G01 Y47.37 F1200.0
S1
G00 X72.32 Y47.37 F3000.0
S90
G01 Y50.82 F1200.0
S1
G00 X72.12 Y50.82 F3000.0
S90
G01 Y47.37 F1200.0
S1
G00 X71.92 Y47.37 F3000.0
S90
G01 Y50.82 F1200.0
S1
G00 X71.72 Y50.82 F3000.0
S90
G01 Y47.37 F1200.0
S1
G00 X71.52 Y47.37 F3000.0
S90
G01 Y50.82 F1200.0
S1
G00 X71.32 Y50.82 F3000.0
S90
G01 Y47.37 F1200.0
S1
G00 X71.12 Y47.37 F3000.0
S90
G01 Y50.82 F1200.0
S1
G00 X70.92 Y50.82 F3000.0
S90
G01 Y47.37 F1200.0
S1
G00 X70.72 Y47.37 F3000.0
S90
G01 Y50.82 F1200.0
S1
G00 X70.52 Y50.82 F3000.0
S90
G01 Y47.37 F1200.0
S1
G00 X70.32 Y47.37 F3000.0
S90
G01 Y50.82 F1200.0
S1
G00 X70.12 Y50.82 F3000.0
S90
G01 Y47.37 F1200.0
S1
G00 X69.92 Y47.37 F3000.0
S90
G01 Y50.82 F1200.0
S1
G00 X69.72 Y50.82 F3000.0
S90
G01 Y47.37 F1200.0
S1
G00 X69.52 Y47.37 F3000.0
S90
G01 Y50.82 F1200.0
S1
G00 X69.32 Y50.82 F3000.0
S90
G01 Y47.37 F1200.0
S1
G00 X69.32 Y40.47 F3000.0
S90
G01 Y37.03 F1200.0
S1
G00 X69.52 Y37.03 F3000.0
S90
G01 Y40.47 F1200.0
S1
G00 X69.72 Y40.47 F3000.0
S90
G01 Y37.03 F1200.0
S1
G00 X69.92 Y37.03 F3000.0
S90
G01 Y40.47 F1200.0
S1
G00 X70.12 Y40.47 F3000.0
S90
G01 Y37.03 F1200.0
S1
G00 X70.32 Y37.03 F3000.0
S90
G01 Y40.47 F1200.0
S1
G00 X70.52 Y40.47 F3000.0
S90
G01 Y37.03 F1200.0
S1
G00 X70.72 Y37.03 F3000.0
S90
G01 Y40.47 F1200.0
S1
G00 X70.92 Y40.47 F3000.0
S90
G01 Y37.03 F1200.0
S1
G00 X71.12 Y37.03 F3000.0
S90
G01 Y40.47 F1200.0
S1
G00 X71.32 Y40.47 F3000.0
S90
G01 Y37.03 F1200.0
S1
G00 X71.52 Y37.03 F3000.0
S90
G01 Y40.47 F1200.0
S1
G00 X71.72 Y40.47 F3000.0
S90
G01 Y37.03 F1200.0
S1
G00 X71.92 Y37.03 F3000.0
S90
G01 Y40.47 F1200.0
S1
G00 X72.12 Y40.47 F3000.0
S90
G01 Y37.03 F1200.0
S1
G00 X72.32 Y37.03 F3000.0
S90
G01 Y40.47 F1200.0
S1
G00 X72.52 Y40.47 F3000.0
S90
G01 Y37.03 F1200.0
S1
G00 X72.72 Y40.47 F3000.0
S90
G01 Y16.34 F1200.0
S1
G00 X72.92 Y16.34 F3000.0
S90
G01 Y40.47 F1200.0
S1
G00 X73.12 Y40.47 F3000.0
S90
G01 Y16.34 F1200.0
S1
G00 X73.32 Y16.34 F3000.0
S90
G01 Y40.47 F1200.0
S1
G00 X73.52 Y40.47 F3000.0
S90
G01 Y16.34 F1200.0
S1
G00 X73.72 Y16.34 F3000.0
S90
G01 Y40.47 F1200.0
S1
G00 X73.92 Y40.47 F3000.0
S90
G01 Y16.34 F1200.0
S1
G00 X74.12 Y16.34 F3000.0
S90
G01 Y40.47 F1200.0
S1
G00 X74.32 Y40.47 F3000.0
S90
G01 Y16.34 F1200.0
S1
G00 X74.52 Y16.34 F3000.0
S90
G01 Y40.47 F1200.0
S1
G00 X74.72 Y40.47 F3000.0
S90
G01 Y16.34 F1200.0
S1
G00 X74.92 Y16.34 F3000.0
S90
G01 Y40.47 F1200.0
S1
G00 X75.12 Y40.47 F3000.0
S90
G01 Y16.34 F1200.0
S1
G00 X75.32 Y16.34 F3000.0
S90
G01 Y40.47 F1200.0
S1
G00 X75.52 Y40.47 F3000.0
S90
G01 Y16.34 F1200.0
S1
G00 X75.72 Y16.34 F3000.0
S90
G01 Y40.47 F1200.0
S1
G00 X75.92 Y40.47 F3000.0
S90
G01 Y16.34 F1200.0
S1
G00 X76.12 Y16.34 F3000.0
S90
G01 Y40.47 F1200.0
S1
G00 X76.12 Y43.92 F3000.0
S90
G01 Y50.82 F1200.0
S1
G00 X75.92 Y50.82 F3000.0
S90
G01 Y43.92 F1200.0
S1
G00 X75.72 Y43.92 F3000.0
S90
G01 Y50.82 F1200.0
S1
G00 X75.52 Y50.82 F3000.0
S90
G01 Y43.92 F1200.0
S1
G00 X75.32 Y43.92 F3000.0
S90
G01 Y50.82 F1200.0
S1
G00 X75.12 Y50.82 F3000.0
S90
G01 Y43.92 F1200.0
S1
G00 X74.92 Y43.92 F3000.0
S90
G01 Y50.82 F1200.0
S1
G00 X74.72 Y50.82 F3000.0
S90
G01 Y43.92 F1200.0
S1
G00 X74.52 Y43.92 F3000.0
S90
G01 Y50.82 F1200.0
S1
G00 X74.32 Y50.82 F3000.0
S90
G01 Y43.92 F1200.0
S1
G00 X74.12 Y43.92 F3000.0
S90
G01 Y50.82 F1200.0
S1
G00 X73.92 Y50.82 F3000.0
S90
G01 Y43.92 F1200.0
S1
G00 X73.72 Y43.92 F3000.0
S90
G01 Y50.82 F1200.0
S1
G00 X73.52 Y50.82 F3000.0
S90
G01 Y43.92 F1200.0
S1
G00 X73.32 Y43.92 F3000.0
S90
G01 Y50.82 F1200.0
S1
G00 X73.12 Y50.82 F3000.0
S90
G01 Y43.92 F1200.0
S1
G00 X72.92 Y43.92 F3000.0
S90
G01 Y50.82 F1200.0
S1
G00 X79.92 Y50.82 F3000.0
S90
G01 Y54.27 F1200.0
S1
G00 X80.12 Y54.27 F3000.0
S90
G01 Y50.82 F1200.0
S1
G00 X80.32 Y50.82 F3000.0
S90
G01 Y54.27 F1200.0
S1
G00 X80.52 Y54.27 F3000.0
S90
G01 Y50.82 F1200.0
S1
G00 X80.72 Y50.82 F3000.0
S90
G01 Y54.27 F1200.0
S1
G00 X80.92 Y54.27 F3000.0
S90
G01 Y50.82 F1200.0
S1
G00 X81.12 Y50.82 F3000.0
S90
G01 Y54.27 F1200.0
S1
G00 X81.32 Y54.27 F3000.0
S90
G01 Y50.82 F1200.0
S1
G00 X81.52 Y50.82 F3000.0
S90
G01 Y54.27 F1200.0
S1
G00 X81.72 Y54.27 F3000.0
S90
G01 Y50.82 F1200.0
S1
G00 X81.92 Y50.82 F3000.0
S90
G01 Y54.27 F1200.0
S1
G00 X82.12 Y54.27 F3000.0
S90
G01 Y50.82 F1200.0
S1
G00 X82.32 Y50.82 F3000.0
S90
G01 Y54.27 F1200.0
S1
G00 X82.52 Y54.27 F3000.0
S90
G01 Y50.82 F1200.0
S1
G00 X82.72 Y50.82 F3000.0
S90
G01 Y54.27 F1200.0
S1
G00 X82.92 Y54.27 F3000.0
S90
G01 Y50.82 F1200.0
S1
G00 X86.52 Y50.82 F3000.0
S90
G01 Y12.89 F1200.0
S1
G00 X86.72 Y12.89 F3000.0
S90
G01 Y50.82 F1200.0
S1
G00 X86.92 Y50.82 F3000.0
S90
G01 Y12.89 F1200.0
S1
G00 X87.12 Y12.89 F3000.0
S90
G01 Y50.82 F1200.0
S1
G00 X87.32 Y50.82 F3000.0
S90
G01 Y12.89 F1200.0
S1
G00 X87.52 Y12.89 F3000.0
S90
G01 Y50.82 F1200.0
S1
G00 X87.72 Y50.82 F3000.0
S90
G01 Y12.89 F1200.0
S1
G00 X87.92 Y12.89 F3000.0
S90
G01 Y50.82 F1200.0
S1
G00 X88.12 Y50.82 F3000.0
S90
G01 Y12.89 F1200.0
S1
G00 X88.32 Y12.89 F3000.0
S90
G01 Y50.82 F1200.0
S1
G00 X88.52 Y50.82 F3000.0
S90
G01 Y12.89 F1200.0
S1
G00 X88.72 Y12.89 F3000.0
S90
G01 Y50.82 F1200.0
S1
G00 X88.92 Y50.82 F3000.0
S90
G01 Y12.89 F1200.0
S1
G00 X89.12 Y12.89 F3000.0
S90
G01 Y50.82 F1200.0
S1
G00 X89.32 Y50.82 F3000.0
S90
G01 Y12.89 F1200.0
S1
G00 X89.52 Y12.89 F3000.0
S90
G01 Y50.82 F1200.0
S1
G00 X89.72 Y50.82 F3000.0
S90
G01 Y12.89 F1200.0
S1
G00 X89.92 Y12.89 F3000.0
S90
G01 Y50.82 F1200.0
S1
G00 X90.12 Y54.27 F3000.0
S90
G01 Y43.92 F1200.0
S1
G00 X90.32 Y43.92 F3000.0
S90
G01 Y54.27 F1200.0
S1
G00 X90.52 Y54.27 F3000.0
S90
G01 Y43.92 F1200.0
S1
G00 X90.72 Y43.92 F3000.0
S90
G01 Y54.27 F1200.0
S1
G00 X90.92 Y54.27 F3000.0
S90
G01 Y43.92 F1200.0
S1
G00 X91.12 Y43.92 F3000.0
S90
G01 Y54.27 F1200.0
S1
G00 X91.32 Y54.27 F3000.0
S90
G01 Y43.92 F1200.0
S1
G00 X91.52 Y43.92 F3000.0
S90
G01 Y54.27 F1200.0
S1
G00 X91.72 Y54.27 F3000.0
S90
G01 Y43.92 F1200.0
S1
G00 X91.92 Y43.92 F3000.0
S90
G01 Y54.27 F1200.0
S1
G00 X92.12 Y54.27 F3000.0
S90
G01 Y43.92 F1200.0
S1
G00 X92.32 Y43.92 F3000.0
S90
G01 Y54.27 F1200.0
S1
G00 X92.52 Y54.27 F3000.0
S90
G01 Y43.92 F1200.0
S1
G00 X92.72 Y43.92 F3000.0
S90
G01 Y54.27 F1200.0
S1
G00 X92.92 Y54.27 F3000.0
S90
G01 Y43.92 F1200.0
S1
G00 X93.12 Y43.92 F3000.0
S90
G01 Y54.27 F1200.0
S1
G00 X93.32 Y54.27 F3000.0
S90
G01 Y43.92 F1200.0
S1
G00 X93.52 Y43.92 F3000.0
S90
G01 Y40.47 F1200.0
S1
G00 X93.72 Y40.47 F3000.0
S90
G01 Y43.92 F1200.0
S1
G00 X93.92 Y43.92 F3000.0
S90
G01 Y40.47 F1200.0
S1
G00 X94.12 Y40.47 F3000.0
S90
G01 Y43.92 F1200.0
S1
G00 X94.32 Y43.92 F3000.0
S90
G01 Y40.47 F1200.0
S1
G00 X94.52 Y40.47 F3000.0
S90
G01 Y43.92 F1200.0
S1
G00 X94.72 Y43.92 F3000.0
S90
G01 Y40.47 F1200.0
S1
G00 X94.92 Y40.47 F3000.0
S90
G01 Y43.92 F1200.0
S1
G00 X95.12 Y43.92 F3000.0
S90
G01 Y40.47 F1200.0
S1
G00 X95.32 Y40.47 F3000.0
S90
G01 Y43.92 F1200.0
S1
G00 X95.52 Y43.92 F3000.0
S90
G01 Y40.47 F1200.0
S1
G00 X95.72 Y40.47 F3000.0
S90
G01 Y43.92 F1200.0
S1
G00 X95.92 Y43.92 F3000.0
S90
G01 Y40.47 F1200.0
S1
G00 X96.12 Y40.47 F3000.0
S90
G01 Y43.92 F1200.0
S1
G00 X96.32 Y43.92 F3000.0
S90
G01 Y40.47 F1200.0
S1
G00 X96.52 Y40.47 F3000.0
S90
G01 Y43.92 F1200.0
S1
G00 X96.72 Y43.92 F3000.0
S90
G01 Y40.47 F1200.0
S1
G00 X93.32 Y40.47 F3000.0
S90
G01 Y23.23 F1200.0
S1
G00 X93.52 Y23.23 F3000.0
S90
G01 Y12.89 F1200.0
S1
G00 X93.72 Y12.89 F3000.0
S90
G01 Y23.23 F1200.0
S1
G00 X93.92 Y23.23 F3000.0
S90
G01 Y12.89 F1200.0
S1
G00 X94.12 Y12.89 F3000.0
S90
G01 Y23.23 F1200.0
S1
G00 X94.32 Y23.23 F3000.0
S90
G01 Y12.89 F1200.0
S1
G00 X94.52 Y12.89 F3000.0
S90
G01 Y23.23 F1200.0
S1
G00 X94.72 Y23.23 F3000.0
S90
G01 Y12.89 F1200.0
S1
G00 X94.92 Y12.89 F3000.0
S90
G01 Y23.23 F1200.0
S1
G00 X95.12 Y23.23 F3000.0
S90
G01 Y12.89 F1200.0
S1
G00 X95.32 Y12.89 F3000.0
S90
G01 Y23.23 F1200.0
S1
G00 X95.52 Y23.23 F3000.0
S90
G01 Y12.89 F1200.0
S1
G00 X95.72 Y12.89 F3000.0
S90
G01 Y23.23 F1200.0
S1
G00 X95.92 Y23.23 F3000.0
S90
G01 Y12.89 F1200.0
S1
G00 X96.12 Y12.89 F3000.0
S90
G01 Y23.23 F1200.0
S1
G00 X96.32 Y23.23 F3000.0
S90
G01 Y12.89 F1200.0
S1
G00 X96.52 Y12.89 F3000.0
S90
G01 Y23.23 F1200.0
S1
G00 X96.72 Y23.23 F3000.0
S90
G01 Y12.89 F1200.0
S1
G00 X93.32 Y12.89 F3000.0
S90
G01 Y9.44 F1200.0
S1
G00 X93.12 Y9.44 F3000.0
S90
G01 Y12.89 F1200.0
S1
G00 X92.92 Y12.89 F3000.0
S90
G01 Y9.44 F1200.0
S1
G00 X92.72 Y9.44 F3000.0
S90
G01 Y12.89 F1200.0
S1
G00 X92.52 Y12.89 F3000.0
S90
G01 Y9.44 F1200.0
S1
G00 X92.32 Y9.44 F3000.0
S90
G01 Y12.89 F1200.0
S1
G00 X92.12 Y12.89 F3000.0
S90
G01 Y9.44 F1200.0
S1
G00 X91.92 Y9.44 F3000.0
S90
G01 Y12.89 F1200.0
S1
G00 X91.72 Y12.89 F3000.0
S90
G01 Y9.44 F1200.0
S1
G00 X91.52 Y9.44 F3000.0
S90
G01 Y12.89 F1200.0
S1
G00 X91.32 Y12.89 F3000.0
S90
G01 Y9.44 F1200.0
S1
G00 X91.12 Y9.44 F3000.0
S90
G01 Y12.89 F1200.0
S1
G00 X90.92 Y12.89 F3000.0
S90
G01 Y9.44 F1200.0
S1
G00 X90.72 Y9.44 F3000.0
S90
G01 Y12.89 F1200.0
S1
G00 X90.52 Y12.89 F3000.0
S90
G01 Y9.44 F1200.0
S1
G00 X90.32 Y9.44 F3000.0
S90
G01 Y12.89 F1200.0
S1
G00 X90.12 Y12.89 F3000.0
S90
G01 Y9.44 F1200.0
S1
G00 X86.32 Y9.44 F3000.0
S90
G01 Y16.34 F1200.0
S1
G00 X86.12 Y16.34 F3000.0
S90
G01 Y9.44 F1200.0
S1
G00 X85.92 Y9.44 F3000.0
S90
G01 Y16.34 F1200.0
S1
G00 X85.72 Y16.34 F3000.0
S90
G01 Y9.44 F1200.0
S1
G00 X85.52 Y9.44 F3000.0
S90
G01 Y16.34 F1200.0
S1
G00 X85.32 Y16.34 F3000.0
S90
G01 Y9.44 F1200.0
S1
G00 X85.12 Y9.44 F3000.0
S90
G01 Y16.34 F1200.0
S1
G00 X84.92 Y16.34 F3000.0
S90
G01 Y9.44 F1200.0
S1
G00 X84.72 Y9.44 F3000.0
S90
G01 Y16.34 F1200.0
S1
G00 X84.52 Y16.34 F3000.0
S90
G01 Y9.44 F1200.0
S1
G00 X84.32 Y9.44 F3000.0
S90
G01 Y16.34 F1200.0
S1
G00 X84.12 Y16.34 F3000.0
S90
G01 Y9.44 F1200.0
S1
G00 X83.92 Y9.44 F3000.0
S90
G01 Y16.34 F1200.0
S1
G00 X83.72 Y16.34 F3000.0
S90
G01 Y9.44 F1200.0
S1
G00 X83.52 Y9.44 F3000.0
S90
G01 Y16.34 F1200.0
S1
G00 X83.32 Y16.34 F3000.0
S90
G01 Y9.44 F1200.0
S1
G00 X83.12 Y9.44 F3000.0
S90
G01 Y16.34 F1200.0
S1
G00 X82.92 Y16.34 F3000.0
S90
G01 Y12.89 F1200.0
S1
G00 X82.72 Y12.89 F3000.0
S90
G01 Y16.34 F1200.0
S1
G00 X82.52 Y16.34 F3000.0
S90
G01 Y12.89 F1200.0
S1
G00 X82.32 Y12.89 F3000.0
S90
G01 Y16.34 F1200.0
S1
G00 X82.12 Y16.34 F3000.0
S90
G01 Y12.89 F1200.0
S1
G00 X81.92 Y12.89 F3000.0
S90
G01 Y16.34 F1200.0
S1
G00 X81.72 Y16.34 F3000.0
S90
G01 Y12.89 F1200.0
S1
G00 X81.52 Y12.89 F3000.0
S90
G01 Y16.34 F1200.0
S1
G00 X81.32 Y16.34 F3000.0
S90
G01 Y12.89 F1200.0
S1
G00 X81.12 Y12.89 F3000.0
S90
G01 Y16.34 F1200.0
S1
G00 X80.92 Y16.34 F3000.0
S90
G01 Y12.89 F1200.0
S1
G00 X80.72 Y12.89 F3000.0
S90
G01 Y16.34 F1200.0
S1
G00 X80.52 Y16.34 F3000.0
S90
G01 Y12.89 F1200.0
S1
G00 X80.32 Y12.89 F3000.0
S90
G01 Y16.34 F1200.0
S1
G00 X80.12 Y16.34 F3000.0
S90
G01 Y12.89 F1200.0
S1
G00 X79.92 Y12.89 F3000.0
S90
G01 Y16.34 F1200.0
S1
G00 X79.72 Y16.34 F3000.0
S90
G01 Y12.89 F1200.0
S1
G00 X76.12 Y12.89 F3000.0
S90
G01 Y9.44 F1200.0
S1
G00 X75.92 Y9.44 F3000.0
S90
G01 Y12.89 F1200.0
S1
G00 X75.72 Y12.89 F3000.0
S90
G01 Y9.44 F1200.0
S1
G00 X75.52 Y9.44 F3000.0
S90
G01 Y12.89 F1200.0
S1
G00 X75.32 Y12.89 F3000.0
S90
G01 Y9.44 F1200.0
S1
G00 X75.12 Y9.44 F3000.0
S90
G01 Y12.89 F1200.0
S1
G00 X74.92 Y12.89 F3000.0
S90
G01 Y9.44 F1200.0
S1
G00 X74.72 Y9.44 F3000.0
S90
G01 Y12.89 F1200.0
S1
G00 X74.52 Y12.89 F3000.0
S90
G01 Y9.44 F1200.0
S1
G00 X74.32 Y9.44 F3000.0
S90
G01 Y12.89 F1200.0
S1
G00 X74.12 Y12.89 F3000.0
S90
G01 Y9.44 F1200.0
S1
G00 X73.92 Y9.44 F3000.0
S90
G01 Y12.89 F1200.0
S1
G00 X73.72 Y12.89 F3000.0
S90
G01 Y9.44 F1200.0
S1
G00 X73.52 Y9.44 F3000.0
S90
G01 Y12.89 F1200.0
S1
G00 X73.32 Y12.89 F3000.0
S90
G01 Y9.44 F1200.0
S1
G00 X73.12 Y9.44 F3000.0
S90
G01 Y12.89 F1200.0
S1
G00 X72.92 Y12.89 F3000.0
S90
G01 Y9.44 F1200.0
S1
G00 X72.72 Y9.44 F3000.0
S90
G01 Y12.89 F1200.0
S1
G00 X72.52 Y12.89 F3000.0
S90
G01 Y5.99 F1200.0
S1
G00 X72.32 Y5.99 F3000.0
S90
G01 Y12.89 F1200.0
S1
G00 X72.12 Y12.89 F3000.0
S90
G01 Y5.99 F1200.0
S1
G00 X71.92 Y5.99 F3000.0
S90
G01 Y12.89 F1200.0
S1
G00 X71.72 Y12.89 F3000.0
S90
G01 Y5.99 F1200.0
S1
G00 X71.52 Y5.99 F3000.0
S90
G01 Y12.89 F1200.0
S1
G00 X71.32 Y12.89 F3000.0
S90
G01 Y5.99 F1200.0
S1
G00 X71.12 Y5.99 F3000.0
S90
G01 Y12.89 F1200.0
S1
G00 X70.92 Y12.89 F3000.0
S90
G01 Y5.99 F1200.0
S1
G00 X70.72 Y5.99 F3000.0
S90
G01 Y12.89 F1200.0
S1
G00 X70.52 Y12.89 F3000.0
S90
G01 Y5.99 F1200.0
S1
G00 X70.32 Y5.99 F3000.0
S90
G01 Y12.89 F1200.0
S1
G00 X70.12 Y12.89 F3000.0
S90
G01 Y5.99 F1200.0
S1
G00 X69.92 Y5.99 F3000.0
S90
G01 Y12.89 F1200.0
S1
G00 X69.72 Y12.89 F3000.0
S90
G01 Y5.99 F1200.0
S1
G00 X69.52 Y5.99 F3000.0
S90
G01 Y12.89 F1200.0
S1
G00 X69.32 Y12.89 F3000.0
S90
G01 Y5.99 F1200.0
S1
G00 X65.72 Y5.99 F3000.0
S90
G01 Y9.44 F1200.0
S1
G00 X65.52 Y9.44 F3000.0
S90
G01 Y5.99 F1200.0
S1
G00 X65.32 Y5.99 F3000.0
S90
G01 Y9.44 F1200.0
S1
G00 X65.12 Y9.44 F3000.0
S90
G01 Y5.99 F1200.0
S1
G00 X64.92 Y5.99 F3000.0
S90
G01 Y9.44 F1200.0
S1
G00 X64.72 Y9.44 F3000.0
S90
G01 Y5.99 F1200.0
S1
G00 X64.52 Y5.99 F3000.0
S90
G01 Y9.44 F1200.0
S1
G00 X64.32 Y9.44 F3000.0
S90
G01 Y5.99 F1200.0
S1
G00 X64.12 Y5.99 F3000.0
S90
G01 Y9.44 F1200.0
S1
G00 X63.92 Y9.44 F3000.0
S90
G01 Y5.99 F1200.0
S1
G00 X63.72 Y5.99 F3000.0
S90
G01 Y9.44 F1200.0
S1
G00 X63.52 Y9.44 F3000.0
S90
G01 Y5.99 F1200.0
S1
G00 X63.32 Y5.99 F3000.0
S90
G01 Y9.44 F1200.0
S1
G00 X63.12 Y9.44 F3000.0
S90
G01 Y5.99 F1200.0
S1
G00 X62.92 Y5.99 F3000.0
S90
G01 Y9.44 F1200.0
S1
G00 X62.72 Y9.44 F3000.0
S90
G01 Y5.99 F1200.0
S1
G00 X62.52 Y5.99 F3000.0
S90
G01 Y9.44 F1200.0
S1
G00 X65.92 Y9.44 F3000.0
S90
G01 Y16.34 F1200.0
S1
G00 X66.12 Y16.34 F3000.0
S90
G01 Y9.44 F1200.0
S1
G00 X66.32 Y9.44 F3000.0
S90
G01 Y16.34 F1200.0
S1
G00 X66.52 Y16.34 F3000.0
S90
G01 Y9.44 F1200.0
S1
G00 X66.72 Y9.44 F3000.0
S90
G01 Y16.34 F1200.0
S1
G00 X66.92 Y16.34 F3000.0
S90
G01 Y9.44 F1200.0
S1
G00 X67.12 Y9.44 F3000.0
S90
G01 Y16.34 F1200.0
S1
G00 X67.32 Y16.34 F3000.0
S90
G01 Y9.44 F1200.0
S1
G00 X67.52 Y9.44 F3000.0
S90
G01 Y16.34 F1200.0
S1
G00 X67.72 Y16.34 F3000.0
S90
G01 Y9.44 F1200.0
S1
G00 X67.92 Y9.44 F3000.0
S90
G01 Y16.34 F1200.0
S1
G00 X68.12 Y16.34 F3000.0
S90
G01 Y9.44 F1200.0
S1
G00 X68.32 Y9.44 F3000.0
S90
G01 Y16.34 F1200.0
S1
G00 X68.52 Y16.34 F3000.0
S90
G01 Y9.44 F1200.0
S1
G00 X68.72 Y9.44 F3000.0
S90
G01 Y16.34 F1200.0
S1
G00 X68.92 Y16.34 F3000.0
S90
G01 Y9.44 F1200.0
S1
G00 X69.12 Y9.44 F3000.0
S90
G01 Y16.34 F1200.0
S1
G00 X62.32 Y16.34 F3000.0
S90
G01 Y12.89 F1200.0
S1
G00 X62.12 Y12.89 F3000.0
S90
G01 Y16.34 F1200.0
S1
G00 X61.92 Y16.34 F3000.0
S90
G01 Y12.89 F1200.0
S1
G00 X61.72 Y12.89 F3000.0
S90
G01 Y16.34 F1200.0
S1
G00 X61.52 Y16.34 F3000.0
S90
G01 Y12.89 F1200.0
S1
G00 X61.32 Y12.89 F3000.0
S90
G01 Y16.34 F1200.0
S1
G00 X61.12 Y16.34 F3000.0
S90
G01 Y12.89 F1200.0
S1
G00 X60.92 Y12.89 F3000.0
S90
G01 Y16.34 F1200.0
S1
G00 X60.72 Y16.34 F3000.0
S90
G01 Y12.89 F1200.0
S1
G00 X60.52 Y12.89 F3000.0
S90
G01 Y16.34 F1200.0
S1
G00 X60.32 Y16.34 F3000.0
S90
G01 Y12.89 F1200.0
S1
G00 X60.12 Y12.89 F3000.0
S90
G01 Y16.34 F1200.0
S1
G00 X59.92 Y16.34 F3000.0
S90
G01 Y12.89 F1200.0
S1
G00 X59.72 Y12.89 F3000.0
S90
G01 Y16.34 F1200.0
S1
G00 X59.52 Y16.34 F3000.0
S90
G01 Y12.89 F1200.0
S1
G00 X59.32 Y12.89 F3000.0
S90
G01 Y16.34 F1200.0
S1
G00 X59.12 Y16.34 F3000.0
S90
G01 Y12.89 F1200.0
S1
G00 X58.92 Y12.89 F3000.0
S90
G01 Y16.34 F1200.0
S1
G00 X58.72 Y16.34 F3000.0
S90
G01 Y9.44 F1200.0
S1
G00 X58.52 Y9.44 F3000.0
S90
G01 Y16.34 F1200.0
S1
G00 X58.32 Y16.34 F3000.0
S90
G01 Y9.44 F1200.0
S1
G00 X58.12 Y9.44 F3000.0
S90
G01 Y16.34 F1200.0
S1
G00 X57.92 Y16.34 F3000.0
S90
G01 Y9.44 F1200.0
S1
G00 X57.72 Y9.44 F3000.0
S90
G01 Y16.34 F1200.0
S1
G00 X57.52 Y16.34 F3000.0
S90
G01 Y9.44 F1200.0
S1
G00 X57.32 Y9.44 F3000.0
S90
G01 Y16.34 F1200.0
S1
G00 X57.12 Y16.34 F3000.0
S90
G01 Y9.44 F1200.0
S1
G00 X56.92 Y9.44 F3000.0
S90
G01 Y16.34 F1200.0
S1
G00 X56.72 Y16.34 F3000.0
S90
G01 Y9.44 F1200.0
S1
G00 X56.52 Y9.44 F3000.0
S90
G01 Y16.34 F1200.0
S1
G00 X56.32 Y16.34 F3000.0
S90
G01 Y9.44 F1200.0
S1
G00 X56.12 Y9.44 F3000.0
S90
G01 Y16.34 F1200.0
S1
G00 X55.92 Y16.34 F3000.0
S90
G01 Y9.44 F1200.0
S1
G00 X55.72 Y9.44 F3000.0
S90
G01 Y16.34 F1200.0
S1
G00 X55.52 Y16.34 F3000.0
S90
G01 Y9.44 F1200.0
S1
G00 X55.52 Y19.78 F3000.0
S90
G01 Y30.13 F1200.0
S1
G00 X55.72 Y30.13 F3000.0
S90
G01 Y19.78 F1200.0
S1
G00 X55.92 Y19.78 F3000.0
S90
G01 Y30.13 F1200.0
S1
G00 X56.12 Y30.13 F3000.0
S90
G01 Y19.78 F1200.0
S1
G00 X56.32 Y19.78 F3000.0
S90
G01 Y30.13 F1200.0
S1
G00 X56.52 Y30.13 F3000.0
S90
G01 Y19.78 F1200.0
S1
G00 X56.72 Y19.78 F3000.0
S90
G01 Y30.13 F1200.0
S1
G00 X56.92 Y30.13 F3000.0
S90
G01 Y19.78 F1200.0
S1
G00 X57.12 Y19.78 F3000.0
S90
G01 Y30.13 F1200.0
S1
G00 X57.32 Y30.13 F3000.0
S90
G01 Y19.78 F1200.0
S1
G00 X57.52 Y19.78 F3000.0
S90
G01 Y30.13 F1200.0
S1
G00 X57.72 Y30.13 F3000.0
S90
G01 Y19.78 F1200.0
S1
G00 X57.92 Y19.78 F3000.0
S90
G01 Y30.13 F1200.0
S1
G00 X58.12 Y30.13 F3000.0
S90
G01 Y19.78 F1200.0
S1
G00 X58.32 Y19.78 F3000.0
S90
G01 Y30.13 F1200.0
S1
G00 X58.52 Y30.13 F3000.0
S90
G01 Y19.78 F1200.0
S1
G00 X58.72 Y19.78 F3000.0
S90
G01 Y30.13 F1200.0
S1
G00 X58.72 Y40.47 F3000.0
S90
G01 Y43.92 F1200.0
S1
G00 X58.52 Y43.92 F3000.0
S90
G01 Y40.47 F1200.0
S1
G00 X58.32 Y40.47 F3000.0
S90
G01 Y43.92 F1200.0
S1
G00 X58.12 Y43.92 F3000.0
S90
G01 Y40.47 F1200.0
S1
G00 X57.92 Y40.47 F3000.0
S90
G01 Y43.92 F1200.0
S1
G00 X57.72 Y43.92 F3000.0
S90
G01 Y40.47 F1200.0
S1
G00 X57.52 Y40.47 F3000.0
S90
G01 Y43.92 F1200.0
S1
G00 X57.32 Y43.92 F3000.0
S90
G01 Y40.47 F1200.0
S1
G00 X57.12 Y40.47 F3000.0
S90
G01 Y43.92 F1200.0
S1
G00 X56.92 Y43.92 F3000.0
S90
G01 Y40.47 F1200.0
S1
G00 X56.72 Y40.47 F3000.0
S90
G01 Y43.92 F1200.0
S1
G00 X56.52 Y43.92 F3000.0
S90
G01 Y40.47 F1200.0
S1
G00 X56.32 Y40.47 F3000.0
S90
G01 Y43.92 F1200.0
S1
G00 X56.12 Y43.92 F3000.0
S90
G01 Y40.47 F1200.0
S1
G00 X55.92 Y40.47 F3000.0
S90
G01 Y43.92 F1200.0
S1
G00 X55.72 Y43.92 F3000.0
S90
G01 Y40.47 F1200.0
S1
G00 X55.52 Y40.47 F3000.0
S90
G01 Y43.92 F1200.0
S1
G00 X55.32 Y43.92 F3000.0
S90
G01 Y40.47 F1200.0
S1
G00 X55.12 Y40.47 F3000.0
S90
G01 Y43.92 F1200.0
S1
G00 X54.92 Y43.92 F3000.0
S90
G01 Y40.47 F1200.0
S1
G00 X54.72 Y40.47 F3000.0
S90
G01 Y43.92 F1200.0
S1
G00 X54.52 Y43.92 F3000.0
S90
G01 Y40.47 F1200.0
S1
G00 X54.32 Y40.47 F3000.0
S90
G01 Y43.92 F1200.0
S1
G00 X54.12 Y43.92 F3000.0
S90
G01 Y40.47 F1200.0
S1
G00 X53.92 Y40.47 F3000.0
S90
G01 Y43.92 F1200.0
S1
G00 X53.72 Y43.92 F3000.0
S90
G01 Y40.47 F1200.0
S1
G00 X53.52 Y40.47 F3000.0
S90
G01 Y43.92 F1200.0
S1
G00 X53.32 Y43.92 F3000.0
S90
G01 Y40.47 F1200.0
S1
G00 X53.12 Y40.47 F3000.0
S90
G01 Y43.92 F1200.0
S1
G00 X52.92 Y43.92 F3000.0
S90
G01 Y40.47 F1200.0
S1
G00 X52.72 Y40.47 F3000.0
S90
G01 Y43.92 F1200.0
S1
G00 X52.52 Y43.92 F3000.0
S90
G01 Y40.47 F1200.0
S1
G00 X52.32 Y40.47 F3000.0
S90
G01 Y43.92 F1200.0
S1
G00 X52.12 Y43.92 F3000.0
S90
G01 Y40.47 F1200.0
S1
G00 X44.72 Y43.92 F3000.0
S90
G01 Y33.58 F1200.0
S1
G00 X44.52 Y33.58 F3000.0
S90
G01 Y43.92 F1200.0
S1
G00 X44.32 Y43.92 F3000.0
S90
G01 Y33.58 F1200.0
S1
G00 X44.12 Y33.58 F3000.0
S90
G01 Y43.92 F1200.0
S1
G00 X43.92 Y43.92 F3000.0
S90
G01 Y33.58 F1200.0
S1
G00 X43.72 Y33.58 F3000.0
S90
G01 Y43.92 F1200.0
S1
G00 X43.52 Y43.92 F3000.0
S90
G01 Y33.58 F1200.0
S1
G00 X43.32 Y33.58 F3000.0
S90
G01 Y43.92 F1200.0
S1
G00 X43.12 Y43.92 F3000.0
S90
G01 Y33.58 F1200.0
S1
G00 X42.92 Y33.58 F3000.0
S90
G01 Y43.92 F1200.0
S1
G00 X42.72 Y43.92 F3000.0
S90
G01 Y33.58 F1200.0
S1
G00 X42.52 Y33.58 F3000.0
S90
G01 Y43.92 F1200.0
S1
G00 X42.32 Y43.92 F3000.0
S90
G01 Y33.58 F1200.0
S1
G00 X42.12 Y33.58 F3000.0
S90
G01 Y43.92 F1200.0
S1
G00 X41.92 Y43.92 F3000.0
S90
G01 Y33.58 F1200.0
S1
G00 X41.72 Y33.58 F3000.0
S90
G01 Y43.92 F1200.0
S1
G00 X38.12 Y43.92 F3000.0
S90
G01 Y47.37 F1200.0
S1
G00 X37.92 Y47.37 F3000.0
S90
G01 Y43.92 F1200.0
S1
G00 X37.72 Y43.92 F3000.0
S90
G01 Y47.37 F1200.0
S1
G00 X37.52 Y47.37 F3000.0
S90
G01 Y43.92 F1200.0
S1
G00 X37.32 Y43.92 F3000.0
S90
G01 Y47.37 F1200.0
S1
G00 X37.12 Y47.37 F3000.0
S90
G01 Y43.92 F1200.0
S1
G00 X36.92 Y43.92 F3000.0
S90
G01 Y47.37 F1200.0
S1
G00 X36.72 Y47.37 F3000.0
S90
G01 Y43.92 F1200.0
S1
G00 X36.52 Y43.92 F3000.0
S90
G01 Y47.37 F1200.0
S1
G00 X36.32 Y47.37 F3000.0
S90
G01 Y43.92 F1200.0
S1
G00 X36.12 Y43.92 F3000.0
S90
G01 Y47.37 F1200.0
S1
G00 X35.92 Y47.37 F3000.0
S90
G01 Y43.92 F1200.0
S1
G00 X35.72 Y43.92 F3000.0
S90
G01 Y47.37 F1200.0
S1
G00 X35.52 Y47.37 F3000.0
S90
G01 Y43.92 F1200.0
S1
G00 X35.32 Y43.92 F3000.0
S90
G01 Y47.37 F1200.0
S1
G00 X35.12 Y47.37 F3000.0
S90
G01 Y43.92 F1200.0
S1
G00 X34.92 Y43.92 F3000.0
S90
G01 Y47.37 F1200.0
S1
G00 X34.92 Y50.82 F3000.0
S90
G01 Y57.72 F1200.0
S1
G00 X35.12 Y57.72 F3000.0
S90
G01 Y50.82 F1200.0
S1
G00 X35.32 Y50.82 F3000.0
S90
G01 Y57.72 F1200.0
S1
G00 X35.52 Y57.72 F3000.0
S90
G01 Y50.82 F1200.0
S1
G00 X35.72 Y50.82 F3000.0
S90
G01 Y57.72 F1200.0
S1
G00 X35.92 Y57.72 F3000.0
S90
G01 Y50.82 F1200.0
S1
G00 X36.12 Y50.82 F3000.0
S90
G01 Y57.72 F1200.0
S1
G00 X36.32 Y57.72 F3000.0
S90
G01 Y50.82 F1200.0
S1
G00 X36.52 Y50.82 F3000.0
S90
G01 Y57.72 F1200.0
S1
G00 X36.72 Y57.72 F3000.0
S90
G01 Y50.82 F1200.0
S1
G00 X36.92 Y50.82 F3000.0
S90
G01 Y57.72 F1200.0
S1
G00 X37.12 Y57.72 F3000.0
S90
G01 Y50.82 F1200.0
S1
G00 X37.32 Y50.82 F3000.0
S90
G01 Y57.72 F1200.0
S1
G00 X37.52 Y57.72 F3000.0
S90
G01 Y50.82 F1200.0
S1
G00 X37.72 Y50.82 F3000.0
S90
G01 Y57.72 F1200.0
S1
G00 X37.92 Y57.72 F3000.0
S90
G01 Y50.82 F1200.0
S1
G00 X38.12 Y50.82 F3000.0
S90
G01 Y57.72 F1200.0
S1
G00 X38.32 Y57.72 F3000.0
S90
G01 Y61.16 F1200.0
S1
G00 X38.52 Y61.16 F3000.0
S90
G01 Y57.72 F1200.0
S1
G00 X38.72 Y57.72 F3000.0
S90
G01 Y61.16 F1200.0
S1
G00 X38.92 Y61.16 F3000.0
S90
G01 Y57.72 F1200.0
S1
G00 X39.12 Y57.72 F3000.0
S90
G01 Y61.16 F1200.0
S1
G00 X39.32 Y61.16 F3000.0
S90
G01 Y57.72 F1200.0
S1
G00 X39.52 Y57.72 F3000.0
S90
G01 Y61.16 F1200.0
S1
G00 X39.72 Y61.16 F3000.0
S90
G01 Y57.72 F1200.0
S1
G00 X39.92 Y57.72 F3000.0
S90
G01 Y61.16 F1200.0
S1
G00 X40.12 Y61.16 F3000.0
S90
G01 Y57.72 F1200.0
S1
G00 X40.32 Y57.72 F3000.0
S90
G01 Y61.16 F1200.0
S1
G00 X40.52 Y61.16 F3000.0
S90
G01 Y57.72 F1200.0
S1
G00 X40.72 Y57.72 F3000.0
S90
G01 Y61.16 F1200.0
S1
G00 X40.92 Y61.16 F3000.0
S90
G01 Y57.72 F1200.0
S1
G00 X41.12 Y57.72 F3000.0
S90
G01 Y61.16 F1200.0
S1
G00 X41.32 Y61.16 F3000.0
S90
G01 Y57.72 F1200.0
S1
G00 X41.52 Y57.72 F3000.0
S90
G01 Y61.16 F1200.0
S1
G00 X41.72 Y68.06 F3000.0
S90
G01 Y71.51 F1200.0
S1
G00 X41.92 Y71.51 F3000.0
S90
G01 Y68.06 F1200.0
S1
G00 X42.12 Y68.06 F3000.0
S90
G01 Y71.51 F1200.0
S1
G00 X42.32 Y71.51 F3000.0
S90
G01 Y68.06 F1200.0
S1
G00 X42.52 Y68.06 F3000.0
S90
G01 Y71.51 F1200.0
S1
G00 X42.72 Y71.51 F3000.0
S90
G01 Y68.06 F1200.0
S1
G00 X42.92 Y68.06 F3000.0
S90
G01 Y71.51 F1200.0
S1
G00 X43.12 Y71.51 F3000.0
S90
G01 Y68.06 F1200.0
S1
G00 X43.32 Y68.06 F3000.0
S90
G01 Y71.51 F1200.0
S1
G00 X43.52 Y71.51 F3000.0
S90
G01 Y68.06 F1200.0
S1
G00 X43.72 Y68.06 F3000.0
S90
G01 Y71.51 F1200.0
S1
G00 X43.92 Y71.51 F3000.0
S90
G01 Y68.06 F1200.0
S1
G00 X44.12 Y68.06 F3000.0
S90
G01 Y71.51 F1200.0
S1
G00 X44.32 Y71.51 F3000.0
S90
G01 Y68.06 F1200.0
S1
G00 X44.52 Y68.06 F3000.0
S90
G01 Y71.51 F1200.0
S1
G00 X44.72 Y71.51 F3000.0
S90
G01 Y68.06 F1200.0
S1
G00 X44.92 Y68.06 F3000.0
S90
G01 Y71.51 F1200.0
S1
G00 X45.12 Y71.51 F3000.0
S90
G01 Y74.96 F1200.0
S1
G00 X44.92 Y74.96 F3000.0
S90
G01 Y81.85 F1200.0
S1
G00 X44.72 Y81.85 F3000.0
S90
G01 Y74.96 F1200.0
S1
G00 X44.52 Y74.96 F3000.0
S90
G01 Y81.85 F1200.0
S1
G00 X44.32 Y81.85 F3000.0
S90
G01 Y74.96 F1200.0
S1
G00 X44.12 Y74.96 F3000.0
S90
G01 Y81.85 F1200.0
S1
G00 X43.92 Y81.85 F3000.0
S90
G01 Y74.96 F1200.0
S1
G00 X43.72 Y74.96 F3000.0
S90
G01 Y81.85 F1200.0
S1
G00 X43.52 Y81.85 F3000.0
S90
G01 Y74.96 F1200.0
S1
G00 X43.32 Y74.96 F3000.0
S90
G01 Y81.85 F1200.0
S1
G00 X43.12 Y81.85 F3000.0
S90
G01 Y74.96 F1200.0
S1
G00 X42.92 Y74.96 F3000.0
S90
G01 Y81.85 F1200.0
S1
G00 X42.72 Y81.85 F3000.0
S90
G01 Y74.96 F1200.0
S1
G00 X42.52 Y74.96 F3000.0
S90
G01 Y81.85 F1200.0
S1
G00 X42.32 Y81.85 F3000.0
S90
G01 Y74.96 F1200.0
S1
G00 X42.12 Y74.96 F3000.0
S90
G01 Y81.85 F1200.0
S1
G00 X41.92 Y81.85 F3000.0
S90
G01 Y74.96 F1200.0
S1
G00 X41.72 Y74.96 F3000.0
S90
G01 Y81.85 F1200.0
S1
G00 X41.52 Y81.85 F3000.0
S90
G01 Y95.65 F1200.0
S1
G00 X41.32 Y95.65 F3000.0
S90
G01 Y81.85 F1200.0
S1
G00 X41.12 Y81.85 F3000.0
S90
G01 Y95.65 F1200.0
S1
G00 X40.92 Y95.65 F3000.0
S90
G01 Y81.85 F1200.0
S1
G00 X40.72 Y81.85 F3000.0
S90
G01 Y95.65 F1200.0
S1
G00 X40.52 Y95.65 F3000.0
S90
G01 Y81.85 F1200.0
S1
G00 X40.32 Y81.85 F3000.0
S90
G01 Y95.65 F1200.0
S1
G00 X40.12 Y95.65 F3000.0
S90
G01 Y81.85 F1200.0
S1
G00 X39.92 Y81.85 F3000.0
S90
G01 Y95.65 F1200.0
S1
G00 X39.72 Y95.65 F3000.0
S90
G01 Y81.85 F1200.0
S1
G00 X39.52 Y81.85 F3000.0
S90
G01 Y95.65 F1200.0
S1
G00 X39.32 Y95.65 F3000.0
S90
G01 Y81.85 F1200.0
S1
G00 X39.12 Y81.85 F3000.0
S90
G01 Y95.65 F1200.0
S1
G00 X38.92 Y95.65 F3000.0
S90
G01 Y81.85 F1200.0
S1
G00 X38.72 Y81.85 F3000.0
S90
G01 Y95.65 F1200.0
S1
G00 X38.52 Y95.65 F3000.0
S90
G01 Y81.85 F1200.0
S1
G00 X38.32 Y81.85 F3000.0
S90
G01 Y95.65 F1200.0
S1
G00 X41.72 Y95.65 F3000.0
S90
G01 Y85.3 F1200.0
S1
G00 X41.92 Y85.3 F3000.0
S90
G01 Y95.65 F1200.0
S1
G00 X42.12 Y95.65 F3000.0
S90
G01 Y85.3 F1200.0
S1
G00 X42.32 Y85.3 F3000.0
S90
G01 Y95.65 F1200.0
S1
G00 X42.52 Y95.65 F3000.0
S90
G01 Y85.3 F1200.0
S1
G00 X42.72 Y85.3 F3000.0
S90
G01 Y95.65 F1200.0
S1
G00 X42.92 Y95.65 F3000.0
S90
G01 Y85.3 F1200.0
S1
G00 X43.12 Y85.3 F3000.0
S90
G01 Y95.65 F1200.0
S1
G00 X43.32 Y95.65 F3000.0
S90
G01 Y85.3 F1200.0
S1
G00 X43.52 Y85.3 F3000.0
S90
G01 Y95.65 F1200.0
S1
G00 X43.72 Y95.65 F3000.0
S90
G01 Y85.3 F1200.0
S1
G00 X43.92 Y85.3 F3000.0
S90
G01 Y95.65 F1200.0
S1
G00 X44.12 Y95.65 F3000.0
S90
G01 Y85.3 F1200.0
S1
G00 X44.32 Y85.3 F3000.0
S90
G01 Y95.65 F1200.0
S1
G00 X44.52 Y95.65 F3000.0
S90
G01 Y85.3 F1200.0
S1
G00 X44.72 Y85.3 F3000.0
S90
G01 Y95.65 F1200.0
S1
G00 X44.92 Y95.65 F3000.0
S90
G01 Y85.3 F1200.0
S1
G00 X45.12 Y88.75 F3000.0
S90
G01 Y78.4 F1200.0
S1
G00 X45.32 Y78.4 F3000.0
S90
G01 Y88.75 F1200.0
S1
G00 X45.52 Y88.75 F3000.0
S90
G01 Y78.4 F1200.0
S1
G00 X45.72 Y78.4 F3000.0
S90
G01 Y88.75 F1200.0
S1
G00 X45.92 Y88.75 F3000.0
S90
G01 Y78.4 F1200.0
S1
G00 X46.12 Y78.4 F3000.0
S90
G01 Y88.75 F1200.0
S1
G00 X46.32 Y88.75 F3000.0
S90
G01 Y78.4 F1200.0
S1
G00 X46.52 Y78.4 F3000.0
S90
G01 Y88.75 F1200.0
S1
G00 X46.72 Y88.75 F3000.0
S90
G01 Y78.4 F1200.0
S1
G00 X46.92 Y78.4 F3000.0
S90
G01 Y88.75 F1200.0
S1
G00 X47.12 Y88.75 F3000.0
S90
G01 Y78.4 F1200.0
S1
G00 X47.32 Y78.4 F3000.0
S90
G01 Y88.75 F1200.0
S1
G00 X47.52 Y88.75 F3000.0
S90
G01 Y78.4 F1200.0
S1
G00 X47.72 Y78.4 F3000.0
S90
G01 Y88.75 F1200.0
S1
G00 X47.92 Y88.75 F3000.0
S90
G01 Y78.4 F1200.0
S1
G00 X48.12 Y78.4 F3000.0
S90
G01 Y88.75 F1200.0
S1
G00 X48.32 Y88.75 F3000.0
S90
G01 Y78.4 F1200.0
S1
G00 X48.52 Y78.4 F3000.0
S90
G01 Y88.75 F1200.0
S1
G00 X48.52 Y95.65 F3000.0
S90
G01 Y105.99 F1200.0
S1
G00 X48.32 Y105.99 F3000.0
S90
G01 Y95.65 F1200.0
S1
G00 X48.12 Y95.65 F3000.0
S90
G01 Y105.99 F1200.0
S1
G00 X47.92 Y105.99 F3000.0
S90
G01 Y95.65 F1200.0
S1
G00 X47.72 Y95.65 F3000.0
S90
G01 Y105.99 F1200.0
S1
G00 X47.52 Y105.99 F3000.0
S90
G01 Y95.65 F1200.0
S1
G00 X47.32 Y95.65 F3000.0
S90
G01 Y105.99 F1200.0
S1
G00 X47.12 Y105.99 F3000.0
S90
G01 Y95.65 F1200.0
S1
G00 X46.92 Y95.65 F3000.0
S90
G01 Y105.99 F1200.0
S1
G00 X46.72 Y105.99 F3000.0
S90
G01 Y95.65 F1200.0
S1
G00 X46.52 Y95.65 F3000.0
S90
G01 Y105.99 F1200.0
S1
G00 X46.32 Y105.99 F3000.0
S90
G01 Y95.65 F1200.0
S1
G00 X46.12 Y95.65 F3000.0
S90
G01 Y105.99 F1200.0
S1
G00 X45.92 Y105.99 F3000.0
S90
G01 Y95.65 F1200.0
S1
G00 X45.72 Y95.65 F3000.0
S90
G01 Y105.99 F1200.0
S1
G00 X45.52 Y105.99 F3000.0
S90
G01 Y95.65 F1200.0
S1
G00 X45.32 Y95.65 F3000.0
S90
G01 Y105.99 F1200.0
S1
G00 X45.12 Y105.99 F3000.0
S90
G01 Y95.65 F1200.0
S1
G00 X48.72 Y95.65 F3000.0
S90
G01 Y105.99 F1200.0
S1
G00 X48.92 Y105.99 F3000.0
S90
G01 Y95.65 F1200.0
S1
G00 X49.12 Y95.65 F3000.0
S90
G01 Y105.99 F1200.0
S1
G00 X49.32 Y105.99 F3000.0
S90
G01 Y95.65 F1200.0
S1
G00 X49.52 Y95.65 F3000.0
S90
G01 Y105.99 F1200.0
S1
G00 X49.72 Y105.99 F3000.0
S90
G01 Y95.65 F1200.0
S1
G00 X49.92 Y95.65 F3000.0
S90
G01 Y105.99 F1200.0
S1
G00 X50.12 Y105.99 F3000.0
S90
G01 Y95.65 F1200.0
S1
G00 X50.32 Y95.65 F3000.0
S90
G01 Y105.99 F1200.0
S1
G00 X50.52 Y105.99 F3000.0
S90
G01 Y95.65 F1200.0
S1
G00 X50.72 Y95.65 F3000.0
S90
G01 Y105.99 F1200.0
S1
G00 X50.92 Y105.99 F3000.0
S90
G01 Y95.65 F1200.0
S1
G00 X51.12 Y95.65 F3000.0
S90
G01 Y105.99 F1200.0
S1
G00 X51.32 Y105.99 F3000.0
S90
G01 Y95.65 F1200.0
S1
G00 X51.52 Y95.65 F3000.0
S90
G01 Y105.99 F1200.0
S1
G00 X51.72 Y105.99 F3000.0
S90
G01 Y95.65 F1200.0
S1
G00 X51.92 Y95.65 F3000.0
S90
G01 Y105.99 F1200.0
S1
G00 X52.12 Y105.99 F3000.0
S90
G01 Y99.09 F1200.0
S1
G00 X52.32 Y99.09 F3000.0
S90
G01 Y105.99 F1200.0
S1
G00 X52.52 Y105.99 F3000.0
S90
G01 Y99.09 F1200.0
S1
G00 X52.72 Y99.09 F3000.0
S90
G01 Y105.99 F1200.0
S1
G00 X52.92 Y105.99 F3000.0
S90
G01 Y99.09 F1200.0
S1
G00 X53.12 Y99.09 F3000.0
S90
G01 Y105.99 F1200.0
S1
G00 X53.32 Y105.99 F3000.0
S90
G01 Y99.09 F1200.0
S1
G00 X53.52 Y99.09 F3000.0
S90
G01 Y105.99 F1200.0
S1
G00 X53.72 Y105.99 F3000.0
S90
G01 Y99.09 F1200.0
S1
G00 X53.92 Y99.09 F3000.0
S90
G01 Y105.99 F1200.0
S1
G00 X54.12 Y105.99 F3000.0
S90
G01 Y99.09 F1200.0
S1
G00 X54.32 Y99.09 F3000.0
S90
G01 Y105.99 F1200.0
S1
G00 X54.52 Y105.99 F3000.0
S90
G01 Y99.09 F1200.0
S1
G00 X54.72 Y99.09 F3000.0
S90
G01 Y105.99 F1200.0
S1
G00 X54.92 Y105.99 F3000.0
S90
G01 Y99.09 F1200.0
S1
G00 X55.12 Y99.09 F3000.0
S90
G01 Y105.99 F1200.0
S1
G00 X55.32 Y105.99 F3000.0
S90
G01 Y99.09 F1200.0
S1
G00 X55.32 Y95.65 F3000.0
S90
G01 Y92.2 F1200.0
S1
G00 X55.12 Y92.2 F3000.0
S90
G01 Y95.65 F1200.0
S1
G00 X54.92 Y95.65 F3000.0
S90
G01 Y92.2 F1200.0
S1
G00 X54.72 Y92.2 F3000.0
S90
G01 Y95.65 F1200.0
S1
G00 X54.52 Y95.65 F3000.0
S90
G01 Y92.2 F1200.0
S1
G00 X54.32 Y92.2 F3000.0
S90
G01 Y95.65 F1200.0
S1
G00 X54.12 Y95.65 F3000.0
S90
G01 Y92.2 F1200.0
S1
G00 X53.92 Y92.2 F3000.0
S90
G01 Y95.65 F1200.0
S1
G00 X53.72 Y95.65 F3000.0
S90
G01 Y92.2 F1200.0
S1
G00 X53.52 Y92.2 F3000.0
S90
G01 Y95.65 F1200.0
S1
G00 X53.32 Y95.65 F3000.0
S90
G01 Y92.2 F1200.0
S1
G00 X53.12 Y92.2 F3000.0
S90
G01 Y95.65 F1200.0
S1
G00 X52.92 Y95.65 F3000.0
S90
G01 Y92.2 F1200.0
S1
G00 X52.72 Y92.2 F3000.0
S90
G01 Y95.65 F1200.0
S1
G00 X52.52 Y95.65 F3000.0
S90
G01 Y92.2 F1200.0
S1
G00 X52.32 Y92.2 F3000.0
S90
G01 Y95.65 F1200.0
S1
G00 X52.12 Y95.65 F3000.0
S90
G01 Y92.2 F1200.0
S1
G00 X58.92 Y92.2 F3000.0
S90
G01 Y88.75 F1200.0
S1
G00 X59.12 Y88.75 F3000.0
S90
G01 Y92.2 F1200.0
S1
G00 X59.32 Y92.2 F3000.0
S90
G01 Y88.75 F1200.0
S1
G00 X59.52 Y88.75 F3000.0
S90
G01 Y92.2 F1200.0
S1
G00 X59.72 Y92.2 F3000.0
S90
G01 Y88.75 F1200.0
S1
G00 X59.92 Y88.75 F3000.0
S90
G01 Y92.2 F1200.0
S1
G00 X60.12 Y92.2 F3000.0
S90
G01 Y88.75 F1200.0
S1
G00 X60.32 Y88.75 F3000.0
S90
G01 Y92.2 F1200.0
S1
G00 X60.52 Y92.2 F3000.0
S90
G01 Y88.75 F1200.0
S1
G00 X60.72 Y88.75 F3000.0
S90
G01 Y92.2 F1200.0
S1
G00 X60.92 Y92.2 F3000.0
S90
G01 Y88.75 F1200.0
S1
G00 X61.12 Y88.75 F3000.0
S90
G01 Y92.2 F1200.0
S1
G00 X61.32 Y92.2 F3000.0
S90
G01 Y88.75 F1200.0
S1
G00 X61.52 Y88.75 F3000.0
S90
G01 Y92.2 F1200.0
S1
G00 X61.72 Y92.2 F3000.0
S90
G01 Y88.75 F1200.0
S1
G00 X61.92 Y88.75 F3000.0
S90
G01 Y92.2 F1200.0
S1
G00 X62.12 Y92.2 F3000.0
S90
G01 Y88.75 F1200.0
S1
G00 X62.32 Y88.75 F3000.0
S90
G01 Y92.2 F1200.0
S1
G00 X62.32 Y85.3 F3000.0
S90
G01 Y78.4 F1200.0
S1
G00 X62.12 Y78.4 F3000.0
S90
G01 Y85.3 F1200.0
S1
G00 X61.92 Y85.3 F3000.0
S90
G01 Y78.4 F1200.0
S1
G00 X61.72 Y78.4 F3000.0
S90
G01 Y85.3 F1200.0
S1
G00 X61.52 Y85.3 F3000.0
S90
G01 Y78.4 F1200.0
S1
G00 X61.32 Y78.4 F3000.0
S90
G01 Y85.3 F1200.0
S1
G00 X61.12 Y85.3 F3000.0
S90
G01 Y78.4 F1200.0
S1
G00 X60.92 Y78.4 F3000.0
S90
G01 Y85.3 F1200.0
S1
G00 X60.72 Y85.3 F3000.0
S90
G01 Y78.4 F1200.0
S1
G00 X60.52 Y78.4 F3000.0
S90
G01 Y85.3 F1200.0
S1
G00 X60.32 Y85.3 F3000.0
S90
G01 Y78.4 F1200.0
S1
G00 X60.12 Y78.4 F3000.0
S90
G01 Y85.3 F1200.0
S1
G00 X59.92 Y85.3 F3000.0
S90
G01 Y78.4 F1200.0
S1
G00 X59.72 Y78.4 F3000.0
S90
G01 Y85.3 F1200.0
S1
G00 X59.52 Y85.3 F3000.0
S90
G01 Y78.4 F1200.0
S1
G00 X59.32 Y78.4 F3000.0
S90
G01 Y85.3 F1200.0
