
;Inkscape Lasertools G-code
;https://github.com/ChrisWag91/Inkscape-Lasertools-Plugin

G90	;Absolute programming
G21	;Programming in millimeters (mm)
M03 S1 ;Activate laser and set power to 0 (CUSTOM)

; START infill strategy
G01 F1200.0
G00 X8.24 Y77.08 F3000.0
S90
G01 Y69.55 F1200.0
S1
G00 X8.44 Y67. F3000.0
S90
G01 Y78.17 F1200.0
S1
G00 X8.64 Y78.95 F3000.0
S90
G01 Y65.91 F1200.0
S1
G00 X8.84 Y64.83 F3000.0
S90
G01 Y79.72 F1200.0
S1
G00 X9.04 Y80.39 F3000.0
S90
G01 Y63.75 F1200.0
S1
G00 X9.24 Y63.09 F3000.0
S90
G01 Y81.02 F1200.0
S1
G00 X9.44 Y81.65 F3000.0
S90
G01 Y62.42 F1200.0
S1
G00 X9.64 Y61.76 F3000.0
S90
G01 Y82.28 F1200.0
S1
G00 X9.84 Y82.9 F3000.0
S90
G01 Y65.02 F1200.0
S1
G00 X10.04 Y65.14 F3000.0
S90
G01 Y83.4 F1200.0
S1
G00 X10.24 Y83.9 F3000.0
S90
G01 Y79.45 F1200.0
S1
G00 X10.44 Y80.95 F3000.0
S90
G01 Y84.4 F1200.0
S1
G00 X10.64 Y84.9 F3000.0
S90
G01 Y81.8 F1200.0
S1
G00 X10.84 Y82.28 F3000.0
S90
G01 Y85.4 F1200.0
S1
G00 X11.04 Y85.85 F3000.0
S90
G01 Y82.77 F1200.0
S1
G00 X11.24 Y83.05 F3000.0
S90
G01 Y86.26 F1200.0
S1
G00 X11.44 Y86.66 F3000.0
S90
G01 Y83.3 F1200.0
S1
G00 X11.64 Y83.56 F3000.0
S90
G01 Y87.07 F1200.0
S1
G00 X11.84 Y87.47 F3000.0
S90
G01 Y83.79 F1200.0
S1
G00 X12.04 Y83.94 F3000.0
S90
G01 Y87.88 F1200.0
S1
G00 X12.24 Y88.28 F3000.0
S90
G01 Y84.1 F1200.0
S1
G00 X12.44 Y84.25 F3000.0
S90
G01 Y88.61 F1200.0
S1
G00 X12.64 Y88.94 F3000.0
S90
G01 Y84.4 F1200.0
S1
G00 X12.84 Y84.55 F3000.0
S90
G01 Y89.28 F1200.0
S1
G00 X13.04 Y89.61 F3000.0
S90
G01 Y84.7 F1200.0
S1
G00 X13.24 Y84.86 F3000.0
S90
G01 Y89.94 F1200.0
S1
G00 X13.44 Y90.28 F3000.0
S90
G01 Y85.01 F1200.0
S1
G00 X13.64 Y85.17 F3000.0
S90
G01 Y90.61 F1200.0
S1
G00 X13.84 Y90.89 F3000.0
S90
G01 Y85.36 F1200.0
S1
G00 X14.04 Y85.66 F3000.0
S90
G01 Y91.16 F1200.0
S1
G00 X14.24 Y91.42 F3000.0
S90
G01 Y86.13 F1200.0
S1
G00 X14.64 Y85.9 F3000.0
S90
G01 Y86.42 F1200.0
S1
G00 X14.84 Y86.5 F3000.0
S90
G01 Y85.53 F1200.0
S1
G00 X15.04 Y85.32 F3000.0
S90
G01 Y86.57 F1200.0
S1
G00 X15.24 Y86.62 F3000.0
S90
G01 Y85.13 F1200.0
S1
G00 X15.44 Y84.94 F3000.0
S90
G01 Y86.82 F1200.0
S1
G00 X14.44 Y87.06 F3000.0
S90
G01 Y91.69 F1200.0
S1
G00 X14.64 Y91.95 F3000.0
S90
G01 Y87.92 F1200.0
S1
G00 X14.84 Y88.44 F3000.0
S90
G01 Y92.22 F1200.0
S1
G00 X15.04 Y92.49 F3000.0
S90
G01 Y88.91 F1200.0
S1
G00 X15.24 Y89.25 F3000.0
S90
G01 Y92.75 F1200.0
S1
G00 X15.44 Y92.98 F3000.0
S90
G01 Y89.55 F1200.0
S1
G00 X15.64 Y89.82 F3000.0
S90
G01 Y93.2 F1200.0
S1
G00 X15.84 Y93.42 F3000.0
S90
G01 Y90.09 F1200.0
S1
G00 X16.04 Y90.36 F3000.0
S90
G01 Y93.65 F1200.0
S1
G00 X16.24 Y93.87 F3000.0
S90
G01 Y90.63 F1200.0
S1
G00 X16.44 Y90.88 F3000.0
S90
G01 Y94.1 F1200.0
S1
G00 X16.64 Y94.32 F3000.0
S90
G01 Y91.1 F1200.0
S1
G00 X16.84 Y91.31 F3000.0
S90
G01 Y94.54 F1200.0
S1
G00 X17.04 Y94.77 F3000.0
S90
G01 Y91.52 F1200.0
S1
G00 X17.24 Y91.56 F3000.0
S90
G01 Y94.98 F1200.0
S1
G00 X17.44 Y95.18 F3000.0
S90
G01 Y91.59 F1200.0
S1
G00 X17.64 Y91.62 F3000.0
S90
G01 Y95.37 F1200.0
S1
G00 X17.84 Y95.56 F3000.0
S90
G01 Y91.65 F1200.0
S1
G00 X18.04 Y91.65 F3000.0
S90
G01 Y95.76 F1200.0
S1
G00 X18.24 Y95.95 F3000.0
S90
G01 Y91.64 F1200.0
S1
G00 X18.44 Y91.66 F3000.0
S90
G01 Y96.14 F1200.0
S1
G00 X18.64 Y96.34 F3000.0
S90
G01 Y91.73 F1200.0
S1
G00 X18.84 Y92.03 F3000.0
S90
G01 Y96.53 F1200.0
S1
G00 X19.04 Y96.72 F3000.0
S90
G01 Y93.01 F1200.0
S1
G00 X19.24 Y93.65 F3000.0
S90
G01 Y96.9 F1200.0
S1
G00 X19.44 Y97.06 F3000.0
S90
G01 Y94.06 F1200.0
S1
G00 X19.64 Y94.4 F3000.0
S90
G01 Y97.22 F1200.0
S1
G00 X19.84 Y97.37 F3000.0
S90
G01 Y94.73 F1200.0
S1
G00 X20.04 Y95.06 F3000.0
S90
G01 Y97.53 F1200.0
S1
G00 X20.24 Y97.69 F3000.0
S90
G01 Y95.39 F1200.0
S1
G00 X20.44 Y95.67 F3000.0
S90
G01 Y97.85 F1200.0
S1
G00 X20.64 Y98.01 F3000.0
S90
G01 Y95.92 F1200.0
S1
G00 X20.84 Y96.16 F3000.0
S90
G01 Y98.16 F1200.0
S1
G00 X21.04 Y98.31 F3000.0
S90
G01 Y96.4 F1200.0
S1
G00 X21.24 Y96.64 F3000.0
S90
G01 Y98.46 F1200.0
S1
G00 X21.44 Y98.61 F3000.0
S90
G01 Y96.79 F1200.0
S1
G00 X21.64 Y96.93 F3000.0
S90
G01 Y98.76 F1200.0
S1
G00 X21.84 Y98.91 F3000.0
S90
G01 Y97.06 F1200.0
S1
G00 X22.04 Y97.2 F3000.0
S90
G01 Y99.06 F1200.0
S1
G00 X22.24 Y99.2 F3000.0
S90
G01 Y97.34 F1200.0
S1
G00 X22.44 Y97.48 F3000.0
S90
G01 Y99.35 F1200.0
S1
G00 X22.64 Y99.48 F3000.0
S90
G01 Y97.61 F1200.0
S1
G00 X22.84 Y97.73 F3000.0
S90
G01 Y99.61 F1200.0
S1
G00 X23.04 Y99.73 F3000.0
S90
G01 Y97.81 F1200.0
S1
G00 X23.24 Y97.9 F3000.0
S90
G01 Y99.86 F1200.0
S1
G00 X23.44 Y99.99 F3000.0
S90
G01 Y97.99 F1200.0
S1
G00 X23.64 Y98.07 F3000.0
S90
G01 Y100.11 F1200.0
S1
G00 X23.84 Y100.23 F3000.0
S90
G01 Y98.16 F1200.0
S1
G00 X24.04 Y98.25 F3000.0
S90
G01 Y100.33 F1200.0
S1
G00 X24.24 Y100.42 F3000.0
S90
G01 Y98.33 F1200.0
S1
G00 X24.44 Y98.42 F3000.0
S90
G01 Y100.51 F1200.0
S1
G00 X24.64 Y100.6 F3000.0
S90
G01 Y98.48 F1200.0
S1
G00 X24.84 Y98.52 F3000.0
S90
G01 Y100.7 F1200.0
S1
G00 X25.04 Y100.79 F3000.0
S90
G01 Y98.57 F1200.0
S1
G00 X25.24 Y98.61 F3000.0
S90
G01 Y100.88 F1200.0
S1
G00 X25.44 Y100.98 F3000.0
S90
G01 Y98.65 F1200.0
S1
G00 X25.64 Y98.7 F3000.0
S90
G01 Y101.07 F1200.0
S1
G00 X25.84 Y101.16 F3000.0
S90
G01 Y98.74 F1200.0
S1
G00 X26.04 Y98.78 F3000.0
S90
G01 Y101.26 F1200.0
S1
G00 X26.24 Y101.35 F3000.0
S90
G01 Y98.83 F1200.0
S1
G00 X26.44 Y98.87 F3000.0
S90
G01 Y101.44 F1200.0
S1
G00 X26.64 Y101.53 F3000.0
S90
G01 Y98.9 F1200.0
S1
G00 X26.84 Y98.94 F3000.0
S90
G01 Y101.61 F1200.0
S1
G00 X27.04 Y101.69 F3000.0
S90
G01 Y98.98 F1200.0
S1
G00 X27.24 Y99.01 F3000.0
S90
G01 Y101.77 F1200.0
S1
G00 X27.44 Y101.85 F3000.0
S90
G01 Y99.05 F1200.0
S1
G00 X27.64 Y99.09 F3000.0
S90
G01 Y101.93 F1200.0
S1
G00 X27.84 Y102.01 F3000.0
S90
G01 Y99.12 F1200.0
S1
G00 X28.04 Y99.17 F3000.0
S90
G01 Y102.09 F1200.0
S1
G00 X28.24 Y102.17 F3000.0
S90
G01 Y99.25 F1200.0
S1
G00 X28.44 Y99.33 F3000.0
S90
G01 Y102.25 F1200.0
S1
G00 X28.64 Y102.33 F3000.0
S90
G01 Y99.4 F1200.0
S1
G00 X28.84 Y99.48 F3000.0
S90
G01 Y102.41 F1200.0
S1
G00 X29.04 Y102.49 F3000.0
S90
G01 Y99.56 F1200.0
S1
G00 X29.24 Y99.64 F3000.0
S90
G01 Y102.57 F1200.0
S1
G00 X29.44 Y102.65 F3000.0
S90
G01 Y99.74 F1200.0
S1
G00 X29.64 Y99.89 F3000.0
S90
G01 Y102.74 F1200.0
S1
G00 X29.84 Y102.8 F3000.0
S90
G01 Y100.04 F1200.0
S1
G00 X30.04 Y100.19 F3000.0
S90
G01 Y102.87 F1200.0
S1
G00 X30.24 Y102.93 F3000.0
S90
G01 Y100.33 F1200.0
S1
G00 X30.44 Y100.66 F3000.0
S90
G01 Y103.0 F1200.0
S1
G00 X30.64 Y103.07 F3000.0
S90
G01 Y101.74 F1200.0
S1
G00 X30.84 Y101.95 F3000.0
S90
G01 Y103.13 F1200.0
S1
G00 X31.04 Y103.2 F3000.0
S90
G01 Y102.05 F1200.0
S1
G00 X31.24 Y102.15 F3000.0
S90
G01 Y103.27 F1200.0
S1
G00 X31.44 Y103.33 F3000.0
S90
G01 Y102.24 F1200.0
S1
G00 X31.64 Y102.28 F3000.0
S90
G01 Y103.4 F1200.0
S1
G00 X31.84 Y103.47 F3000.0
S90
G01 Y102.33 F1200.0
S1
G00 X32.04 Y102.37 F3000.0
S90
G01 Y103.53 F1200.0
S1
G00 X32.24 Y103.6 F3000.0
S90
G01 Y102.42 F1200.0
S1
G00 X32.44 Y102.43 F3000.0
S90
G01 Y103.65 F1200.0
S1
G00 X32.64 Y103.69 F3000.0
S90
G01 Y102.43 F1200.0
S1
G00 X32.84 Y102.43 F3000.0
S90
G01 Y103.73 F1200.0
S1
G00 X33.04 Y103.76 F3000.0
S90
G01 Y102.44 F1200.0
S1
G00 X33.24 Y102.38 F3000.0
S90
G01 Y103.8 F1200.0
S1
G00 X33.44 Y103.83 F3000.0
S90
G01 Y89.38 F1200.0
S1
G00 X33.04 Y89.1 F3000.0
S90
G01 Y88.06 F1200.0
S1
G00 X32.84 Y87.84 F3000.0
S90
G01 Y89.51 F1200.0
S1
G00 X32.64 Y89.51 F3000.0
S90
G01 Y87.62 F1200.0
S1
G00 X32.44 Y87.4 F3000.0
S90
G01 Y89.52 F1200.0
S1
G00 X32.24 Y89.52 F3000.0
S90
G01 Y87.19 F1200.0
S1
G00 X32.04 Y86.97 F3000.0
S90
G01 Y89.53 F1200.0
S1
G00 X31.84 Y89.54 F3000.0
S90
G01 Y86.76 F1200.0
S1
G00 X31.64 Y86.54 F3000.0
S90
G01 Y89.56 F1200.0
S1
G00 X31.44 Y89.57 F3000.0
S90
G01 Y85.45 F1200.0
S1
G00 X31.24 Y85.45 F3000.0
S90
G01 Y89.69 F1200.0
S1
G00 X31.04 Y89.83 F3000.0
S90
G01 Y85.45 F1200.0
S1
G00 X30.84 Y85.45 F3000.0
S90
G01 Y89.96 F1200.0
S1
G00 X30.64 Y90.3 F3000.0
S90
G01 Y85.43 F1200.0
S1
G00 X30.44 Y85.42 F3000.0
S90
G01 Y91.71 F1200.0
S1
G00 X30.64 Y91.67 F3000.0
S90
G01 Y91.16 F1200.0
S1
G00 X30.24 Y91.76 F3000.0
S90
G01 Y85.35 F1200.0
S1
G00 X30.04 Y85.21 F3000.0
S90
G01 Y91.82 F1200.0
S1
G00 X29.84 Y91.88 F3000.0
S90
G01 Y84.98 F1200.0
S1
G00 X29.64 Y84.02 F3000.0
S90
G01 Y92.02 F1200.0
S1
G00 X29.44 Y92.25 F3000.0
S90
G01 Y84.07 F1200.0
S1
G00 X29.24 Y84.21 F3000.0
S90
G01 Y92.61 F1200.0
S1
G00 X29.24 Y93.59 F3000.0
S90
G01 Y94.8 F1200.0
S1
G00 X29.44 Y94.77 F3000.0
S90
G01 Y94.18 F1200.0
S1
G00 X30.24 Y93.94 F3000.0
S90
G01 Y92.84 F1200.0
S1
G00 X30.44 Y92.77 F3000.0
S90
G01 Y99.85 F1200.0
S1
G00 X30.64 Y100.01 F3000.0
S90
G01 Y92.72 F1200.0
S1
G00 X30.84 Y92.66 F3000.0
S90
G01 Y100.06 F1200.0
S1
G00 X31.04 Y100.1 F3000.0
S90
G01 Y92.6 F1200.0
S1
G00 X31.24 Y92.46 F3000.0
S90
G01 Y100.21 F1200.0
S1
G00 X31.44 Y101.34 F3000.0
S90
G01 Y91.78 F1200.0
S1
G00 X31.64 Y90.45 F3000.0
S90
G01 Y101.53 F1200.0
S1
G00 X31.84 Y101.57 F3000.0
S90
G01 Y90.31 F1200.0
S1
G00 X32.04 Y90.27 F3000.0
S90
G01 Y101.61 F1200.0
S1
G00 X32.24 Y101.65 F3000.0
S90
G01 Y90.28 F1200.0
S1
G00 X32.44 Y90.29 F3000.0
S90
G01 Y101.68 F1200.0
S1
G00 X32.64 Y101.72 F3000.0
S90
G01 Y90.27 F1200.0
S1
G00 X32.84 Y90.26 F3000.0
S90
G01 Y101.75 F1200.0
S1
G00 X33.04 Y101.78 F3000.0
S90
G01 Y90.24 F1200.0
S1
G00 X33.24 Y90.22 F3000.0
S90
G01 Y101.93 F1200.0
S1
G00 X33.64 Y103.87 F3000.0
S90
G01 Y88.8 F1200.0
S1
G00 X33.84 Y88.73 F3000.0
S90
G01 Y103.91 F1200.0
S1
G00 X34.04 Y103.94 F3000.0
S90
G01 Y88.66 F1200.0
S1
G00 X34.24 Y88.66 F3000.0
S90
G01 Y103.98 F1200.0
S1
G00 X34.44 Y104.02 F3000.0
S90
G01 Y88.71 F1200.0
S1
G00 X34.64 Y88.81 F3000.0
S90
G01 Y104.05 F1200.0
S1
G00 X34.84 Y104.09 F3000.0
S90
G01 Y89.05 F1200.0
S1
G00 X35.04 Y89.23 F3000.0
S90
G01 Y104.12 F1200.0
S1
G00 X35.24 Y104.16 F3000.0
S90
G01 Y89.28 F1200.0
S1
G00 X35.44 Y89.32 F3000.0
S90
G01 Y95.77 F1200.0
S1
G00 X35.44 Y96.3 F3000.0
S90
G01 Y104.2 F1200.0
S1
G00 X35.64 Y104.23 F3000.0
S90
G01 Y97.0 F1200.0
S1
G00 X35.84 Y97.37 F3000.0
S90
G01 Y104.27 F1200.0
S1
G00 X36.04 Y104.3 F3000.0
S90
G01 Y97.59 F1200.0
S1
G00 X36.24 Y97.82 F3000.0
S90
G01 Y104.33 F1200.0
S1
G00 X36.44 Y104.35 F3000.0
S90
G01 Y97.93 F1200.0
S1
G00 X36.64 Y98.02 F3000.0
S90
G01 Y104.36 F1200.0
S1
G00 X36.84 Y104.37 F3000.0
S90
G01 Y98.04 F1200.0
S1
G00 X37.04 Y98.02 F3000.0
S90
G01 Y104.38 F1200.0
S1
G00 X37.24 Y104.39 F3000.0
S90
G01 Y97.98 F1200.0
S1
G00 X37.44 Y97.87 F3000.0
S90
G01 Y104.4 F1200.0
S1
G00 X37.64 Y104.41 F3000.0
S90
G01 Y97.75 F1200.0
S1
G00 X37.84 Y97.55 F3000.0
S90
G01 Y104.42 F1200.0
S1
G00 X38.04 Y104.44 F3000.0
S90
G01 Y103.18 F1200.0
S1
G00 X38.04 Y103.13 F3000.0
S90
G01 Y97.33 F1200.0
S1
G00 X38.24 Y96.88 F3000.0
S90
G01 Y103.1 F1200.0
S1
G00 X38.24 Y103.3 F3000.0
S90
G01 Y104.45 F1200.0
S1
G00 X38.44 Y104.46 F3000.0
S90
G01 Y103.33 F1200.0
S1
G00 X38.64 Y103.31 F3000.0
S90
G01 Y104.47 F1200.0
S1
G00 X38.84 Y104.48 F3000.0
S90
G01 Y89.18 F1200.0
S1
G00 X38.64 Y89.24 F3000.0
S90
G01 Y103.1 F1200.0
S1
G00 X38.44 Y103.08 F3000.0
S90
G01 Y96.44 F1200.0
S1
G00 X38.44 Y95.52 F3000.0
S90
G01 Y89.26 F1200.0
S1
G00 X38.24 Y89.15 F3000.0
S90
G01 Y95.13 F1200.0
S1
G00 X38.04 Y94.97 F3000.0
S90
G01 Y89.03 F1200.0
S1
G00 X37.84 Y88.85 F3000.0
S90
G01 Y94.82 F1200.0
S1
G00 X37.64 Y94.73 F3000.0
S90
G01 Y88.65 F1200.0
S1
G00 X37.44 Y88.45 F3000.0
S90
G01 Y94.67 F1200.0
S1
G00 X37.24 Y94.62 F3000.0
S90
G01 Y88.24 F1200.0
S1
G00 X37.04 Y88.03 F3000.0
S90
G01 Y94.56 F1200.0
S1
G00 X36.84 Y94.55 F3000.0
S90
G01 Y87.81 F1200.0
S1
G00 X36.64 Y87.59 F3000.0
S90
G01 Y94.57 F1200.0
S1
G00 X36.44 Y94.59 F3000.0
S90
G01 Y87.89 F1200.0
S1
G00 X36.24 Y88.55 F3000.0
S90
G01 Y94.61 F1200.0
S1
G00 X36.04 Y94.67 F3000.0
S90
G01 Y88.95 F1200.0
S1
G00 X35.84 Y89.14 F3000.0
S90
G01 Y94.91 F1200.0
S1
G00 X35.64 Y95.15 F3000.0
S90
G01 Y89.23 F1200.0
S1
G00 X35.64 Y87.11 F3000.0
S90
G01 Y86.44 F1200.0
S1
G00 X35.44 Y86.45 F3000.0
S90
G01 Y87.15 F1200.0
S1
G00 X35.24 Y87.2 F3000.0
S90
G01 Y86.4 F1200.0
S1
G00 X35.84 Y86.39 F3000.0
S90
G01 Y87.02 F1200.0
S1
G00 X36.04 Y86.94 F3000.0
S90
G01 Y86.33 F1200.0
S1
G00 X36.24 Y86.27 F3000.0
S90
G01 Y86.86 F1200.0
S1
G00 X36.44 Y86.78 F3000.0
S90
G01 Y85.93 F1200.0
S1
G00 X36.44 Y85.44 F3000.0
S90
G01 Y83.91 F1200.0
S1
G00 X36.64 Y84.62 F3000.0
S90
G01 Y86.7 F1200.0
S1
G00 X36.84 Y86.57 F3000.0
S90
G01 Y84.77 F1200.0
S1
G00 X37.04 Y84.71 F3000.0
S90
G01 Y86.39 F1200.0
S1
G00 X37.24 Y85.93 F3000.0
S90
G01 Y82.07 F1200.0
S1
G00 X37.04 Y81.76 F3000.0
S90
G01 Y83.52 F1200.0
S1
G00 X36.84 Y82.98 F3000.0
S90
G01 Y81.54 F1200.0
S1
G00 X36.64 Y81.46 F3000.0
S90
G01 Y82.63 F1200.0
S1
G00 X36.44 Y82.3 F3000.0
S90
G01 Y81.38 F1200.0
S1
G00 X36.24 Y81.31 F3000.0
S90
G01 Y82.12 F1200.0
S1
G00 X36.04 Y81.93 F3000.0
S90
G01 Y81.23 F1200.0
S1
G00 X35.84 Y81.17 F3000.0
S90
G01 Y81.74 F1200.0
S1
G00 X35.64 Y81.56 F3000.0
S90
G01 Y81.1 F1200.0
S1
G00 X35.44 Y81.03 F3000.0
S90
G01 Y81.49 F1200.0
S1
G00 X35.24 Y81.49 F3000.0
S90
G01 Y80.97 F1200.0
S1
G00 X35.04 Y80.84 F3000.0
S90
G01 Y81.68 F1200.0
S1
G00 X35.04 Y82.04 F3000.0
S90
G01 Y83.47 F1200.0
S1
G00 X34.84 Y83.4 F3000.0
S90
G01 Y80.71 F1200.0
S1
G00 X34.64 Y80.55 F3000.0
S90
G01 Y83.33 F1200.0
S1
G00 X34.44 Y83.27 F3000.0
S90
G01 Y80.66 F1200.0
S1
G00 X34.24 Y80.96 F3000.0
S90
G01 Y81.55 F1200.0
S1
G00 X34.04 Y81.5 F3000.0
S90
G01 Y81.01 F1200.0
S1
G00 X33.84 Y81.07 F3000.0
S90
G01 Y81.46 F1200.0
S1
G00 X33.64 Y81.48 F3000.0
S90
G01 Y81.13 F1200.0
S1
G00 X33.44 Y81.19 F3000.0
S90
G01 Y81.54 F1200.0
S1
G00 X33.24 Y81.63 F3000.0
S90
G01 Y81.25 F1200.0
S1
G00 X33.04 Y81.32 F3000.0
S90
G01 Y81.86 F1200.0
S1
G00 X32.84 Y81.49 F3000.0
S90
G01 Y83.53 F1200.0
S1
G00 X32.64 Y83.55 F3000.0
S90
G01 Y81.66 F1200.0
S1
G00 X32.44 Y81.83 F3000.0
S90
G01 Y83.64 F1200.0
S1
G00 X32.24 Y83.8 F3000.0
S90
G01 Y82.1 F1200.0
S1
G00 X32.04 Y82.41 F3000.0
S90
G01 Y83.93 F1200.0
S1
G00 X31.84 Y84.02 F3000.0
S90
G01 Y82.84 F1200.0
S1
G00 X33.04 Y82.75 F3000.0
S90
G01 Y85.1 F1200.0
S1
G00 X33.24 Y85.21 F3000.0
S90
G01 Y82.79 F1200.0
S1
G00 X33.44 Y82.72 F3000.0
S90
G01 Y85.31 F1200.0
S1
G00 X33.64 Y85.42 F3000.0
S90
G01 Y84.09 F1200.0
S1
G00 X33.84 Y84.42 F3000.0
S90
G01 Y85.53 F1200.0
S1
G00 X34.04 Y85.64 F3000.0
S90
G01 Y84.6 F1200.0
S1
G00 X34.24 Y84.74 F3000.0
S90
G01 Y85.76 F1200.0
S1
G00 X35.24 Y85.75 F3000.0
S90
G01 Y84.55 F1200.0
S1
G00 X35.04 Y84.72 F3000.0
S90
G01 Y87.25 F1200.0
S1
G00 X34.84 Y87.3 F3000.0
S90
G01 Y84.78 F1200.0
S1
G00 X34.64 Y84.83 F3000.0
S90
G01 Y87.32 F1200.0
S1
G00 X34.44 Y87.23 F3000.0
S90
G01 Y84.79 F1200.0
S1
G00 X35.44 Y84.38 F3000.0
S90
G01 Y85.52 F1200.0
S1
G00 X35.64 Y85.45 F3000.0
S90
G01 Y82.52 F1200.0
S1
G00 X35.44 Y82.38 F3000.0
S90
G01 Y83.74 F1200.0
S1
G00 X35.24 Y83.57 F3000.0
S90
G01 Y82.25 F1200.0
S1
G00 X35.84 Y82.67 F3000.0
S90
G01 Y85.38 F1200.0
S1
G00 X36.04 Y85.3 F3000.0
S90
G01 Y82.82 F1200.0
S1
G00 X36.24 Y82.97 F3000.0
S90
G01 Y85.23 F1200.0
S1
G00 X37.44 Y85.61 F3000.0
S90
G01 Y82.39 F1200.0
S1
G00 X37.64 Y82.54 F3000.0
S90
G01 Y85.47 F1200.0
S1
G00 X37.84 Y85.25 F3000.0
S90
G01 Y82.76 F1200.0
S1
G00 X38.04 Y83. F3000.0
S90
G01 Y85.0 F1200.0
S1
G00 X38.24 Y82.34 F3000.0
S90
G01 Y76.84 F1200.0
S1
G00 X38.44 Y76.82 F3000.0
S90
G01 Y88.27 F1200.0
S1
G00 X38.64 Y88.23 F3000.0
S90
G01 Y76.8 F1200.0
S1
G00 X38.84 Y76.8 F3000.0
S90
G01 Y88.1 F1200.0
S1
G00 X39.04 Y88.06 F3000.0
S90
G01 Y76.79 F1200.0
S1
G00 X39.24 Y76.75 F3000.0
S90
G01 Y88.06 F1200.0
S1
G00 X39.44 Y88.09 F3000.0
S90
G01 Y76.69 F1200.0
S1
G00 X39.64 Y76.63 F3000.0
S90
G01 Y88.12 F1200.0
S1
G00 X39.84 Y88.15 F3000.0
S90
G01 Y76.56 F1200.0
S1
G00 X40.04 Y76.5 F3000.0
S90
G01 Y88.17 F1200.0
S1
G00 X40.24 Y88.2 F3000.0
S90
G01 Y76.44 F1200.0
S1
G00 X40.44 Y76.38 F3000.0
S90
G01 Y88.23 F1200.0
S1
G00 X40.64 Y88.26 F3000.0
S90
G01 Y76.32 F1200.0
S1
G00 X40.84 Y76.26 F3000.0
S90
G01 Y88.3 F1200.0
S1
G00 X41.04 Y88.34 F3000.0
S90
G01 Y76.2 F1200.0
S1
G00 X41.24 Y76.33 F3000.0
S90
G01 Y88.38 F1200.0
S1
G00 X41.44 Y88.42 F3000.0
S90
G01 Y77.27 F1200.0
S1
G00 X41.64 Y77.64 F3000.0
S90
G01 Y88.46 F1200.0
S1
G00 X41.84 Y88.5 F3000.0
S90
G01 Y83.55 F1200.0
S1
G00 X42.04 Y83.81 F3000.0
S90
G01 Y88.54 F1200.0
S1
G00 X42.24 Y88.58 F3000.0
S90
G01 Y84.0 F1200.0
S1
G00 X42.44 Y84.1 F3000.0
S90
G01 Y87.92 F1200.0
S1
G00 X42.44 Y88.04 F3000.0
S90
G01 Y88.62 F1200.0
S1
G00 X43.04 Y88.1 F3000.0
S90
G01 Y90.58 F1200.0
S1
G00 X43.24 Y91.23 F3000.0
S90
G01 Y87.49 F1200.0
S1
G00 X43.44 Y87.28 F3000.0
S90
G01 Y91.15 F1200.0
S1
G00 X43.64 Y90.94 F3000.0
S90
G01 Y87.33 F1200.0
S1
G00 X43.84 Y87.41 F3000.0
S90
G01 Y90.78 F1200.0
S1
G00 X44.04 Y90.64 F3000.0
S90
G01 Y87.53 F1200.0
S1
G00 X44.24 Y87.68 F3000.0
S90
G01 Y90.57 F1200.0
S1
G00 X44.44 Y90.51 F3000.0
S90
G01 Y87.83 F1200.0
S1
G00 X44.64 Y87.99 F3000.0
S90
G01 Y90.47 F1200.0
S1
G00 X44.84 Y90.46 F3000.0
S90
G01 Y88.15 F1200.0
S1
G00 X45.04 Y88.24 F3000.0
S90
G01 Y90.44 F1200.0
S1
G00 X45.24 Y90.43 F3000.0
S90
G01 Y88.16 F1200.0
S1
G00 X45.44 Y87.94 F3000.0
S90
G01 Y90.42 F1200.0
S1
G00 X45.64 Y90.41 F3000.0
S90
G01 Y87.73 F1200.0
S1
G00 X45.84 Y87.53 F3000.0
S90
G01 Y90.4 F1200.0
S1
G00 X46.04 Y90.38 F3000.0
S90
G01 Y87.33 F1200.0
S1
G00 X46.24 Y87.17 F3000.0
S90
G01 Y90.37 F1200.0
S1
G00 X46.44 Y90.36 F3000.0
S90
G01 Y87.2 F1200.0
S1
G00 X46.64 Y87.24 F3000.0
S90
G01 Y90.35 F1200.0
S1
G00 X46.84 Y90.34 F3000.0
S90
G01 Y87.3 F1200.0
S1
G00 X47.04 Y87.45 F3000.0
S90
G01 Y90.33 F1200.0
S1
G00 X47.24 Y90.33 F3000.0
S90
G01 Y87.6 F1200.0
S1
G00 X47.44 Y87.85 F3000.0
S90
G01 Y90.32 F1200.0
S1
G00 X47.64 Y90.31 F3000.0
S90
G01 Y88.08 F1200.0
S1
G00 X47.84 Y88.23 F3000.0
S90
G01 Y90.3 F1200.0
S1
G00 X48.04 Y90.3 F3000.0
S90
G01 Y88.1 F1200.0
S1
G00 X48.24 Y87.97 F3000.0
S90
G01 Y90.28 F1200.0
S1
G00 X48.44 Y90.21 F3000.0
S90
G01 Y87.83 F1200.0
S1
G00 X48.64 Y87.67 F3000.0
S90
G01 Y90.14 F1200.0
S1
G00 X48.84 Y90.08 F3000.0
S90
G01 Y87.51 F1200.0
S1
G00 X49.04 Y87.39 F3000.0
S90
G01 Y90.01 F1200.0
S1
G00 X49.24 Y89.69 F3000.0
S90
G01 Y87.32 F1200.0
S1
G00 X49.44 Y87.45 F3000.0
S90
G01 Y89.32 F1200.0
S1
G00 X49.84 Y90.1 F3000.0
S90
G01 Y91.07 F1200.0
S1
G00 X50.04 Y91.34 F3000.0
S90
G01 Y90.07 F1200.0
S1
G00 X50.24 Y90.03 F3000.0
S90
G01 Y91.6 F1200.0
S1
G00 X50.44 Y91.84 F3000.0
S90
G01 Y89.99 F1200.0
S1
G00 X50.64 Y89.96 F3000.0
S90
G01 Y97.01 F1200.0
S1
G00 X50.44 Y96.9 F3000.0
S90
G01 Y95.3 F1200.0
S1
G00 X50.24 Y95.48 F3000.0
S90
G01 Y96.8 F1200.0
S1
G00 X50.04 Y96.69 F3000.0
S90
G01 Y95.63 F1200.0
S1
G00 X49.84 Y95.82 F3000.0
S90
G01 Y96.42 F1200.0
S1
G00 X50.84 Y97.16 F3000.0
S90
G01 Y89.92 F1200.0
S1
G00 X51.04 Y89.86 F3000.0
S90
G01 Y97.31 F1200.0
S1
G00 X50.64 Y97.92 F3000.0
S90
G01 Y100.67 F1200.0
S1
G00 X50.44 Y100.69 F3000.0
S90
G01 Y97.94 F1200.0
S1
G00 X50.24 Y98.06 F3000.0
S90
G01 Y100.7 F1200.0
S1
G00 X50.04 Y100.72 F3000.0
S90
G01 Y98.18 F1200.0
S1
G00 X49.84 Y98.3 F3000.0
S90
G01 Y100.75 F1200.0
S1
G00 X50.84 Y100.66 F3000.0
S90
G01 Y98.83 F1200.0
S1
G00 X51.04 Y99.05 F3000.0
S90
G01 Y100.65 F1200.0
S1
G00 X51.24 Y100.66 F3000.0
S90
G01 Y99.26 F1200.0
S1
G00 X51.44 Y99.1 F3000.0
S90
G01 Y93.96 F1200.0
S1
G00 X51.64 Y94.71 F3000.0
S90
G01 Y99.43 F1200.0
S1
G00 X51.44 Y99.47 F3000.0
S90
G01 Y100.69 F1200.0
S1
G00 X51.64 Y100.72 F3000.0
S90
G01 Y99.68 F1200.0
S1
G00 X51.84 Y99.51 F3000.0
S90
G01 Y95.1 F1200.0
S1
G00 X52.04 Y95.33 F3000.0
S90
G01 Y99.47 F1200.0
S1
G00 X52.24 Y99.3 F3000.0
S90
G01 Y95.44 F1200.0
S1
G00 X52.44 Y95.35 F3000.0
S90
G01 Y99.15 F1200.0
S1
G00 X52.64 Y99.01 F3000.0
S90
G01 Y95.16 F1200.0
S1
G00 X52.84 Y94.97 F3000.0
S90
G01 Y99.02 F1200.0
S1
G00 X53.04 Y99.05 F3000.0
S90
G01 Y96.79 F1200.0
S1
G00 X53.04 Y96.38 F3000.0
S90
G01 Y94.74 F1200.0
S1
G00 X53.24 Y94.38 F3000.0
S90
G01 Y96.23 F1200.0
S1
G00 X53.44 Y96.23 F3000.0
S90
G01 Y94.02 F1200.0
S1
G00 X52.44 Y94.03 F3000.0
S90
G01 Y92.41 F1200.0
S1
G00 X52.44 Y91.31 F3000.0
S90
G01 Y87.65 F1200.0
S1
G00 X52.64 Y87.6 F3000.0
S90
G01 Y91.44 F1200.0
S1
G00 X52.84 Y91.6 F3000.0
S90
G01 Y87.57 F1200.0
S1
G00 X53.04 Y87.53 F3000.0
S90
G01 Y91.86 F1200.0
S1
G00 X53.24 Y92.11 F3000.0
S90
G01 Y90.24 F1200.0
S1
G00 X53.44 Y90.39 F3000.0
S90
G01 Y92.57 F1200.0
S1
G00 X55.24 Y92.44 F3000.0
S90
G01 Y90.1 F1200.0
S1
G00 X55.04 Y90.17 F3000.0
S90
G01 Y93.1 F1200.0
S1
G00 X55.04 Y93.45 F3000.0
S90
G01 Y96.72 F1200.0
S1
G00 X54.84 Y96.59 F3000.0
S90
G01 Y90.25 F1200.0
S1
G00 X54.64 Y90.33 F3000.0
S90
G01 Y96.49 F1200.0
S1
G00 X54.44 Y96.42 F3000.0
S90
G01 Y90.4 F1200.0
S1
G00 X54.24 Y90.46 F3000.0
S90
G01 Y96.35 F1200.0
S1
G00 X54.04 Y96.28 F3000.0
S90
G01 Y90.47 F1200.0
S1
G00 X53.84 Y90.48 F3000.0
S90
G01 Y96.22 F1200.0
S1
G00 X53.64 Y96.23 F3000.0
S90
G01 Y90.45 F1200.0
S1
G00 X53.24 Y89.19 F3000.0
S90
G01 Y87.5 F1200.0
S1
G00 X53.44 Y87.46 F3000.0
S90
G01 Y88.88 F1200.0
S1
G00 X53.64 Y88.76 F3000.0
S90
G01 Y87.03 F1200.0
S1
G00 X53.84 Y86.28 F3000.0
S90
G01 Y88.67 F1200.0
S1
G00 X54.04 Y88.6 F3000.0
S90
G01 Y86.08 F1200.0
S1
G00 X54.24 Y86.07 F3000.0
S90
G01 Y88.54 F1200.0
S1
G00 X54.44 Y88.49 F3000.0
S90
G01 Y86.06 F1200.0
S1
G00 X54.64 Y86.14 F3000.0
S90
G01 Y88.41 F1200.0
S1
G00 X54.84 Y88.3 F3000.0
S90
G01 Y86.22 F1200.0
S1
G00 X55.04 Y86.31 F3000.0
S90
G01 Y88.19 F1200.0
S1
G00 X55.24 Y88.07 F3000.0
S90
G01 Y86.38 F1200.0
S1
G00 X55.44 Y86.46 F3000.0
S90
G01 Y87.96 F1200.0
S1
G00 X55.64 Y87.84 F3000.0
S90
G01 Y86.53 F1200.0
S1
G00 X55.84 Y86.45 F3000.0
S90
G01 Y87.77 F1200.0
S1
G00 X56.04 Y87.75 F3000.0
S90
G01 Y86.28 F1200.0
S1
G00 X56.24 Y86.11 F3000.0
S90
G01 Y87.77 F1200.0
S1
G00 X56.44 Y87.9 F3000.0
S90
G01 Y85.9 F1200.0
S1
G00 X56.64 Y85.7 F3000.0
S90
G01 Y88.29 F1200.0
S1
G00 X56.64 Y88.75 F3000.0
S90
G01 Y91.47 F1200.0
S1
G00 X56.44 Y91.52 F3000.0
S90
G01 Y89.14 F1200.0
S1
G00 X56.24 Y89.36 F3000.0
S90
G01 Y91.57 F1200.0
S1
G00 X56.04 Y91.65 F3000.0
S90
G01 Y89.53 F1200.0
S1
G00 X55.84 Y89.69 F3000.0
S90
G01 Y91.79 F1200.0
S1
G00 X55.64 Y91.93 F3000.0
S90
G01 Y89.86 F1200.0
S1
G00 X55.44 Y90.02 F3000.0
S90
G01 Y92.14 F1200.0
S1
G00 X56.04 Y92.38 F3000.0
S90
G01 Y93.98 F1200.0
S1
G00 X56.24 Y94.13 F3000.0
S90
G01 Y92.21 F1200.0
S1
G00 X56.44 Y92.17 F3000.0
S90
G01 Y94.2 F1200.0
S1
G00 X56.64 Y94.23 F3000.0
S90
G01 Y92.16 F1200.0
S1
G00 X56.84 Y92.15 F3000.0
S90
G01 Y94.26 F1200.0
S1
G00 X57.04 Y94.29 F3000.0
S90
G01 Y92.14 F1200.0
S1
G00 X57.24 Y92.14 F3000.0
S90
G01 Y94.29 F1200.0
S1
G00 X57.44 Y94.28 F3000.0
S90
G01 Y92.17 F1200.0
S1
G00 X57.64 Y92.2 F3000.0
S90
G01 Y94.27 F1200.0
S1
G00 X57.84 Y94.23 F3000.0
S90
G01 Y92.26 F1200.0
S1
G00 X58.04 Y92.36 F3000.0
S90
G01 Y94.16 F1200.0
S1
G00 X58.24 Y93.86 F3000.0
S90
G01 Y92.69 F1200.0
S1
G00 X58.24 Y91.88 F3000.0
S90
G01 Y89.58 F1200.0
S1
G00 X58.44 Y89.8 F3000.0
S90
G01 Y91.99 F1200.0
S1
G00 X58.64 Y92.21 F3000.0
S90
G01 Y89.9 F1200.0
S1
G00 X58.84 Y89.99 F3000.0
S90
G01 Y92.46 F1200.0
S1
G00 X58.84 Y93.93 F3000.0
S90
G01 Y96.64 F1200.0
S1
G00 X59.04 Y96.55 F3000.0
S90
G01 Y90.09 F1200.0
S1
G00 X59.24 Y90.16 F3000.0
S90
G01 Y96.48 F1200.0
S1
G00 X59.44 Y96.4 F3000.0
S90
G01 Y90.19 F1200.0
S1
G00 X59.64 Y90.23 F3000.0
S90
G01 Y96.33 F1200.0
S1
G00 X59.84 Y96.3 F3000.0
S90
G01 Y90.27 F1200.0
S1
G00 X60.04 Y90.3 F3000.0
S90
G01 Y96.27 F1200.0
S1
G00 X60.24 Y96.24 F3000.0
S90
G01 Y90.33 F1200.0
S1
G00 X60.44 Y90.33 F3000.0
S90
G01 Y96.22 F1200.0
S1
G00 X60.64 Y96.24 F3000.0
S90
G01 Y90.33 F1200.0
S1
G00 X60.84 Y90.32 F3000.0
S90
G01 Y96.26 F1200.0
S1
G00 X61.04 Y96.3 F3000.0
S90
G01 Y94.97 F1200.0
S1
G00 X61.24 Y95.11 F3000.0
S90
G01 Y96.43 F1200.0
S1
G00 X61.24 Y97.02 F3000.0
S90
G01 Y98.98 F1200.0
S1
G00 X61.44 Y98.99 F3000.0
S90
G01 Y95.1 F1200.0
S1
G00 X61.64 Y95.09 F3000.0
S90
G01 Y99.2 F1200.0
S1
G00 X61.84 Y99.36 F3000.0
S90
G01 Y95.0 F1200.0
S1
G00 X62.04 Y94.9 F3000.0
S90
G01 Y99.49 F1200.0
S1
G00 X62.04 Y99.79 F3000.0
S90
G01 Y101.67 F1200.0
S1
G00 X61.84 Y101.72 F3000.0
S90
G01 Y99.83 F1200.0
S1
G00 X61.64 Y99.87 F3000.0
S90
G01 Y101.77 F1200.0
S1
G00 X61.44 Y101.82 F3000.0
S90
G01 Y99.91 F1200.0
S1
G00 X61.24 Y100.1 F3000.0
S90
G01 Y101.87 F1200.0
S1
G00 X61.04 Y101.91 F3000.0
S90
G01 Y100.33 F1200.0
S1
G00 X60.84 Y100.61 F3000.0
S90
G01 Y101.96 F1200.0
S1
G00 X60.64 Y102.01 F3000.0
S90
G01 Y100.87 F1200.0
S1
G00 X60.44 Y100.98 F3000.0
S90
G01 Y102.06 F1200.0
S1
G00 X60.24 Y102.11 F3000.0
S90
G01 Y101.09 F1200.0
S1
G00 X60.04 Y101.16 F3000.0
S90
G01 Y102.14 F1200.0
S1
G00 X59.84 Y102.18 F3000.0
S90
G01 Y101.18 F1200.0
S1
G00 X59.64 Y101.2 F3000.0
S90
G01 Y102.22 F1200.0
S1
G00 X59.44 Y102.25 F3000.0
S90
G01 Y101.18 F1200.0
S1
G00 X59.24 Y101.1 F3000.0
S90
G01 Y102.29 F1200.0
S1
G00 X59.04 Y102.33 F3000.0
S90
G01 Y101.02 F1200.0
S1
G00 X58.84 Y100.94 F3000.0
S90
G01 Y102.36 F1200.0
S1
G00 X58.64 Y102.4 F3000.0
S90
G01 Y100.87 F1200.0
S1
G00 X58.44 Y100.93 F3000.0
S90
G01 Y102.44 F1200.0
S1
G00 X58.24 Y102.47 F3000.0
S90
G01 Y101.18 F1200.0
S1
G00 X58.04 Y101.44 F3000.0
S90
G01 Y102.51 F1200.0
S1
G00 X57.84 Y102.55 F3000.0
S90
G01 Y101.72 F1200.0
S1
G00 X57.64 Y101.85 F3000.0
S90
G01 Y102.58 F1200.0
S1
G00 X57.44 Y102.62 F3000.0
S90
G01 Y95.4 F1200.0
S1
G00 X57.24 Y95.44 F3000.0
S90
G01 Y102.66 F1200.0
S1
G00 X57.04 Y102.69 F3000.0
S90
G01 Y95.44 F1200.0
S1
G00 X56.84 Y95.42 F3000.0
S90
G01 Y102.73 F1200.0
S1
G00 X56.64 Y102.77 F3000.0
S90
G01 Y95.38 F1200.0
S1
G00 X56.44 Y95.3 F3000.0
S90
G01 Y97.93 F1200.0
S1
G00 X56.24 Y97.72 F3000.0
S90
G01 Y95.21 F1200.0
S1
G00 X56.04 Y95.07 F3000.0
S90
G01 Y97.51 F1200.0
S1
G00 X55.84 Y97.3 F3000.0
S90
G01 Y94.91 F1200.0
S1
G00 X55.64 Y94.71 F3000.0
S90
G01 Y97.11 F1200.0
S1
G00 X55.44 Y96.98 F3000.0
S90
G01 Y94.42 F1200.0
S1
G00 X55.24 Y94.14 F3000.0
S90
G01 Y96.85 F1200.0
S1
G00 X55.24 Y97.39 F3000.0
S90
G01 Y98.14 F1200.0
S1
G00 X55.44 Y98.19 F3000.0
S90
G01 Y97.55 F1200.0
S1
G00 X55.64 Y97.71 F3000.0
S90
G01 Y98.24 F1200.0
S1
G00 X55.84 Y98.16 F3000.0
S90
G01 Y97.86 F1200.0
S1
G00 X55.84 Y98.77 F3000.0
S90
G01 Y100.13 F1200.0
S1
G00 X55.64 Y100.13 F3000.0
S90
G01 Y98.76 F1200.0
S1
G00 X55.44 Y98.75 F3000.0
S90
G01 Y100.16 F1200.0
S1
G00 X55.24 Y100.25 F3000.0
S90
G01 Y98.72 F1200.0
S1
G00 X55.04 Y98.64 F3000.0
S90
G01 Y100.35 F1200.0
S1
G00 X54.84 Y100.45 F3000.0
S90
G01 Y98.56 F1200.0
S1
G00 X54.64 Y98.48 F3000.0
S90
G01 Y100.55 F1200.0
S1
G00 X54.44 Y100.66 F3000.0
S90
G01 Y98.4 F1200.0
S1
G00 X54.24 Y98.25 F3000.0
S90
G01 Y100.73 F1200.0
S1
G00 X54.04 Y100.73 F3000.0
S90
G01 Y98.1 F1200.0
S1
G00 X53.84 Y97.96 F3000.0
S90
G01 Y100.62 F1200.0
S1
G00 X53.84 Y101.37 F3000.0
S90
G01 Y103.28 F1200.0
S1
G00 X53.64 Y103.31 F3000.0
S90
G01 Y101.25 F1200.0
S1
G00 X53.44 Y101.14 F3000.0
S90
G01 Y103.35 F1200.0
S1
G00 X53.24 Y103.39 F3000.0
S90
G01 Y101.02 F1200.0
S1
G00 X53.04 Y100.89 F3000.0
S90
G01 Y103.42 F1200.0
S1
G00 X52.84 Y103.46 F3000.0
S90
G01 Y100.72 F1200.0
S1
G00 X52.64 Y100.56 F3000.0
S90
G01 Y103.5 F1200.0
S1
G00 X52.44 Y103.53 F3000.0
S90
G01 Y100.4 F1200.0
S1
G00 X52.24 Y100.24 F3000.0
S90
G01 Y101.0 F1200.0
S1
G00 X52.24 Y101.2 F3000.0
S90
G01 Y103.57 F1200.0
S1
G00 X52.04 Y103.61 F3000.0
S90
G01 Y101.53 F1200.0
S1
G00 X51.84 Y101.64 F3000.0
S90
G01 Y103.64 F1200.0
S1
G00 X51.64 Y103.68 F3000.0
S90
G01 Y101.74 F1200.0
S1
G00 X51.44 Y101.77 F3000.0
S90
G01 Y103.71 F1200.0
S1
G00 X51.24 Y103.75 F3000.0
S90
G01 Y101.78 F1200.0
S1
G00 X51.04 Y101.74 F3000.0
S90
G01 Y103.79 F1200.0
S1
G00 X50.84 Y103.81 F3000.0
S90
G01 Y101.59 F1200.0
S1
G00 X50.64 Y101.51 F3000.0
S90
G01 Y103.83 F1200.0
S1
G00 X50.44 Y103.86 F3000.0
S90
G01 Y101.8 F1200.0
S1
G00 X50.24 Y102.16 F3000.0
S90
G01 Y103.88 F1200.0
S1
G00 X50.04 Y103.9 F3000.0
S90
G01 Y102.53 F1200.0
S1
G00 X49.84 Y102.89 F3000.0
S90
G01 Y103.93 F1200.0
S1
G00 X49.64 Y103.95 F3000.0
S90
G01 Y98.42 F1200.0
S1
G00 X49.44 Y98.54 F3000.0
S90
G01 Y103.98 F1200.0
S1
G00 X49.24 Y104. F3000.0
S90
G01 Y98.66 F1200.0
S1
G00 X49.04 Y98.77 F3000.0
S90
G01 Y104.02 F1200.0
S1
G00 X48.84 Y104.05 F3000.0
S90
G01 Y98.87 F1200.0
S1
G00 X48.64 Y98.98 F3000.0
S90
G01 Y102.34 F1200.0
S1
G00 X48.44 Y102.09 F3000.0
S90
G01 Y99.09 F1200.0
S1
G00 X48.24 Y99.2 F3000.0
S90
G01 Y101.95 F1200.0
S1
G00 X48.04 Y101.82 F3000.0
S90
G01 Y99.3 F1200.0
S1
G00 X47.84 Y99.41 F3000.0
S90
G01 Y101.76 F1200.0
S1
G00 X47.64 Y101.75 F3000.0
S90
G01 Y99.49 F1200.0
S1
G00 X47.44 Y99.54 F3000.0
S90
G01 Y101.84 F1200.0
S1
G00 X47.24 Y102.04 F3000.0
S90
G01 Y99.59 F1200.0
S1
G00 X47.04 Y99.64 F3000.0
S90
G01 Y104.26 F1200.0
S1
G00 X46.84 Y104.29 F3000.0
S90
G01 Y99.69 F1200.0
S1
G00 X46.64 Y99.73 F3000.0
S90
G01 Y104.31 F1200.0
S1
G00 X46.44 Y104.33 F3000.0
S90
G01 Y99.78 F1200.0
S1
G00 X46.24 Y99.83 F3000.0
S90
G01 Y104.36 F1200.0
S1
G00 X46.04 Y104.38 F3000.0
S90
G01 Y99.86 F1200.0
S1
G00 X45.84 Y99.89 F3000.0
S90
G01 Y104.4 F1200.0
S1
G00 X45.64 Y104.41 F3000.0
S90
G01 Y102.93 F1200.0
S1
G00 X45.44 Y102.81 F3000.0
S90
G01 Y104.42 F1200.0
S1
G00 X45.24 Y104.43 F3000.0
S90
G01 Y102.69 F1200.0
S1
G00 X45.04 Y102.58 F3000.0
S90
G01 Y104.43 F1200.0
S1
G00 X44.84 Y104.44 F3000.0
S90
G01 Y102.47 F1200.0
S1
G00 X44.64 Y102.49 F3000.0
S90
G01 Y104.45 F1200.0
S1
G00 X44.44 Y104.46 F3000.0
S90
G01 Y102.63 F1200.0
S1
G00 X44.24 Y102.73 F3000.0
S90
G01 Y104.46 F1200.0
S1
G00 X44.04 Y104.47 F3000.0
S90
G01 Y102.83 F1200.0
S1
G00 X43.84 Y102.93 F3000.0
S90
G01 Y104.48 F1200.0
S1
G00 X43.64 Y104.48 F3000.0
S90
G01 Y102.94 F1200.0
S1
G00 X43.44 Y102.95 F3000.0
S90
G01 Y104.49 F1200.0
S1
G00 X43.24 Y104.5 F3000.0
S90
G01 Y102.96 F1200.0
S1
G00 X43.04 Y102.97 F3000.0
S90
G01 Y104.51 F1200.0
S1
G00 X42.84 Y104.51 F3000.0
S90
G01 Y102.97 F1200.0
S1
G00 X42.64 Y102.93 F3000.0
S90
G01 Y104.52 F1200.0
S1
G00 X42.44 Y104.53 F3000.0
S90
G01 Y102.89 F1200.0
S1
G00 X42.24 Y102.85 F3000.0
S90
G01 Y104.54 F1200.0
S1
G00 X42.04 Y104.54 F3000.0
S90
G01 Y102.81 F1200.0
S1
G00 X41.84 Y102.74 F3000.0
S90
G01 Y104.55 F1200.0
S1
G00 X41.64 Y104.56 F3000.0
S90
G01 Y102.61 F1200.0
S1
G00 X41.44 Y102.48 F3000.0
S90
G01 Y104.56 F1200.0
S1
G00 X41.24 Y104.57 F3000.0
S90
G01 Y102.33 F1200.0
S1
G00 X41.04 Y102.14 F3000.0
S90
G01 Y104.58 F1200.0
S1
G00 X40.84 Y104.59 F3000.0
S90
G01 Y102.38 F1200.0
S1
G00 X40.64 Y102.75 F3000.0
S90
G01 Y104.58 F1200.0
S1
G00 X40.44 Y104.57 F3000.0
S90
G01 Y103.25 F1200.0
S1
G00 X40.44 Y101.86 F3000.0
S90
G01 Y90.21 F1200.0
S1
G00 X40.64 Y90.25 F3000.0
S90
G01 Y101.76 F1200.0
S1
G00 X40.84 Y101.7 F3000.0
S90
G01 Y90.26 F1200.0
S1
G00 X41.04 Y90.28 F3000.0
S90
G01 Y101.69 F1200.0
S1
G00 X41.24 Y101.68 F3000.0
S90
G01 Y90.29 F1200.0
S1
G00 X41.44 Y90.28 F3000.0
S90
G01 Y101.65 F1200.0
S1
G00 X41.64 Y101.61 F3000.0
S90
G01 Y90.27 F1200.0
S1
G00 X41.84 Y90.31 F3000.0
S90
G01 Y101.57 F1200.0
S1
G00 X42.04 Y101.54 F3000.0
S90
G01 Y90.42 F1200.0
S1
G00 X42.24 Y90.98 F3000.0
S90
G01 Y101.35 F1200.0
S1
G00 X43.04 Y101.48 F3000.0
S90
G01 Y101.13 F1200.0
S1
G00 X43.24 Y100.52 F3000.0
S90
G01 Y102.26 F1200.0
S1
G00 X43.44 Y102.53 F3000.0
S90
G01 Y100.33 F1200.0
S1
G00 X43.64 Y100.24 F3000.0
S90
G01 Y102.56 F1200.0
S1
G00 X43.84 Y102.55 F3000.0
S90
G01 Y100.19 F1200.0
S1
G00 X44.04 Y100.14 F3000.0
S90
G01 Y102.38 F1200.0
S1
G00 X44.24 Y102.21 F3000.0
S90
G01 Y100.09 F1200.0
S1
G00 X44.44 Y100.04 F3000.0
S90
G01 Y102.05 F1200.0
S1
G00 X44.64 Y101.89 F3000.0
S90
G01 Y100.02 F1200.0
S1
G00 X44.84 Y100. F3000.0
S90
G01 Y101.83 F1200.0
S1
G00 X45.04 Y101.81 F3000.0
S90
G01 Y99.97 F1200.0
S1
G00 X45.24 Y99.95 F3000.0
S90
G01 Y101.82 F1200.0
S1
G00 X45.44 Y101.95 F3000.0
S90
G01 Y99.93 F1200.0
S1
G00 X45.64 Y99.91 F3000.0
S90
G01 Y102.18 F1200.0
S1
G00 X47.24 Y102.64 F3000.0
S90
G01 Y104.24 F1200.0
S1
G00 X47.44 Y104.21 F3000.0
S90
G01 Y102.59 F1200.0
S1
G00 X47.64 Y102.56 F3000.0
S90
G01 Y104.19 F1200.0
S1
G00 X47.84 Y104.17 F3000.0
S90
G01 Y102.6 F1200.0
S1
G00 X48.04 Y102.67 F3000.0
S90
G01 Y104.14 F1200.0
S1
G00 X48.24 Y104.12 F3000.0
S90
G01 Y102.74 F1200.0
S1
G00 X48.44 Y102.81 F3000.0
S90
G01 Y104.09 F1200.0
S1
G00 X48.64 Y104.07 F3000.0
S90
G01 Y102.88 F1200.0
S1
G00 X48.64 Y98.4 F3000.0
S90
G01 Y93.96 F1200.0
S1
G00 X48.84 Y94.28 F3000.0
S90
G01 Y98.32 F1200.0
S1
G00 X49.04 Y98.24 F3000.0
S90
G01 Y94.83 F1200.0
S1
G00 X49.44 Y94.16 F3000.0
S90
G01 Y93.27 F1200.0
S1
G00 X49.64 Y93.04 F3000.0
S90
G01 Y94.34 F1200.0
S1
G00 X49.84 Y94.4 F3000.0
S90
G01 Y92.81 F1200.0
S1
G00 X50.04 Y92.6 F3000.0
S90
G01 Y94.47 F1200.0
S1
G00 X50.24 Y94.54 F3000.0
S90
G01 Y92.39 F1200.0
S1
G00 X50.44 Y92.19 F3000.0
S90
G01 Y94.66 F1200.0
S1
G00 X51.44 Y92.72 F3000.0
S90
G01 Y89.6 F1200.0
S1
G00 X51.24 Y89.74 F3000.0
S90
G01 Y98.12 F1200.0
S1
G00 X51.84 Y99.89 F3000.0
S90
G01 Y100.74 F1200.0
S1
G00 X52.04 Y100.8 F3000.0
S90
G01 Y100.08 F1200.0
S1
G00 X53.64 Y99.84 F3000.0
S90
G01 Y97.77 F1200.0
S1
G00 X53.44 Y97.53 F3000.0
S90
G01 Y99.33 F1200.0
S1
G00 X53.24 Y99.17 F3000.0
S90
G01 Y97.29 F1200.0
S1
G00 X54.44 Y97.41 F3000.0
S90
G01 Y97.09 F1200.0
S1
G00 X54.64 Y97.08 F3000.0
S90
G01 Y97.68 F1200.0
S1
G00 X54.84 Y97.89 F3000.0
S90
G01 Y97.15 F1200.0
S1
G00 X55.04 Y97.24 F3000.0
S90
G01 Y98.02 F1200.0
S1
G00 X56.04 Y98.79 F3000.0
S90
G01 Y100.18 F1200.0
S1
G00 X56.24 Y100.39 F3000.0
S90
G01 Y98.78 F1200.0
S1
G00 X56.44 Y98.64 F3000.0
S90
G01 Y102.8 F1200.0
S1
G00 X56.24 Y102.84 F3000.0
S90
G01 Y101.5 F1200.0
S1
G00 X56.04 Y101.42 F3000.0
S90
G01 Y102.87 F1200.0
S1
G00 X55.84 Y102.91 F3000.0
S90
G01 Y101.33 F1200.0
S1
G00 X55.64 Y101.24 F3000.0
S90
G01 Y102.95 F1200.0
S1
G00 X55.44 Y102.98 F3000.0
S90
G01 Y101.21 F1200.0
S1
G00 X55.24 Y101.31 F3000.0
S90
G01 Y103.02 F1200.0
S1
G00 X55.04 Y103.06 F3000.0
S90
G01 Y101.41 F1200.0
S1
G00 X54.84 Y101.5 F3000.0
S90
G01 Y103.09 F1200.0
S1
G00 X54.64 Y103.13 F3000.0
S90
G01 Y101.6 F1200.0
S1
G00 X54.44 Y101.55 F3000.0
S90
G01 Y103.17 F1200.0
S1
G00 X54.24 Y103.2 F3000.0
S90
G01 Y101.51 F1200.0
S1
G00 X54.04 Y101.47 F3000.0
S90
G01 Y103.24 F1200.0
S1
G00 X57.64 Y100.89 F3000.0
S90
G01 Y95.36 F1200.0
S1
G00 X57.84 Y95.21 F3000.0
S90
G01 Y98.06 F1200.0
S1
G00 X57.84 Y98.7 F3000.0
S90
G01 Y100.54 F1200.0
S1
G00 X58.04 Y100.41 F3000.0
S90
G01 Y98.84 F1200.0
S1
G00 X58.24 Y98.89 F3000.0
S90
G01 Y100.42 F1200.0
S1
G00 X58.44 Y100.43 F3000.0
S90
G01 Y98.85 F1200.0
S1
G00 X58.64 Y98.81 F3000.0
S90
G01 Y100.44 F1200.0
S1
G00 X58.84 Y100.45 F3000.0
S90
G01 Y98.73 F1200.0
S1
G00 X59.04 Y98.63 F3000.0
S90
G01 Y100.46 F1200.0
S1
G00 X59.24 Y100.46 F3000.0
S90
G01 Y98.53 F1200.0
S1
G00 X59.44 Y98.43 F3000.0
S90
G01 Y100.47 F1200.0
S1
G00 X59.64 Y100.48 F3000.0
S90
G01 Y98.33 F1200.0
S1
G00 X59.84 Y98.22 F3000.0
S90
G01 Y100.48 F1200.0
S1
G00 X60.04 Y100.49 F3000.0
S90
G01 Y98.11 F1200.0
S1
G00 X60.24 Y97.95 F3000.0
S90
G01 Y100.31 F1200.0
S1
G00 X60.44 Y99.95 F3000.0
S90
G01 Y97.78 F1200.0
S1
G00 X60.64 Y97.62 F3000.0
S90
G01 Y99.55 F1200.0
S1
G00 X60.84 Y99.21 F3000.0
S90
G01 Y97.45 F1200.0
S1
G00 X61.04 Y97.29 F3000.0
S90
G01 Y99.03 F1200.0
S1
G00 X62.44 Y99.17 F3000.0
S90
G01 Y94.36 F1200.0
S1
G00 X62.24 Y94.72 F3000.0
S90
G01 Y99.38 F1200.0
S1
G00 X62.24 Y99.77 F3000.0
S90
G01 Y101.63 F1200.0
S1
G00 X62.44 Y101.58 F3000.0
S90
G01 Y99.75 F1200.0
S1
G00 X62.64 Y99.74 F3000.0
S90
G01 Y101.53 F1200.0
S1
G00 X62.84 Y101.48 F3000.0
S90
G01 Y99.64 F1200.0
S1
G00 X63.04 Y99.39 F3000.0
S90
G01 Y101.43 F1200.0
S1
G00 X63.24 Y101.39 F3000.0
S90
G01 Y98.48 F1200.0
S1
G00 X62.64 Y98.31 F3000.0
S90
G01 Y87.61 F1200.0
S1
G00 X62.44 Y87.61 F3000.0
S90
G01 Y92.37 F1200.0
S1
G00 X62.04 Y92.8 F3000.0
S90
G01 Y93.96 F1200.0
S1
G00 X61.84 Y93.86 F3000.0
S90
G01 Y92.94 F1200.0
S1
G00 X61.04 Y92.06 F3000.0
S90
G01 Y90.32 F1200.0
S1
G00 X61.24 Y90.29 F3000.0
S90
G01 Y91.63 F1200.0
S1
G00 X61.44 Y91.25 F3000.0
S90
G01 Y90.22 F1200.0
S1
G00 X61.44 Y89.92 F3000.0
S90
G01 Y87.6 F1200.0
S1
G00 X61.64 Y87.61 F3000.0
S90
G01 Y91.09 F1200.0
S1
G00 X61.84 Y91.09 F3000.0
S90
G01 Y87.61 F1200.0
S1
G00 X62.04 Y87.61 F3000.0
S90
G01 Y91.22 F1200.0
S1
G00 X62.24 Y91.55 F3000.0
S90
G01 Y87.61 F1200.0
S1
G00 X62.84 Y87.61 F3000.0
S90
G01 Y88.19 F1200.0
S1
G00 X63.44 Y88.72 F3000.0
S90
G01 Y86.57 F1200.0
S1
G00 X63.64 Y85.69 F3000.0
S90
G01 Y88.95 F1200.0
S1
G00 X63.84 Y89.06 F3000.0
S90
G01 Y85.36 F1200.0
S1
G00 X64.04 Y85.14 F3000.0
S90
G01 Y89.18 F1200.0
S1
G00 X64.24 Y89.35 F3000.0
S90
G01 Y85.11 F1200.0
S1
G00 X64.44 Y85.07 F3000.0
S90
G01 Y89.51 F1200.0
S1
G00 X64.64 Y89.68 F3000.0
S90
G01 Y85.03 F1200.0
S1
G00 X64.84 Y85.01 F3000.0
S90
G01 Y90.49 F1200.0
S1
G00 X64.24 Y90.42 F3000.0
S90
G01 Y90.88 F1200.0
S1
G00 X64.04 Y91.11 F3000.0
S90
G01 Y90.22 F1200.0
S1
G00 X63.84 Y90.11 F3000.0
S90
G01 Y91.34 F1200.0
S1
G00 X63.64 Y91.79 F3000.0
S90
G01 Y90.06 F1200.0
S1
G00 X63.44 Y90.02 F3000.0
S90
G01 Y96.86 F1200.0
S1
G00 X63.24 Y96.88 F3000.0
S90
G01 Y90.0 F1200.0
S1
G00 X63.04 Y89.99 F3000.0
S90
G01 Y96.89 F1200.0
S1
G00 X62.84 Y96.95 F3000.0
S90
G01 Y89.94 F1200.0
S1
G00 X61.24 Y89.64 F3000.0
S90
G01 Y87.58 F1200.0
S1
G00 X61.04 Y87.56 F3000.0
S90
G01 Y89.37 F1200.0
S1
G00 X60.84 Y89.18 F3000.0
S90
G01 Y87.54 F1200.0
S1
G00 X60.64 Y87.52 F3000.0
S90
G01 Y89.05 F1200.0
S1
G00 X60.44 Y88.93 F3000.0
S90
G01 Y87.5 F1200.0
S1
G00 X60.24 Y86.2 F3000.0
S90
G01 Y88.8 F1200.0
S1
G00 X60.04 Y88.67 F3000.0
S90
G01 Y86.07 F1200.0
S1
G00 X59.84 Y86.08 F3000.0
S90
G01 Y88.55 F1200.0
S1
G00 X59.64 Y88.42 F3000.0
S90
G01 Y86.1 F1200.0
S1
G00 X59.44 Y86.23 F3000.0
S90
G01 Y88.3 F1200.0
S1
G00 X59.24 Y88.17 F3000.0
S90
G01 Y86.36 F1200.0
S1
G00 X59.04 Y86.49 F3000.0
S90
G01 Y88.09 F1200.0
S1
G00 X58.84 Y88.01 F3000.0
S90
G01 Y86.66 F1200.0
S1
G00 X58.64 Y86.81 F3000.0
S90
G01 Y87.93 F1200.0
S1
G00 X58.44 Y87.86 F3000.0
S90
G01 Y86.89 F1200.0
S1
G00 X58.24 Y86.79 F3000.0
S90
G01 Y87.85 F1200.0
S1
G00 X58.04 Y87.85 F3000.0
S90
G01 Y86.57 F1200.0
S1
G00 X57.84 Y86.29 F3000.0
S90
G01 Y88.14 F1200.0
S1
G00 X57.84 Y88.85 F3000.0
S90
G01 Y91.65 F1200.0
S1
G00 X57.64 Y91.54 F3000.0
S90
G01 Y86.05 F1200.0
S1
G00 X57.44 Y85.81 F3000.0
S90
G01 Y91.51 F1200.0
S1
G00 X57.24 Y91.48 F3000.0
S90
G01 Y85.69 F1200.0
S1
G00 X57.04 Y85.59 F3000.0
S90
G01 Y91.45 F1200.0
S1
G00 X56.84 Y91.42 F3000.0
S90
G01 Y85.64 F1200.0
S1
G00 X56.04 Y85.53 F3000.0
S90
G01 Y83.17 F1200.0
S1
G00 X55.84 Y83.23 F3000.0
S90
G01 Y85.67 F1200.0
S1
G00 X55.64 Y85.75 F3000.0
S90
G01 Y83.42 F1200.0
S1
G00 X55.24 Y83.41 F3000.0
S90
G01 Y79.4 F1200.0
S1
G00 X55.04 Y79.54 F3000.0
S90
G01 Y83.71 F1200.0
S1
G00 X54.84 Y84.02 F3000.0
S90
G01 Y82.34 F1200.0
S1
G00 X54.84 Y81.6 F3000.0
S90
G01 Y79.69 F1200.0
S1
G00 X54.64 Y79.82 F3000.0
S90
G01 Y81.43 F1200.0
S1
G00 X54.44 Y81.36 F3000.0
S90
G01 Y79.88 F1200.0
S1
G00 X54.24 Y79.95 F3000.0
S90
G01 Y81.32 F1200.0
S1
G00 X54.04 Y81.29 F3000.0
S90
G01 Y79.95 F1200.0
S1
G00 X53.84 Y79.96 F3000.0
S90
G01 Y81.26 F1200.0
S1
G00 X53.64 Y81.23 F3000.0
S90
G01 Y79.96 F1200.0
S1
G00 X53.44 Y79.97 F3000.0
S90
G01 Y81.19 F1200.0
S1
G00 X53.24 Y81.18 F3000.0
S90
G01 Y79.97 F1200.0
S1
G00 X53.04 Y79.98 F3000.0
S90
G01 Y81.19 F1200.0
S1
G00 X52.84 Y81.21 F3000.0
S90
G01 Y79.98 F1200.0
S1
G00 X52.64 Y79.99 F3000.0
S90
G01 Y81.23 F1200.0
S1
G00 X52.44 Y81.24 F3000.0
S90
G01 Y79.97 F1200.0
S1
G00 X52.24 Y79.96 F3000.0
S90
G01 Y81.26 F1200.0
S1
G00 X52.04 Y81.27 F3000.0
S90
G01 Y79.95 F1200.0
S1
G00 X51.84 Y79.94 F3000.0
S90
G01 Y81.29 F1200.0
S1
G00 X51.64 Y81.31 F3000.0
S90
G01 Y79.93 F1200.0
S1
G00 X51.44 Y79.92 F3000.0
S90
G01 Y81.38 F1200.0
S1
G00 X51.24 Y81.47 F3000.0
S90
G01 Y79.91 F1200.0
S1
G00 X51.04 Y79.9 F3000.0
S90
G01 Y81.56 F1200.0
S1
G00 X50.84 Y81.77 F3000.0
S90
G01 Y79.89 F1200.0
S1
G00 X51.44 Y79.17 F3000.0
S90
G01 Y78.7 F1200.0
S1
G00 X51.64 Y78.57 F3000.0
S90
G01 Y79.36 F1200.0
S1
G00 X51.84 Y79.46 F3000.0
S90
G01 Y78.44 F1200.0
S1
G00 X52.04 Y78.38 F3000.0
S90
G01 Y79.53 F1200.0
S1
G00 X52.24 Y79.59 F3000.0
S90
G01 Y78.37 F1200.0
S1
G00 X52.44 Y78.36 F3000.0
S90
G01 Y79.64 F1200.0
S1
G00 X52.64 Y79.65 F3000.0
S90
G01 Y78.35 F1200.0
S1
G00 X52.84 Y78.39 F3000.0
S90
G01 Y79.67 F1200.0
S1
G00 X53.04 Y79.69 F3000.0
S90
G01 Y78.44 F1200.0
S1
G00 X53.24 Y78.5 F3000.0
S90
G01 Y79.71 F1200.0
S1
G00 X53.44 Y79.68 F3000.0
S90
G01 Y78.56 F1200.0
S1
G00 X53.64 Y78.71 F3000.0
S90
G01 Y79.66 F1200.0
S1
G00 X53.84 Y79.64 F3000.0
S90
G01 Y78.89 F1200.0
S1
G00 X54.04 Y79.12 F3000.0
S90
G01 Y79.61 F1200.0
S1
G00 X55.44 Y79.27 F3000.0
S90
G01 Y80.47 F1200.0
S1
G00 X55.64 Y80.12 F3000.0
S90
G01 Y79.17 F1200.0
S1
G00 X55.84 Y79.12 F3000.0
S90
G01 Y79.96 F1200.0
S1
G00 X56.04 Y79.93 F3000.0
S90
G01 Y79.08 F1200.0
S1
G00 X56.24 Y79.03 F3000.0
S90
G01 Y79.9 F1200.0
S1
G00 X56.44 Y79.94 F3000.0
S90
G01 Y79.0 F1200.0
S1
G00 X56.64 Y78.96 F3000.0
S90
G01 Y80.0 F1200.0
S1
G00 X56.84 Y80.16 F3000.0
S90
G01 Y78.93 F1200.0
S1
G00 X57.04 Y78.73 F3000.0
S90
G01 Y80.56 F1200.0
S1
G00 X57.04 Y80.93 F3000.0
S90
G01 Y83.23 F1200.0
S1
G00 X56.84 Y82.94 F3000.0
S90
G01 Y81.35 F1200.0
S1
G00 X56.64 Y81.52 F3000.0
S90
G01 Y82.78 F1200.0
S1
G00 X56.44 Y82.63 F3000.0
S90
G01 Y81.55 F1200.0
S1
G00 X56.24 Y81.58 F3000.0
S90
G01 Y82.55 F1200.0
S1
G00 X56.04 Y82.6 F3000.0
S90
G01 Y81.56 F1200.0
S1
G00 X55.84 Y81.5 F3000.0
S90
G01 Y82.66 F1200.0
S1
G00 X55.64 Y82.86 F3000.0
S90
G01 Y81.35 F1200.0
S1
G00 X55.44 Y81.03 F3000.0
S90
G01 Y83.13 F1200.0
S1
G00 X56.24 Y83.24 F3000.0
S90
G01 Y85.24 F1200.0
S1
G00 X56.44 Y84.88 F3000.0
S90
G01 Y83.4 F1200.0
S1
G00 X57.24 Y83.57 F3000.0
S90
G01 Y78.33 F1200.0
S1
G00 X57.44 Y78.39 F3000.0
S90
G01 Y83.9 F1200.0
S1
G00 X57.64 Y84.23 F3000.0
S90
G01 Y78.66 F1200.0
S1
G00 X57.84 Y79.31 F3000.0
S90
G01 Y81.58 F1200.0
S1
G00 X58.04 Y81.44 F3000.0
S90
G01 Y79.93 F1200.0
S1
G00 X58.24 Y80.12 F3000.0
S90
G01 Y81.3 F1200.0
S1
G00 X58.44 Y81.2 F3000.0
S90
G01 Y80.19 F1200.0
S1
G00 X58.64 Y80.25 F3000.0
S90
G01 Y81.18 F1200.0
S1
G00 X58.84 Y81.16 F3000.0
S90
G01 Y80.27 F1200.0
S1
G00 X59.04 Y80.29 F3000.0
S90
G01 Y81.14 F1200.0
S1
G00 X59.24 Y81.12 F3000.0
S90
G01 Y80.32 F1200.0
S1
G00 X59.44 Y80.34 F3000.0
S90
G01 Y81.09 F1200.0
S1
G00 X59.64 Y81.07 F3000.0
S90
G01 Y80.37 F1200.0
S1
G00 X59.84 Y80.41 F3000.0
S90
G01 Y81.05 F1200.0
S1
G00 X60.04 Y81.04 F3000.0
S90
G01 Y80.44 F1200.0
S1
G00 X60.24 Y80.47 F3000.0
S90
G01 Y81.02 F1200.0
S1
G00 X60.44 Y81. F3000.0
S90
G01 Y80.51 F1200.0
S1
G00 X60.64 Y80.64 F3000.0
S90
G01 Y80.9 F1200.0
S1
G00 X62.04 Y80.93 F3000.0
S90
G01 Y80.49 F1200.0
S1
G00 X62.04 Y79.84 F3000.0
S90
G01 Y74.52 F1200.0
S1
G00 X62.24 Y74.28 F3000.0
S90
G01 Y80.94 F1200.0
S1
G00 X62.44 Y80.93 F3000.0
S90
G01 Y74.09 F1200.0
S1
G00 X62.64 Y74.07 F3000.0
S90
G01 Y81.47 F1200.0
S1
G00 X62.84 Y81.6 F3000.0
S90
G01 Y78.45 F1200.0
S1
G00 X62.84 Y77.78 F3000.0
S90
G01 Y74.76 F1200.0
S1
G00 X63.04 Y75.4 F3000.0
S90
G01 Y77.38 F1200.0
S1
G00 X63.24 Y77.3 F3000.0
S90
G01 Y75.6 F1200.0
S1
G00 X63.44 Y75.79 F3000.0
S90
G01 Y77.22 F1200.0
S1
G00 X63.64 Y77.14 F3000.0
S90
G01 Y75.88 F1200.0
S1
G00 X63.84 Y75.96 F3000.0
S90
G01 Y77.07 F1200.0
S1
G00 X64.04 Y77.05 F3000.0
S90
G01 Y76.03 F1200.0
S1
G00 X64.24 Y76.1 F3000.0
S90
G01 Y77.04 F1200.0
S1
G00 X64.44 Y77.02 F3000.0
S90
G01 Y76.16 F1200.0
S1
G00 X64.64 Y76.17 F3000.0
S90
G01 Y77.01 F1200.0
S1
G00 X64.84 Y76.99 F3000.0
S90
G01 Y76.18 F1200.0
S1
G00 X65.04 Y76.19 F3000.0
S90
G01 Y76.98 F1200.0
S1
G00 X65.24 Y76.97 F3000.0
S90
G01 Y76.2 F1200.0
S1
G00 X65.44 Y76.21 F3000.0
S90
G01 Y76.99 F1200.0
S1
G00 X65.64 Y77. F3000.0
S90
G01 Y76.2 F1200.0
S1
G00 X65.84 Y76.14 F3000.0
S90
G01 Y77.02 F1200.0
S1
G00 X66.04 Y77.04 F3000.0
S90
G01 Y76.09 F1200.0
S1
G00 X66.24 Y76.04 F3000.0
S90
G01 Y77.05 F1200.0
S1
G00 X66.44 Y77.07 F3000.0
S90
G01 Y75.99 F1200.0
S1
G00 X66.64 Y75.9 F3000.0
S90
G01 Y77.08 F1200.0
S1
G00 X66.84 Y77.18 F3000.0
S90
G01 Y75.72 F1200.0
S1
G00 X66.84 Y74.75 F3000.0
S90
G01 Y72.81 F1200.0
S1
G00 X67.04 Y73.2 F3000.0
S90
G01 Y79.99 F1200.0
S1
G00 X66.84 Y80.37 F3000.0
S90
G01 Y78.42 F1200.0
S1
G00 X66.64 Y78.87 F3000.0
S90
G01 Y80.76 F1200.0
S1
G00 X67.44 Y80.67 F3000.0
S90
G01 Y81.75 F1200.0
S1
G00 X67.64 Y81.75 F3000.0
S90
G01 Y80.47 F1200.0
S1
G00 X67.84 Y80.29 F3000.0
S90
G01 Y81.76 F1200.0
S1
G00 X68.04 Y81.76 F3000.0
S90
G01 Y80.21 F1200.0
S1
G00 X68.24 Y80.13 F3000.0
S90
G01 Y80.5 F1200.0
S1
G00 X68.44 Y80.51 F3000.0
S90
G01 Y80.08 F1200.0
S1
G00 X68.64 Y80.08 F3000.0
S90
G01 Y80.53 F1200.0
S1
G00 X68.84 Y80.55 F3000.0
S90
G01 Y80.09 F1200.0
S1
G00 X68.84 Y81.07 F3000.0
S90
G01 Y81.69 F1200.0
S1
G00 X68.64 Y81.71 F3000.0
S90
G01 Y81.03 F1200.0
S1
G00 X68.44 Y81. F3000.0
S90
G01 Y81.74 F1200.0
S1
G00 X68.24 Y81.77 F3000.0
S90
G01 Y80.89 F1200.0
S1
G00 X69.04 Y81.1 F3000.0
S90
G01 Y81.66 F1200.0
S1
G00 X69.24 Y81.59 F3000.0
S90
G01 Y81.14 F1200.0
S1
G00 X69.44 Y81.17 F3000.0
S90
G01 Y81.5 F1200.0
S1
G00 X69.44 Y82.66 F3000.0
S90
G01 Y84.3 F1200.0
S1
G00 X69.64 Y84. F3000.0
S90
G01 Y82.58 F1200.0
S1
G00 X69.84 Y82.46 F3000.0
S90
G01 Y84.11 F1200.0
S1
G00 X70.04 Y84.22 F3000.0
S90
G01 Y82.34 F1200.0
S1
G00 X70.24 Y81.91 F3000.0
S90
G01 Y84.34 F1200.0
S1
G00 X70.44 Y84.15 F3000.0
S90
G01 Y79.47 F1200.0
S1
G00 X70.64 Y79.71 F3000.0
S90
G01 Y83.61 F1200.0
S1
G00 X70.84 Y83.51 F3000.0
S90
G01 Y79.95 F1200.0
S1
G00 X71.04 Y80.18 F3000.0
S90
G01 Y83.57 F1200.0
S1
G00 X71.44 Y83.56 F3000.0
S90
G01 Y80.63 F1200.0
S1
G00 X71.64 Y80.79 F3000.0
S90
G01 Y83.15 F1200.0
S1
G00 X71.84 Y82.9 F3000.0
S90
G01 Y80.94 F1200.0
S1
G00 X72.04 Y81.02 F3000.0
S90
G01 Y82.79 F1200.0
S1
G00 X72.24 Y82.7 F3000.0
S90
G01 Y81.08 F1200.0
S1
G00 X72.44 Y81.02 F3000.0
S90
G01 Y82.71 F1200.0
S1
G00 X72.64 Y82.71 F3000.0
S90
G01 Y80.96 F1200.0
S1
G00 X72.84 Y80.63 F3000.0
S90
G01 Y82.71 F1200.0
S1
G00 X73.04 Y82.77 F3000.0
S90
G01 Y79.77 F1200.0
S1
G00 X72.84 Y79.81 F3000.0
S90
G01 Y80.56 F1200.0
S1
G00 X72.64 Y80.17 F3000.0
S90
G01 Y79.85 F1200.0
S1
G00 X73.24 Y79.68 F3000.0
S90
G01 Y82.83 F1200.0
S1
G00 X73.44 Y82.89 F3000.0
S90
G01 Y82.31 F1200.0
S1
G00 X73.64 Y82.57 F3000.0
S90
G01 Y82.95 F1200.0
S1
G00 X73.84 Y83.01 F3000.0
S90
G01 Y82.8 F1200.0
S1
G00 X73.84 Y81.6 F3000.0
S90
G01 Y79.08 F1200.0
S1
G00 X73.64 Y79.33 F3000.0
S90
G01 Y81.57 F1200.0
S1
G00 X73.44 Y81.71 F3000.0
S90
G01 Y79.51 F1200.0
S1
G00 X73.24 Y78.81 F3000.0
S90
G01 Y78.01 F1200.0
S1
G00 X73.44 Y78.09 F3000.0
S90
G01 Y78.5 F1200.0
S1
G00 X73.04 Y78.85 F3000.0
S90
G01 Y78.11 F1200.0
S1
G00 X73.04 Y77.27 F3000.0
S90
G01 Y75.99 F1200.0
S1
G00 X73.24 Y75.95 F3000.0
S90
G01 Y77.33 F1200.0
S1
G00 X73.44 Y77.41 F3000.0
S90
G01 Y75.9 F1200.0
S1
G00 X73.64 Y75.83 F3000.0
S90
G01 Y77.53 F1200.0
S1
G00 X73.84 Y77.65 F3000.0
S90
G01 Y75.7 F1200.0
S1
G00 X74.04 Y75.56 F3000.0
S90
G01 Y77.85 F1200.0
S1
G00 X74.04 Y78.73 F3000.0
S90
G01 Y81.61 F1200.0
S1
G00 X74.24 Y81.29 F3000.0
S90
G01 Y75.14 F1200.0
S1
G00 X74.24 Y75.14 F3000.0
S90
G01 Y71.3 F1200.0
S1
G00 X74.04 Y71.3 F3000.0
S90
G01 Y74.55 F1200.0
S1
G00 X73.84 Y74.17 F3000.0
S90
G01 Y71.31 F1200.0
S1
G00 X73.64 Y71.31 F3000.0
S90
G01 Y73.82 F1200.0
S1
G00 X73.44 Y73.48 F3000.0
S90
G01 Y71.32 F1200.0
S1
G00 X73.44 Y71.15 F3000.0
S90
G01 Y70.2 F1200.0
S1
G00 X73.24 Y70.33 F3000.0
S90
G01 Y73.24 F1200.0
S1
G00 X73.04 Y73. F3000.0
S90
G01 Y70.45 F1200.0
S1
G00 X72.84 Y70.58 F3000.0
S90
G01 Y72.76 F1200.0
S1
G00 X72.64 Y72.58 F3000.0
S90
G01 Y70.71 F1200.0
S1
G00 X72.64 Y70.36 F3000.0
S90
G01 Y69.62 F1200.0
S1
G00 X72.44 Y69.73 F3000.0
S90
G01 Y72.44 F1200.0
S1
G00 X72.24 Y72.31 F3000.0
S90
G01 Y69.84 F1200.0
S1
G00 X72.04 Y69.94 F3000.0
S90
G01 Y72.26 F1200.0
S1
G00 X71.84 Y72.31 F3000.0
S90
G01 Y70.05 F1200.0
S1
G00 X71.64 Y70.15 F3000.0
S90
G01 Y72.45 F1200.0
S1
G00 X71.44 Y72.61 F3000.0
S90
G01 Y70.26 F1200.0
S1
G00 X70.84 Y69.88 F3000.0
S90
G01 Y73.31 F1200.0
S1
G00 X71.04 Y73.08 F3000.0
S90
G01 Y69.65 F1200.0
S1
G00 X71.24 Y69.41 F3000.0
S90
G01 Y72.85 F1200.0
S1
G00 X71.64 Y72.89 F3000.0
S90
G01 Y73.76 F1200.0
S1
G00 X71.84 Y73.96 F3000.0
S90
G01 Y72.72 F1200.0
S1
G00 X72.04 Y72.7 F3000.0
S90
G01 Y74.03 F1200.0
S1
G00 X72.24 Y74.06 F3000.0
S90
G01 Y72.81 F1200.0
S1
G00 X72.44 Y72.94 F3000.0
S90
G01 Y74.01 F1200.0
S1
G00 X72.64 Y73.97 F3000.0
S90
G01 Y73.17 F1200.0
S1
G00 X74.64 Y73.12 F3000.0
S90
G01 Y72.39 F1200.0
S1
G00 X74.44 Y72.41 F3000.0
S90
G01 Y80.96 F1200.0
S1
G00 X74.64 Y80.96 F3000.0
S90
G01 Y80.19 F1200.0
S1
G00 X74.64 Y80. F3000.0
S90
G01 Y73.27 F1200.0
S1
G00 X74.84 Y73.47 F3000.0
S90
G01 Y79.81 F1200.0
S1
G00 X75.04 Y79.77 F3000.0
S90
G01 Y78.85 F1200.0
S1
G00 X75.04 Y78.76 F3000.0
S90
G01 Y74.47 F1200.0
S1
G00 X75.04 Y74.43 F3000.0
S90
G01 Y73.51 F1200.0
S1
G00 X75.24 Y73.56 F3000.0
S90
G01 Y74.1 F1200.0
S1
G00 X75.24 Y74.56 F3000.0
S90
G01 Y78.74 F1200.0
S1
G00 X75.44 Y78.71 F3000.0
S90
G01 Y74.67 F1200.0
S1
G00 X75.64 Y75.58 F3000.0
S90
G01 Y78.68 F1200.0
S1
G00 X75.84 Y78.65 F3000.0
S90
G01 Y77.89 F1200.0
S1
G00 X75.84 Y77.68 F3000.0
S90
G01 Y76.57 F1200.0
S1
G00 X76.04 Y76.74 F3000.0
S90
G01 Y77.49 F1200.0
S1
G00 X76.24 Y77.32 F3000.0
S90
G01 Y76.9 F1200.0
S1
G00 X77.04 Y76.95 F3000.0
S90
G01 Y82.46 F1200.0
S1
G00 X76.84 Y82.48 F3000.0
S90
G01 Y78.38 F1200.0
S1
G00 X76.04 Y78.34 F3000.0
S90
G01 Y78.61 F1200.0
S1
G00 X76.64 Y79.08 F3000.0
S90
G01 Y82.5 F1200.0
S1
G00 X76.44 Y82.53 F3000.0
S90
G01 Y79.72 F1200.0
S1
G00 X76.24 Y80.35 F3000.0
S90
G01 Y82.58 F1200.0
S1
G00 X76.04 Y82.74 F3000.0
S90
G01 Y81.09 F1200.0
S1
G00 X75.84 Y81.9 F3000.0
S90
G01 Y82.89 F1200.0
S1
G00 X76.84 Y82.89 F3000.0
S90
G01 Y85.61 F1200.0
S1
G00 X76.64 Y85.62 F3000.0
S90
G01 Y83.34 F1200.0
S1
G00 X76.44 Y83.81 F3000.0
S90
G01 Y85.66 F1200.0
S1
G00 X76.24 Y85.77 F3000.0
S90
G01 Y83.95 F1200.0
S1
G00 X76.04 Y84.05 F3000.0
S90
G01 Y85.87 F1200.0
S1
G00 X75.84 Y86.01 F3000.0
S90
G01 Y84.07 F1200.0
S1
G00 X75.64 Y84.09 F3000.0
S90
G01 Y86.19 F1200.0
S1
G00 X75.44 Y86.37 F3000.0
S90
G01 Y84.0 F1200.0
S1
G00 X75.24 Y83.91 F3000.0
S90
G01 Y86.56 F1200.0
S1
G00 X75.04 Y86.83 F3000.0
S90
G01 Y83.84 F1200.0
S1
G00 X74.84 Y83.79 F3000.0
S90
G01 Y87.11 F1200.0
S1
G00 X74.64 Y87.39 F3000.0
S90
G01 Y83.73 F1200.0
S1
G00 X74.44 Y83.87 F3000.0
S90
G01 Y87.84 F1200.0
S1
G00 X75.04 Y88.05 F3000.0
S90
G01 Y87.51 F1200.0
S1
G00 X75.24 Y87.35 F3000.0
S90
G01 Y88.21 F1200.0
S1
G00 X75.44 Y88.29 F3000.0
S90
G01 Y87.26 F1200.0
S1
G00 X75.64 Y87.34 F3000.0
S90
G01 Y88.21 F1200.0
S1
G00 X75.84 Y88.06 F3000.0
S90
G01 Y87.49 F1200.0
S1
G00 X76.44 Y87.18 F3000.0
S90
G01 Y88.37 F1200.0
S1
G00 X76.64 Y88.46 F3000.0
S90
G01 Y87.09 F1200.0
S1
G00 X76.84 Y87.32 F3000.0
S90
G01 Y88.23 F1200.0
S1
G00 X77.04 Y89.41 F3000.0
S90
G01 Y89.76 F1200.0
S1
G00 X77.44 Y89.61 F3000.0
S90
G01 Y90.48 F1200.0
S1
G00 X77.44 Y90.86 F3000.0
S90
G01 Y91.3 F1200.0
S1
G00 X77.64 Y91.17 F3000.0
S90
G01 Y89.88 F1200.0
S1
G00 X77.84 Y90.15 F3000.0
S90
G01 Y91.01 F1200.0
S1
G00 X78.04 Y90.78 F3000.0
S90
G01 Y90.43 F1200.0
S1
G00 X77.24 Y90.27 F3000.0
S90
G01 Y89.34 F1200.0
S1
G00 X76.24 Y90.12 F3000.0
S90
G01 Y90.8 F1200.0
S1
G00 X76.04 Y90.79 F3000.0
S90
G01 Y89.96 F1200.0
S1
G00 X75.84 Y89.8 F3000.0
S90
G01 Y90.7 F1200.0
S1
G00 X75.64 Y90.61 F3000.0
S90
G01 Y89.74 F1200.0
S1
G00 X75.44 Y89.68 F3000.0
S90
G01 Y90.48 F1200.0
S1
G00 X75.24 Y90.34 F3000.0
S90
G01 Y89.7 F1200.0
S1
G00 X75.04 Y89.78 F3000.0
S90
G01 Y90.11 F1200.0
S1
G00 X74.64 Y90.13 F3000.0
S90
G01 Y93.78 F1200.0
S1
G00 X74.84 Y93.87 F3000.0
S90
G01 Y90.44 F1200.0
S1
G00 X75.04 Y90.75 F3000.0
S90
G01 Y93.86 F1200.0
S1
G00 X75.24 Y93.86 F3000.0
S90
G01 Y90.96 F1200.0
S1
G00 X75.44 Y91.14 F3000.0
S90
G01 Y93.89 F1200.0
S1
G00 X75.64 Y93.92 F3000.0
S90
G01 Y91.33 F1200.0
S1
G00 X75.84 Y91.44 F3000.0
S90
G01 Y93.94 F1200.0
S1
G00 X76.04 Y93.98 F3000.0
S90
G01 Y91.55 F1200.0
S1
G00 X76.24 Y91.66 F3000.0
S90
G01 Y94.09 F1200.0
S1
G00 X76.44 Y94.2 F3000.0
S90
G01 Y91.69 F1200.0
S1
G00 X76.64 Y91.73 F3000.0
S90
G01 Y94.31 F1200.0
S1
G00 X76.84 Y94.44 F3000.0
S90
G01 Y91.77 F1200.0
S1
G00 X77.04 Y91.77 F3000.0
S90
G01 Y94.58 F1200.0
S1
G00 X77.24 Y94.72 F3000.0
S90
G01 Y91.76 F1200.0
S1
G00 X77.44 Y91.75 F3000.0
S90
G01 Y94.46 F1200.0
S1
G00 X77.64 Y94.15 F3000.0
S90
G01 Y91.74 F1200.0
S1
G00 X77.84 Y91.65 F3000.0
S90
G01 Y93.96 F1200.0
S1
G00 X78.04 Y93.89 F3000.0
S90
G01 Y91.54 F1200.0
S1
G00 X78.24 Y91.44 F3000.0
S90
G01 Y93.9 F1200.0
S1
G00 X78.44 Y93.91 F3000.0
S90
G01 Y91.29 F1200.0
S1
G00 X78.64 Y91.09 F3000.0
S90
G01 Y93.92 F1200.0
S1
G00 X78.84 Y93.93 F3000.0
S90
G01 Y90.89 F1200.0
S1
G00 X79.04 Y90.69 F3000.0
S90
G01 Y93.95 F1200.0
S1
G00 X79.24 Y93.98 F3000.0
S90
G01 Y90.46 F1200.0
S1
G00 X79.44 Y90.17 F3000.0
S90
G01 Y94.0 F1200.0
S1
G00 X79.64 Y94.03 F3000.0
S90
G01 Y89.89 F1200.0
S1
G00 X79.84 Y89.56 F3000.0
S90
G01 Y93.95 F1200.0
S1
G00 X79.84 Y94.32 F3000.0
S90
G01 Y95.03 F1200.0
S1
G00 X79.64 Y95.15 F3000.0
S90
G01 Y94.35 F1200.0
S1
G00 X79.44 Y94.38 F3000.0
S90
G01 Y95.27 F1200.0
S1
G00 X79.24 Y95.39 F3000.0
S90
G01 Y94.37 F1200.0
S1
G00 X79.04 Y94.34 F3000.0
S90
G01 Y95.52 F1200.0
S1
G00 X78.84 Y95.64 F3000.0
S90
G01 Y94.31 F1200.0
S1
G00 X78.64 Y94.29 F3000.0
S90
G01 Y95.76 F1200.0
S1
G00 X78.44 Y95.88 F3000.0
S90
G01 Y94.28 F1200.0
S1
G00 X78.24 Y94.26 F3000.0
S90
G01 Y96.0 F1200.0
S1
G00 X78.04 Y96.12 F3000.0
S90
G01 Y94.6 F1200.0
S1
G00 X77.84 Y95.02 F3000.0
S90
G01 Y96.24 F1200.0
S1
G00 X77.64 Y96.36 F3000.0
S90
G01 Y95.09 F1200.0
S1
G00 X77.44 Y95.08 F3000.0
S90
G01 Y96.48 F1200.0
S1
G00 X77.24 Y96.57 F3000.0
S90
G01 Y95.07 F1200.0
S1
G00 X77.04 Y95.06 F3000.0
S90
G01 Y96.66 F1200.0
S1
G00 X76.84 Y96.75 F3000.0
S90
G01 Y95.05 F1200.0
S1
G00 X76.64 Y95.04 F3000.0
S90
G01 Y96.84 F1200.0
S1
G00 X76.44 Y96.93 F3000.0
S90
G01 Y95.02 F1200.0
S1
G00 X76.24 Y95.01 F3000.0
S90
G01 Y97.02 F1200.0
S1
G00 X76.04 Y97.11 F3000.0
S90
G01 Y95.0 F1200.0
S1
G00 X75.84 Y94.98 F3000.0
S90
G01 Y97.19 F1200.0
S1
G00 X75.64 Y97.28 F3000.0
S90
G01 Y94.97 F1200.0
S1
G00 X75.44 Y94.96 F3000.0
S90
G01 Y97.37 F1200.0
S1
G00 X75.24 Y97.46 F3000.0
S90
G01 Y94.94 F1200.0
S1
G00 X75.04 Y94.93 F3000.0
S90
G01 Y97.55 F1200.0
S1
G00 X74.84 Y97.64 F3000.0
S90
G01 Y95.0 F1200.0
S1
G00 X74.04 Y95.21 F3000.0
S90
G01 Y97.99 F1200.0
S1
G00 X74.24 Y97.9 F3000.0
S90
G01 Y96.15 F1200.0
S1
G00 X74.64 Y96.37 F3000.0
S90
G01 Y97.72 F1200.0
S1
G00 X74.44 Y97.81 F3000.0
S90
G01 Y96.65 F1200.0
S1
G00 X73.44 Y96.71 F3000.0
S90
G01 Y93.24 F1200.0
S1
G00 X73.24 Y93. F3000.0
S90
G01 Y96.54 F1200.0
S1
G00 X73.04 Y96.42 F3000.0
S90
G01 Y92.86 F1200.0
S1
G00 X72.84 Y92.77 F3000.0
S90
G01 Y96.37 F1200.0
S1
G00 X72.64 Y96.35 F3000.0
S90
G01 Y92.67 F1200.0
S1
G00 X72.44 Y92.47 F3000.0
S90
G01 Y96.42 F1200.0
S1
G00 X72.24 Y96.94 F3000.0
S90
G01 Y92.27 F1200.0
S1
G00 X72.04 Y92.02 F3000.0
S90
G01 Y98.85 F1200.0
S1
G00 X72.24 Y98.78 F3000.0
S90
G01 Y97.32 F1200.0
S1
G00 X72.44 Y97.37 F3000.0
S90
G01 Y98.7 F1200.0
S1
G00 X72.64 Y98.61 F3000.0
S90
G01 Y97.26 F1200.0
S1
G00 X72.84 Y97.16 F3000.0
S90
G01 Y98.52 F1200.0
S1
G00 X73.04 Y98.43 F3000.0
S90
G01 Y97.05 F1200.0
S1
G00 X73.24 Y97.09 F3000.0
S90
G01 Y98.34 F1200.0
S1
G00 X73.44 Y98.26 F3000.0
S90
G01 Y97.14 F1200.0
S1
G00 X73.64 Y98.17 F3000.0
S90
G01 Y93.71 F1200.0
S1
G00 X73.84 Y94.27 F3000.0
S90
G01 Y98.08 F1200.0
S1
G00 X71.84 Y98.93 F3000.0
S90
G01 Y91.71 F1200.0
S1
G00 X71.64 Y91.1 F3000.0
S90
G01 Y99.01 F1200.0
S1
G00 X71.44 Y99.08 F3000.0
S90
G01 Y90.11 F1200.0
S1
G00 X71.24 Y89.57 F3000.0
S90
G01 Y99.16 F1200.0
S1
G00 X71.04 Y99.24 F3000.0
S90
G01 Y85.12 F1200.0
S1
G00 X71.24 Y85.08 F3000.0
S90
G01 Y87.89 F1200.0
S1
G00 X71.44 Y87.17 F3000.0
S90
G01 Y85.04 F1200.0
S1
G00 X71.64 Y85. F3000.0
S90
G01 Y86.21 F1200.0
S1
G00 X72.64 Y86. F3000.0
S90
G01 Y85.77 F1200.0
S1
G00 X72.84 Y85.58 F3000.0
S90
G01 Y91.68 F1200.0
S1
G00 X73.04 Y91.7 F3000.0
S90
G01 Y85.54 F1200.0
S1
G00 X73.24 Y85.49 F3000.0
S90
G01 Y91.72 F1200.0
S1
G00 X73.44 Y91.73 F3000.0
S90
G01 Y85.41 F1200.0
S1
G00 X73.64 Y85.33 F3000.0
S90
G01 Y91.75 F1200.0
S1
G00 X73.84 Y91.8 F3000.0
S90
G01 Y85.25 F1200.0
S1
G00 X74.04 Y85.03 F3000.0
S90
G01 Y91.92 F1200.0
S1
G00 X74.24 Y92.6 F3000.0
S90
G01 Y88.75 F1200.0
S1
G00 X74.24 Y88.64 F3000.0
S90
G01 Y84.0 F1200.0
S1
G00 X74.04 Y84.14 F3000.0
S90
G01 Y84.64 F1200.0
S1
G00 X73.84 Y84.78 F3000.0
S90
G01 Y84.33 F1200.0
S1
G00 X73.64 Y84.57 F3000.0
S90
G01 Y84.91 F1200.0
S1
G00 X73.44 Y84.82 F3000.0
S90
G01 Y85.05 F1200.0
S1
G00 X70.84 Y85.16 F3000.0
S90
G01 Y99.31 F1200.0
S1
G00 X70.64 Y99.39 F3000.0
S90
G01 Y98.17 F1200.0
S1
G00 X70.44 Y98.15 F3000.0
S90
G01 Y99.47 F1200.0
S1
G00 X70.24 Y99.55 F3000.0
S90
G01 Y98.13 F1200.0
S1
G00 X70.04 Y98.11 F3000.0
S90
G01 Y99.62 F1200.0
S1
G00 X69.84 Y99.67 F3000.0
S90
G01 Y98.28 F1200.0
S1
G00 X69.64 Y98.68 F3000.0
S90
G01 Y99.73 F1200.0
S1
G00 X69.44 Y99.79 F3000.0
S90
G01 Y98.89 F1200.0
S1
G00 X69.24 Y99. F3000.0
S90
G01 Y99.85 F1200.0
S1
G00 X69.04 Y99.91 F3000.0
S90
G01 Y99.1 F1200.0
S1
G00 X68.84 Y99.12 F3000.0
S90
G01 Y99.96 F1200.0
S1
G00 X68.64 Y100.02 F3000.0
S90
G01 Y99.15 F1200.0
S1
G00 X68.44 Y99.16 F3000.0
S90
G01 Y100.07 F1200.0
S1
G00 X68.24 Y100.13 F3000.0
S90
G01 Y99.08 F1200.0
S1
G00 X68.04 Y98.99 F3000.0
S90
G01 Y100.18 F1200.0
S1
G00 X67.84 Y100.24 F3000.0
S90
G01 Y98.9 F1200.0
S1
G00 X67.64 Y98.81 F3000.0
S90
G01 Y100.29 F1200.0
S1
G00 X67.44 Y100.35 F3000.0
S90
G01 Y98.72 F1200.0
S1
G00 X67.24 Y98.67 F3000.0
S90
G01 Y100.4 F1200.0
S1
G00 X67.04 Y100.46 F3000.0
S90
G01 Y98.64 F1200.0
S1
G00 X66.84 Y98.62 F3000.0
S90
G01 Y100.51 F1200.0
S1
G00 X66.64 Y100.56 F3000.0
S90
G01 Y98.59 F1200.0
S1
G00 X66.44 Y98.56 F3000.0
S90
G01 Y100.62 F1200.0
S1
G00 X66.24 Y100.66 F3000.0
S90
G01 Y98.52 F1200.0
S1
G00 X66.04 Y98.49 F3000.0
S90
G01 Y100.71 F1200.0
S1
G00 X65.84 Y100.76 F3000.0
S90
G01 Y98.46 F1200.0
S1
G00 X65.64 Y98.42 F3000.0
S90
G01 Y100.81 F1200.0
S1
G00 X65.44 Y100.86 F3000.0
S90
G01 Y98.34 F1200.0
S1
G00 X65.24 Y98.25 F3000.0
S90
G01 Y100.91 F1200.0
S1
G00 X65.04 Y100.95 F3000.0
S90
G01 Y98.16 F1200.0
S1
G00 X64.84 Y98.07 F3000.0
S90
G01 Y101.0 F1200.0
S1
G00 X64.64 Y101.05 F3000.0
S90
G01 Y97.95 F1200.0
S1
G00 X64.44 Y97.83 F3000.0
S90
G01 Y101.1 F1200.0
S1
G00 X64.24 Y101.15 F3000.0
S90
G01 Y97.71 F1200.0
S1
G00 X64.04 Y97.65 F3000.0
S90
G01 Y101.19 F1200.0
S1
G00 X63.84 Y101.24 F3000.0
S90
G01 Y97.63 F1200.0
S1
G00 X63.64 Y97.65 F3000.0
S90
G01 Y101.29 F1200.0
S1
G00 X63.44 Y101.34 F3000.0
S90
G01 Y97.86 F1200.0
S1
G00 X63.64 Y96.81 F3000.0
S90
G01 Y92.02 F1200.0
S1
G00 X63.84 Y92.38 F3000.0
S90
G01 Y94.57 F1200.0
S1
G00 X64.04 Y94.38 F3000.0
S90
G01 Y92.51 F1200.0
S1
G00 X64.24 Y92.62 F3000.0
S90
G01 Y94.19 F1200.0
S1
G00 X64.44 Y94.01 F3000.0
S90
G01 Y92.73 F1200.0
S1
G00 X64.64 Y92.83 F3000.0
S90
G01 Y93.83 F1200.0
S1
G00 X64.84 Y93.53 F3000.0
S90
G01 Y93.02 F1200.0
S1
G00 X65.04 Y91.87 F3000.0
S90
G01 Y85.04 F1200.0
S1
G00 X65.24 Y85.08 F3000.0
S90
G01 Y96.88 F1200.0
S1
G00 X65.04 Y96.12 F3000.0
S90
G01 Y94.49 F1200.0
S1
G00 X64.84 Y94.97 F3000.0
S90
G01 Y95.41 F1200.0
S1
G00 X64.04 Y95.46 F3000.0
S90
G01 Y96.65 F1200.0
S1
G00 X63.84 Y96.76 F3000.0
S90
G01 Y95.16 F1200.0
S1
G00 X64.24 Y95.77 F3000.0
S90
G01 Y96.39 F1200.0
S1
G00 X65.44 Y97.66 F3000.0
S90
G01 Y85.11 F1200.0
S1
G00 X65.64 Y85.14 F3000.0
S90
G01 Y97.8 F1200.0
S1
G00 X65.84 Y97.86 F3000.0
S90
G01 Y85.17 F1200.0
S1
G00 X66.04 Y85.2 F3000.0
S90
G01 Y97.83 F1200.0
S1
G00 X66.24 Y97.76 F3000.0
S90
G01 Y85.24 F1200.0
S1
G00 X66.44 Y85.26 F3000.0
S90
G01 Y97.62 F1200.0
S1
G00 X66.64 Y97.48 F3000.0
S90
G01 Y85.29 F1200.0
S1
G00 X66.84 Y85.31 F3000.0
S90
G01 Y97.38 F1200.0
S1
G00 X67.04 Y97.28 F3000.0
S90
G01 Y85.34 F1200.0
S1
G00 X67.24 Y85.36 F3000.0
S90
G01 Y90.12 F1200.0
S1
G00 X67.44 Y89.69 F3000.0
S90
G01 Y85.39 F1200.0
S1
G00 X67.64 Y85.41 F3000.0
S90
G01 Y89.45 F1200.0
S1
G00 X67.84 Y89.24 F3000.0
S90
G01 Y85.44 F1200.0
S1
G00 X68.04 Y85.46 F3000.0
S90
G01 Y89.16 F1200.0
S1
G00 X68.24 Y89.08 F3000.0
S90
G01 Y85.48 F1200.0
S1
G00 X68.44 Y85.46 F3000.0
S90
G01 Y89.0 F1200.0
S1
G00 X68.64 Y89. F3000.0
S90
G01 Y85.44 F1200.0
S1
G00 X68.84 Y85.43 F3000.0
S90
G01 Y89.03 F1200.0
S1
G00 X69.04 Y89.05 F3000.0
S90
G01 Y85.41 F1200.0
S1
G00 X69.24 Y85.39 F3000.0
S90
G01 Y89.08 F1200.0
S1
G00 X69.44 Y89.2 F3000.0
S90
G01 Y85.37 F1200.0
S1
G00 X69.64 Y85.35 F3000.0
S90
G01 Y89.33 F1200.0
S1
G00 X69.84 Y89.46 F3000.0
S90
G01 Y85.34 F1200.0
S1
G00 X70.04 Y85.31 F3000.0
S90
G01 Y89.67 F1200.0
S1
G00 X70.24 Y89.93 F3000.0
S90
G01 Y85.28 F1200.0
S1
G00 X70.44 Y85.24 F3000.0
S90
G01 Y97.43 F1200.0
S1
G00 X70.24 Y97.35 F3000.0
S90
G01 Y91.26 F1200.0
S1
G00 X70.04 Y91.45 F3000.0
S90
G01 Y97.28 F1200.0
S1
G00 X69.84 Y97.32 F3000.0
S90
G01 Y91.64 F1200.0
S1
G00 X69.64 Y91.83 F3000.0
S90
G01 Y97.41 F1200.0
S1
G00 X69.44 Y97.88 F3000.0
S90
G01 Y91.91 F1200.0
S1
G00 X69.24 Y91.97 F3000.0
S90
G01 Y98.44 F1200.0
S1
G00 X69.04 Y98.64 F3000.0
S90
G01 Y92.0 F1200.0
S1
G00 X68.84 Y92.01 F3000.0
S90
G01 Y98.82 F1200.0
S1
G00 X68.64 Y98.88 F3000.0
S90
G01 Y92.01 F1200.0
S1
G00 X68.44 Y91.96 F3000.0
S90
G01 Y98.93 F1200.0
S1
G00 X68.24 Y98.76 F3000.0
S90
G01 Y91.91 F1200.0
S1
G00 X68.04 Y91.85 F3000.0
S90
G01 Y98.49 F1200.0
S1
G00 X67.84 Y98.16 F3000.0
S90
G01 Y91.79 F1200.0
S1
G00 X67.64 Y91.65 F3000.0
S90
G01 Y97.82 F1200.0
S1
G00 X67.44 Y97.58 F3000.0
S90
G01 Y91.47 F1200.0
S1
G00 X67.24 Y91.21 F3000.0
S90
G01 Y97.39 F1200.0
S1
G00 X70.64 Y97.72 F3000.0
S90
G01 Y85.2 F1200.0
S1
G00 X69.24 Y84.77 F3000.0
S90
G01 Y82.69 F1200.0
S1
G00 X69.04 Y82.72 F3000.0
S90
G01 Y84.82 F1200.0
S1
G00 X68.84 Y84.73 F3000.0
S90
G01 Y82.75 F1200.0
S1
G00 X68.64 Y82.78 F3000.0
S90
G01 Y84.44 F1200.0
S1
G00 X68.44 Y84.23 F3000.0
S90
G01 Y82.77 F1200.0
S1
G00 X68.24 Y82.74 F3000.0
S90
G01 Y84.38 F1200.0
S1
G00 X68.04 Y84.58 F3000.0
S90
G01 Y82.72 F1200.0
S1
G00 X67.84 Y82.7 F3000.0
S90
G01 Y84.78 F1200.0
S1
G00 X67.64 Y84.11 F3000.0
S90
G01 Y82.67 F1200.0
S1
G00 X67.44 Y82.58 F3000.0
S90
G01 Y83.96 F1200.0
S1
G00 X67.24 Y83.95 F3000.0
S90
G01 Y82.5 F1200.0
S1
G00 X67.04 Y82.41 F3000.0
S90
G01 Y83.95 F1200.0
S1
G00 X66.84 Y83.96 F3000.0
S90
G01 Y82.31 F1200.0
S1
G00 X66.64 Y82.13 F3000.0
S90
G01 Y83.76 F1200.0
S1
G00 X66.44 Y83.58 F3000.0
S90
G01 Y81.79 F1200.0
S1
G00 X66.44 Y81.69 F3000.0
S90
G01 Y79.21 F1200.0
S1
G00 X66.24 Y79.56 F3000.0
S90
G01 Y83.58 F1200.0
S1
G00 X66.04 Y83.7 F3000.0
S90
G01 Y79.86 F1200.0
S1
G00 X65.84 Y80.11 F3000.0
S90
G01 Y83.82 F1200.0
S1
G00 X65.64 Y83.92 F3000.0
S90
G01 Y80.35 F1200.0
S1
G00 X65.44 Y80.6 F3000.0
S90
G01 Y84.03 F1200.0
S1
G00 X65.24 Y83.03 F3000.0
S90
G01 Y80.77 F1200.0
S1
G00 X65.04 Y80.9 F3000.0
S90
G01 Y83.03 F1200.0
S1
G00 X64.84 Y83.13 F3000.0
S90
G01 Y81.03 F1200.0
S1
G00 X64.64 Y81.02 F3000.0
S90
G01 Y83.24 F1200.0
S1
G00 X64.44 Y83.35 F3000.0
S90
G01 Y80.95 F1200.0
S1
G00 X64.24 Y80.82 F3000.0
S90
G01 Y82.83 F1200.0
S1
G00 X64.04 Y82.59 F3000.0
S90
G01 Y80.63 F1200.0
S1
G00 X63.84 Y80.45 F3000.0
S90
G01 Y82.58 F1200.0
S1
G00 X63.64 Y82.58 F3000.0
S90
G01 Y80.17 F1200.0
S1
G00 X63.44 Y79.88 F3000.0
S90
G01 Y82.57 F1200.0
S1
G00 X63.24 Y81.99 F3000.0
S90
G01 Y79.53 F1200.0
S1
G00 X63.04 Y79.12 F3000.0
S90
G01 Y81.63 F1200.0
S1
G00 X62.64 Y83.37 F3000.0
S90
G01 Y83.79 F1200.0
S1
G00 X62.44 Y83.87 F3000.0
S90
G01 Y83.24 F1200.0
S1
G00 X62.24 Y83.25 F3000.0
S90
G01 Y85.28 F1200.0
S1
G00 X62.44 Y85.24 F3000.0
S90
G01 Y84.07 F1200.0
S1
G00 X62.64 Y84.36 F3000.0
S90
G01 Y85.2 F1200.0
S1
G00 X62.84 Y85.17 F3000.0
S90
G01 Y84.64 F1200.0
S1
G00 X63.04 Y84.92 F3000.0
S90
G01 Y85.13 F1200.0
S1
G00 X62.04 Y85.82 F3000.0
S90
G01 Y83.41 F1200.0
S1
G00 X61.84 Y83.59 F3000.0
S90
G01 Y85.87 F1200.0
S1
G00 X61.64 Y85.8 F3000.0
S90
G01 Y83.77 F1200.0
S1
G00 X61.44 Y83.94 F3000.0
S90
G01 Y85.74 F1200.0
S1
G00 X61.24 Y85.67 F3000.0
S90
G01 Y84.12 F1200.0
S1
G00 X61.04 Y84.34 F3000.0
S90
G01 Y85.61 F1200.0
S1
G00 X60.84 Y85.53 F3000.0
S90
G01 Y84.6 F1200.0
S1
G00 X60.64 Y84.86 F3000.0
S90
G01 Y85.41 F1200.0
S1
G00 X60.64 Y84.12 F3000.0
S90
G01 Y83.55 F1200.0
S1
G00 X60.44 Y83.74 F3000.0
S90
G01 Y84.14 F1200.0
S1
G00 X59.64 Y84.1 F3000.0
S90
G01 Y82.9 F1200.0
S1
G00 X59.44 Y82.57 F3000.0
S90
G01 Y84.09 F1200.0
S1
G00 X59.24 Y84.05 F3000.0
S90
G01 Y82.41 F1200.0
S1
G00 X59.04 Y82.24 F3000.0
S90
G01 Y83.85 F1200.0
S1
G00 X58.84 Y83.65 F3000.0
S90
G01 Y82.19 F1200.0
S1
G00 X58.64 Y82.13 F3000.0
S90
G01 Y83.29 F1200.0
S1
G00 X58.24 Y83.31 F3000.0
S90
G01 Y85.16 F1200.0
S1
G00 X58.44 Y85.33 F3000.0
S90
G01 Y83.74 F1200.0
S1
G00 X58.64 Y84.16 F3000.0
S90
G01 Y85.5 F1200.0
S1
G00 X58.84 Y85.51 F3000.0
S90
G01 Y84.58 F1200.0
S1
G00 X59.04 Y85.01 F3000.0
S90
G01 Y85.45 F1200.0
S1
G00 X58.04 Y84.89 F3000.0
S90
G01 Y82.87 F1200.0
S1
G00 X58.44 Y82.89 F3000.0
S90
G01 Y82.2 F1200.0
S1
G00 X57.84 Y82.43 F3000.0
S90
G01 Y84.56 F1200.0
S1
G00 X55.44 Y84.12 F3000.0
S90
G01 Y85.61 F1200.0
S1
G00 X53.64 Y85.44 F3000.0
S90
G01 Y84.25 F1200.0
S1
G00 X53.84 Y84.02 F3000.0
S90
G01 Y85.21 F1200.0
S1
G00 X54.04 Y84.98 F3000.0
S90
G01 Y83.75 F1200.0
S1
G00 X54.24 Y83.47 F3000.0
S90
G01 Y84.76 F1200.0
S1
G00 X54.44 Y84.53 F3000.0
S90
G01 Y83.19 F1200.0
S1
G00 X54.64 Y82.91 F3000.0
S90
G01 Y84.31 F1200.0
S1
G00 X53.44 Y84.47 F3000.0
S90
G01 Y85.67 F1200.0
S1
G00 X53.24 Y85.97 F3000.0
S90
G01 Y84.7 F1200.0
S1
G00 X53.04 Y84.92 F3000.0
S90
G01 Y86.31 F1200.0
S1
G00 X52.84 Y86.66 F3000.0
S90
G01 Y85.15 F1200.0
S1
G00 X52.44 Y85.16 F3000.0
S90
G01 Y87.07 F1200.0
S1
G00 X52.64 Y86.99 F3000.0
S90
G01 Y85.37 F1200.0
S1
G00 X52.64 Y84.61 F3000.0
S90
G01 Y82.29 F1200.0
S1
G00 X52.44 Y82.23 F3000.0
S90
G01 Y84.64 F1200.0
S1
G00 X52.04 Y84.73 F3000.0
S90
G01 Y86.78 F1200.0
S1
G00 X51.84 Y86.84 F3000.0
S90
G01 Y84.51 F1200.0
S1
G00 X51.64 Y84.3 F3000.0
S90
G01 Y86.9 F1200.0
S1
G00 X51.44 Y86.95 F3000.0
S90
G01 Y84.05 F1200.0
S1
G00 X51.24 Y83.8 F3000.0
S90
G01 Y85.59 F1200.0
S1
G00 X51.24 Y85.62 F3000.0
S90
G01 Y86.99 F1200.0
S1
G00 X52.24 Y86.87 F3000.0
S90
G01 Y84.94 F1200.0
S1
G00 X52.24 Y84.35 F3000.0
S90
G01 Y82.17 F1200.0
S1
G00 X52.04 Y82.19 F3000.0
S90
G01 Y83.86 F1200.0
S1
G00 X51.04 Y83.56 F3000.0
S90
G01 Y85.71 F1200.0
S1
G00 X50.84 Y85.83 F3000.0
S90
G01 Y83.18 F1200.0
S1
G00 X50.64 Y82.63 F3000.0
S90
G01 Y85.08 F1200.0
S1
G00 X50.64 Y85.29 F3000.0
S90
G01 Y85.96 F1200.0
S1
G00 X50.44 Y86.09 F3000.0
S90
G01 Y85.81 F1200.0
S1
G00 X50.44 Y85.1 F3000.0
S90
G01 Y76.63 F1200.0
S1
G00 X50.64 Y76.69 F3000.0
S90
G01 Y82.16 F1200.0
S1
G00 X49.04 Y81.71 F3000.0
S90
G01 Y80.96 F1200.0
S1
G00 X48.84 Y81.07 F3000.0
S90
G01 Y81.43 F1200.0
S1
G00 X47.64 Y81.85 F3000.0
S90
G01 Y86.78 F1200.0
S1
G00 X47.44 Y86.54 F3000.0
S90
G01 Y74.49 F1200.0
S1
G00 X47.64 Y74.46 F3000.0
S90
G01 Y79.07 F1200.0
S1
G00 X48.84 Y79.07 F3000.0
S90
G01 Y78.71 F1200.0
S1
G00 X49.04 Y78.67 F3000.0
S90
G01 Y79.27 F1200.0
S1
G00 X49.24 Y79.5 F3000.0
S90
G01 Y78.61 F1200.0
S1
G00 X49.44 Y78.04 F3000.0
S90
G01 Y83.78 F1200.0
S1
G00 X49.64 Y83.93 F3000.0
S90
G01 Y77.9 F1200.0
S1
G00 X49.84 Y77.49 F3000.0
S90
G01 Y85.13 F1200.0
S1
G00 X50.04 Y85.12 F3000.0
S90
G01 Y76.82 F1200.0
S1
G00 X50.24 Y76.71 F3000.0
S90
G01 Y85.11 F1200.0
S1
G00 X48.44 Y84.95 F3000.0
S90
G01 Y86.81 F1200.0
S1
G00 X48.24 Y86.94 F3000.0
S90
G01 Y84.29 F1200.0
S1
G00 X48.04 Y83.63 F3000.0
S90
G01 Y87.03 F1200.0
S1
G00 X47.84 Y87.02 F3000.0
S90
G01 Y82.76 F1200.0
S1
G00 X49.24 Y82.84 F3000.0
S90
G01 Y79.83 F1200.0
S1
G00 X47.24 Y77.86 F3000.0
S90
G01 Y86.32 F1200.0
S1
G00 X47.04 Y86.1 F3000.0
S90
G01 Y77.91 F1200.0
S1
G00 X46.84 Y77.95 F3000.0
S90
G01 Y86.03 F1200.0
S1
G00 X46.64 Y85.97 F3000.0
S90
G01 Y77.99 F1200.0
S1
G00 X46.44 Y78.03 F3000.0
S90
G01 Y85.92 F1200.0
S1
G00 X46.24 Y85.97 F3000.0
S90
G01 Y78.07 F1200.0
S1
G00 X46.04 Y78.11 F3000.0
S90
G01 Y86.02 F1200.0
S1
G00 X45.84 Y86.08 F3000.0
S90
G01 Y78.14 F1200.0
S1
G00 X45.64 Y78.18 F3000.0
S90
G01 Y86.27 F1200.0
S1
G00 X45.44 Y86.47 F3000.0
S90
G01 Y78.18 F1200.0
S1
G00 X45.24 Y78.15 F3000.0
S90
G01 Y86.67 F1200.0
S1
G00 X45.04 Y86.88 F3000.0
S90
G01 Y75.14 F1200.0
S1
G00 X44.84 Y75.19 F3000.0
S90
G01 Y86.97 F1200.0
S1
G00 X44.64 Y86.9 F3000.0
S90
G01 Y83.08 F1200.0
S1
G00 X44.24 Y82.95 F3000.0
S90
G01 Y82.66 F1200.0
S1
G00 X44.04 Y82.36 F3000.0
S90
G01 Y83.25 F1200.0
S1
G00 X43.84 Y83.48 F3000.0
S90
G01 Y82.09 F1200.0
S1
G00 X43.64 Y81.92 F3000.0
S90
G01 Y83.62 F1200.0
S1
G00 X43.44 Y83.77 F3000.0
S90
G01 Y81.75 F1200.0
S1
G00 X43.24 Y81.58 F3000.0
S90
G01 Y83.45 F1200.0
S1
G00 X43.04 Y83.02 F3000.0
S90
G01 Y81.47 F1200.0
S1
G00 X42.84 Y81.47 F3000.0
S90
G01 Y82.72 F1200.0
S1
G00 X42.64 Y82.66 F3000.0
S90
G01 Y81.6 F1200.0
S1
G00 X42.64 Y81.24 F3000.0
S90
G01 Y77.83 F1200.0
S1
G00 X42.84 Y77.85 F3000.0
S90
G01 Y81.12 F1200.0
S1
G00 X43.04 Y80.99 F3000.0
S90
G01 Y77.87 F1200.0
S1
G00 X43.24 Y77.88 F3000.0
S90
G01 Y80.96 F1200.0
S1
G00 X43.44 Y80.98 F3000.0
S90
G01 Y77.93 F1200.0
S1
G00 X43.64 Y78.04 F3000.0
S90
G01 Y81.0 F1200.0
S1
G00 X43.84 Y81.02 F3000.0
S90
G01 Y78.24 F1200.0
S1
G00 X44.04 Y78.3 F3000.0
S90
G01 Y81.22 F1200.0
S1
G00 X44.24 Y81.43 F3000.0
S90
G01 Y78.34 F1200.0
S1
G00 X44.44 Y78.32 F3000.0
S90
G01 Y81.76 F1200.0
S1
G00 X44.64 Y82.48 F3000.0
S90
G01 Y75.16 F1200.0
S1
G00 X44.44 Y75.14 F3000.0
S90
G01 Y77.96 F1200.0
S1
G00 X44.24 Y77.59 F3000.0
S90
G01 Y75.11 F1200.0
S1
G00 X44.04 Y75.09 F3000.0
S90
G01 Y77.31 F1200.0
S1
G00 X43.84 Y77.09 F3000.0
S90
G01 Y75.04 F1200.0
S1
G00 X43.64 Y74.93 F3000.0
S90
G01 Y76.86 F1200.0
S1
G00 X43.44 Y76.85 F3000.0
S90
G01 Y74.81 F1200.0
S1
G00 X43.24 Y74.69 F3000.0
S90
G01 Y76.96 F1200.0
S1
G00 X43.04 Y77.13 F3000.0
S90
G01 Y74.57 F1200.0
S1
G00 X42.84 Y74.33 F3000.0
S90
G01 Y77.27 F1200.0
S1
G00 X42.64 Y77.41 F3000.0
S90
G01 Y74.09 F1200.0
S1
G00 X42.44 Y73.85 F3000.0
S90
G01 Y77.54 F1200.0
S1
G00 X42.24 Y77.51 F3000.0
S90
G01 Y73.5 F1200.0
S1
G00 X42.04 Y73.06 F3000.0
S90
G01 Y77.35 F1200.0
S1
G00 X42.04 Y77.73 F3000.0
S90
G01 Y81.81 F1200.0
S1
G00 X42.24 Y81.55 F3000.0
S90
G01 Y77.76 F1200.0
S1
G00 X42.44 Y77.8 F3000.0
S90
G01 Y81.36 F1200.0
S1
G00 X42.44 Y81.88 F3000.0
S90
G01 Y82.64 F1200.0
S1
G00 X41.84 Y82.14 F3000.0
S90
G01 Y77.69 F1200.0
S1
G00 X41.84 Y76.96 F3000.0
S90
G01 Y71.92 F1200.0
S1
G00 X41.84 Y71.79 F3000.0
S90
G01 Y67.67 F1200.0
S1
G00 X41.64 Y68.08 F3000.0
S90
G01 Y76.02 F1200.0
S1
G00 X41.44 Y75.44 F3000.0
S90
G01 Y68.44 F1200.0
S1
G00 X41.24 Y68.71 F3000.0
S90
G01 Y75.37 F1200.0
S1
G00 X41.04 Y75.3 F3000.0
S90
G01 Y68.81 F1200.0
S1
G00 X40.84 Y68.92 F3000.0
S90
G01 Y75.24 F1200.0
S1
G00 X40.64 Y75.16 F3000.0
S90
G01 Y69.03 F1200.0
S1
G00 X40.44 Y69.1 F3000.0
S90
G01 Y70.55 F1200.0
S1
G00 X40.44 Y70.94 F3000.0
S90
G01 Y73.2 F1200.0
S1
G00 X40.24 Y73.07 F3000.0
S90
G01 Y71.13 F1200.0
S1
G00 X40.04 Y71.32 F3000.0
S90
G01 Y72.92 F1200.0
S1
G00 X39.84 Y72.75 F3000.0
S90
G01 Y71.52 F1200.0
S1
G00 X39.64 Y72.01 F3000.0
S90
G01 Y72.29 F1200.0
S1
G00 X38.44 Y72.21 F3000.0
S90
G01 Y72.56 F1200.0
S1
G00 X38.24 Y72.89 F3000.0
S90
G01 Y71.67 F1200.0
S1
G00 X38.04 Y71.35 F3000.0
S90
G01 Y73.19 F1200.0
S1
G00 X37.84 Y73.38 F3000.0
S90
G01 Y71.08 F1200.0
S1
G00 X37.64 Y70.85 F3000.0
S90
G01 Y71.51 F1200.0
S1
G00 X37.44 Y71.24 F3000.0
S90
G01 Y70.7 F1200.0
S1
G00 X37.24 Y70.55 F3000.0
S90
G01 Y70.98 F1200.0
S1
G00 X37.04 Y71.64 F3000.0
S90
G01 Y72.21 F1200.0
S1
G00 X36.84 Y72.52 F3000.0
S90
G01 Y71.47 F1200.0
S1
G00 X36.64 Y71.36 F3000.0
S90
G01 Y72.77 F1200.0
S1
G00 X36.44 Y72.95 F3000.0
S90
G01 Y71.26 F1200.0
S1
G00 X36.24 Y71.18 F3000.0
S90
G01 Y73.1 F1200.0
S1
G00 X36.04 Y73.24 F3000.0
S90
G01 Y71.12 F1200.0
S1
G00 X35.84 Y71.06 F3000.0
S90
G01 Y73.28 F1200.0
S1
G00 X35.64 Y73.31 F3000.0
S90
G01 Y71.02 F1200.0
S1
G00 X35.44 Y71.04 F3000.0
S90
G01 Y73.08 F1200.0
S1
G00 X34.84 Y73.11 F3000.0
S90
G01 Y73.75 F1200.0
S1
G00 X35.24 Y73.74 F3000.0
S90
G01 Y74.2 F1200.0
S1
G00 X35.44 Y74.4 F3000.0
S90
G01 Y73.91 F1200.0
S1
G00 X35.64 Y74.05 F3000.0
S90
G01 Y74.57 F1200.0
S1
G00 X35.84 Y74.74 F3000.0
S90
G01 Y74.18 F1200.0
S1
G00 X36.04 Y74.31 F3000.0
S90
G01 Y74.91 F1200.0
S1
G00 X36.24 Y75.08 F3000.0
S90
G01 Y74.35 F1200.0
S1
G00 X36.44 Y74.39 F3000.0
S90
G01 Y75.24 F1200.0
S1
G00 X36.64 Y75.33 F3000.0
S90
G01 Y74.43 F1200.0
S1
G00 X36.84 Y74.47 F3000.0
S90
G01 Y75.43 F1200.0
S1
G00 X37.04 Y75.53 F3000.0
S90
G01 Y74.47 F1200.0
S1
G00 X37.24 Y74.44 F3000.0
S90
G01 Y75.56 F1200.0
S1
G00 X37.44 Y75.51 F3000.0
S90
G01 Y74.4 F1200.0
S1
G00 X37.64 Y74.36 F3000.0
S90
G01 Y75.46 F1200.0
S1
G00 X37.84 Y75.37 F3000.0
S90
G01 Y74.33 F1200.0
S1
G00 X38.04 Y74.28 F3000.0
S90
G01 Y75.26 F1200.0
S1
G00 X38.24 Y75.14 F3000.0
S90
G01 Y74.23 F1200.0
S1
G00 X38.44 Y74.18 F3000.0
S90
G01 Y74.97 F1200.0
S1
G00 X38.64 Y74.78 F3000.0
S90
G01 Y74.12 F1200.0
S1
G00 X38.84 Y74.16 F3000.0
S90
G01 Y74.44 F1200.0
S1
G00 X39.64 Y74.33 F3000.0
S90
G01 Y74.06 F1200.0
S1
G00 X39.84 Y73.98 F3000.0
S90
G01 Y74.71 F1200.0
S1
G00 X40.04 Y74.93 F3000.0
S90
G01 Y73.9 F1200.0
S1
G00 X40.24 Y73.84 F3000.0
S90
G01 Y75.01 F1200.0
S1
G00 X40.44 Y75.09 F3000.0
S90
G01 Y73.78 F1200.0
S1
G00 X37.64 Y73.57 F3000.0
S90
G01 Y72.09 F1200.0
S1
G00 X37.44 Y72.64 F3000.0
S90
G01 Y73.74 F1200.0
S1
G00 X37.24 Y73.8 F3000.0
S90
G01 Y73.14 F1200.0
S1
G00 X35.04 Y73.43 F3000.0
S90
G01 Y73.97 F1200.0
S1
G00 X34.64 Y73.53 F3000.0
S90
G01 Y72.78 F1200.0
S1
G00 X34.24 Y72.9 F3000.0
S90
G01 Y72.22 F1200.0
S1
G00 X34.44 Y72.43 F3000.0
S90
G01 Y73.28 F1200.0
S1
G00 X35.24 Y72.64 F3000.0
S90
G01 Y71.28 F1200.0
S1
G00 X34.44 Y70.78 F3000.0
S90
G01 Y69.93 F1200.0
S1
G00 X34.64 Y69.65 F3000.0
S90
G01 Y70.57 F1200.0
S1
G00 X34.84 Y70.36 F3000.0
S90
G01 Y69.54 F1200.0
S1
G00 X35.04 Y69.49 F3000.0
S90
G01 Y70.15 F1200.0
S1
G00 X35.24 Y69.94 F3000.0
S90
G01 Y69.43 F1200.0
S1
G00 X35.44 Y69.43 F3000.0
S90
G01 Y69.9 F1200.0
S1
G00 X35.64 Y69.89 F3000.0
S90
G01 Y69.45 F1200.0
S1
G00 X35.84 Y69.46 F3000.0
S90
G01 Y69.87 F1200.0
S1
G00 X36.04 Y69.88 F3000.0
S90
G01 Y69.56 F1200.0
S1
G00 X36.24 Y69.69 F3000.0
S90
G01 Y69.9 F1200.0
S1
G00 X36.24 Y68.65 F3000.0
S90
G01 Y67.95 F1200.0
S1
G00 X36.44 Y68.12 F3000.0
S90
G01 Y68.76 F1200.0
S1
G00 X36.64 Y68.86 F3000.0
S90
G01 Y68.26 F1200.0
S1
G00 X36.84 Y68.33 F3000.0
S90
G01 Y68.92 F1200.0
S1
G00 X37.04 Y68.99 F3000.0
S90
G01 Y68.39 F1200.0
S1
G00 X37.24 Y68.29 F3000.0
S90
G01 Y69.05 F1200.0
S1
G00 X37.44 Y69.11 F3000.0
S90
G01 Y66.61 F1200.0
S1
G00 X37.64 Y66.66 F3000.0
S90
G01 Y69.17 F1200.0
S1
G00 X37.84 Y69.18 F3000.0
S90
G01 Y66.65 F1200.0
S1
G00 X38.04 Y66.61 F3000.0
S90
G01 Y67.86 F1200.0
S1
G00 X38.24 Y67.64 F3000.0
S90
G01 Y66.56 F1200.0
S1
G00 X38.44 Y66.31 F3000.0
S90
G01 Y67.47 F1200.0
S1
G00 X38.64 Y67.37 F3000.0
S90
G01 Y64.43 F1200.0
S1
G00 X38.44 Y64.28 F3000.0
S90
G01 Y65.79 F1200.0
S1
G00 X38.24 Y65.36 F3000.0
S90
G01 Y63.95 F1200.0
S1
G00 X38.24 Y63.93 F3000.0
S90
G01 Y62.56 F1200.0
S1
G00 X38.04 Y62.48 F3000.0
S90
G01 Y65.14 F1200.0
S1
G00 X37.84 Y65.07 F3000.0
S90
G01 Y62.4 F1200.0
S1
G00 X37.64 Y62.31 F3000.0
S90
G01 Y65.0 F1200.0
S1
G00 X37.44 Y65.07 F3000.0
S90
G01 Y63.09 F1200.0
S1
G00 X37.24 Y63.82 F3000.0
S90
G01 Y65.18 F1200.0
S1
G00 X37.04 Y65.39 F3000.0
S90
G01 Y64.36 F1200.0
S1
G00 X36.84 Y64.53 F3000.0
S90
G01 Y67.36 F1200.0
S1
G00 X36.64 Y67.25 F3000.0
S90
G01 Y64.59 F1200.0
S1
G00 X36.44 Y64.61 F3000.0
S90
G01 Y67.19 F1200.0
S1
G00 X36.24 Y67.19 F3000.0
S90
G01 Y64.57 F1200.0
S1
G00 X36.04 Y64.54 F3000.0
S90
G01 Y65.29 F1200.0
S1
G00 X35.84 Y65.08 F3000.0
S90
G01 Y64.32 F1200.0
S1
G00 X35.84 Y64.32 F3000.0
S90
G01 Y63.14 F1200.0
S1
G00 X36.04 Y63. F3000.0
S90
G01 Y63.89 F1200.0
S1
G00 X36.24 Y63.68 F3000.0
S90
G01 Y62.93 F1200.0
S1
G00 X36.44 Y62.87 F3000.0
S90
G01 Y63.47 F1200.0
S1
G00 X36.64 Y63.26 F3000.0
S90
G01 Y62.84 F1200.0
S1
G00 X36.64 Y61.76 F3000.0
S90
G01 Y56.15 F1200.0
S1
G00 X36.44 Y56.17 F3000.0
S90
G01 Y61.76 F1200.0
S1
G00 X36.24 Y61.76 F3000.0
S90
G01 Y56.14 F1200.0
S1
G00 X36.04 Y56.08 F3000.0
S90
G01 Y61.76 F1200.0
S1
G00 X35.84 Y61.76 F3000.0
S90
G01 Y56.03 F1200.0
S1
G00 X35.64 Y55.97 F3000.0
S90
G01 Y61.76 F1200.0
S1
G00 X35.44 Y61.76 F3000.0
S90
G01 Y55.82 F1200.0
S1
G00 X35.24 Y55.67 F3000.0
S90
G01 Y61.76 F1200.0
S1
G00 X35.04 Y61.76 F3000.0
S90
G01 Y55.52 F1200.0
S1
G00 X34.84 Y54.98 F3000.0
S90
G01 Y61.76 F1200.0
S1
G00 X34.64 Y61.76 F3000.0
S90
G01 Y49.33 F1200.0
S1
G00 X34.44 Y49.33 F3000.0
S90
G01 Y61.76 F1200.0
S1
G00 X34.24 Y61.76 F3000.0
S90
G01 Y49.33 F1200.0
S1
G00 X34.04 Y49.32 F3000.0
S90
G01 Y61.76 F1200.0
S1
G00 X33.84 Y61.76 F3000.0
S90
G01 Y49.3 F1200.0
S1
G00 X33.64 Y49.29 F3000.0
S90
G01 Y61.76 F1200.0
S1
G00 X33.44 Y61.76 F3000.0
S90
G01 Y49.28 F1200.0
S1
G00 X33.24 Y49.27 F3000.0
S90
G01 Y58.76 F1200.0
S1
G00 X33.04 Y58.26 F3000.0
S90
G01 Y49.26 F1200.0
S1
G00 X32.84 Y49.27 F3000.0
S90
G01 Y57.94 F1200.0
S1
G00 X32.64 Y57.71 F3000.0
S90
G01 Y49.29 F1200.0
S1
G00 X32.44 Y49.32 F3000.0
S90
G01 Y57.48 F1200.0
S1
G00 X32.24 Y57.29 F3000.0
S90
G01 Y49.35 F1200.0
S1
G00 X32.04 Y49.37 F3000.0
S90
G01 Y57.13 F1200.0
S1
G00 X31.84 Y56.96 F3000.0
S90
G01 Y49.49 F1200.0
S1
G00 X31.64 Y49.62 F3000.0
S90
G01 Y56.79 F1200.0
S1
G00 X31.44 Y56.62 F3000.0
S90
G01 Y49.95 F1200.0
S1
G00 X31.24 Y50.51 F3000.0
S90
G01 Y56.46 F1200.0
S1
G00 X31.04 Y56.33 F3000.0
S90
G01 Y50.88 F1200.0
S1
G00 X30.84 Y51.03 F3000.0
S90
G01 Y56.2 F1200.0
S1
G00 X30.64 Y56.08 F3000.0
S90
G01 Y51.18 F1200.0
S1
G00 X30.44 Y51.33 F3000.0
S90
G01 Y55.95 F1200.0
S1
G00 X30.24 Y55.82 F3000.0
S90
G01 Y53.12 F1200.0
S1
G00 X30.24 Y52.71 F3000.0
S90
G01 Y51.47 F1200.0
S1
G00 X30.04 Y51.61 F3000.0
S90
G01 Y52.63 F1200.0
S1
G00 X29.84 Y52.54 F3000.0
S90
G01 Y51.84 F1200.0
S1
G00 X29.84 Y50.77 F3000.0
S90
G01 Y50.3 F1200.0
S1
G00 X29.64 Y50.16 F3000.0
S90
G01 Y50.93 F1200.0
S1
G00 X29.44 Y51.09 F3000.0
S90
G01 Y50.02 F1200.0
S1
G00 X29.24 Y49.86 F3000.0
S90
G01 Y51.26 F1200.0
S1
G00 X29.04 Y51.48 F3000.0
S90
G01 Y49.69 F1200.0
S1
G00 X28.84 Y49.51 F3000.0
S90
G01 Y51.7 F1200.0
S1
G00 X28.84 Y52.55 F3000.0
S90
G01 Y53.6 F1200.0
S1
G00 X28.64 Y53.75 F3000.0
S90
G01 Y49.18 F1200.0
S1
G00 X28.64 Y49.16 F3000.0
S90
G01 Y47.5 F1200.0
S1
G00 X28.44 Y47.35 F3000.0
S90
G01 Y53.87 F1200.0
S1
G00 X28.24 Y53.91 F3000.0
S90
G01 Y47.33 F1200.0
S1
G00 X28.04 Y47.32 F3000.0
S90
G01 Y53.95 F1200.0
S1
G00 X27.84 Y53.98 F3000.0
S90
G01 Y47.31 F1200.0
S1
G00 X27.64 Y47.35 F3000.0
S90
G01 Y54.07 F1200.0
S1
G00 X27.44 Y54.16 F3000.0
S90
G01 Y47.31 F1200.0
S1
G00 X27.24 Y46.46 F3000.0
S90
G01 Y54.79 F1200.0
S1
G00 X26.64 Y54.8 F3000.0
S90
G01 Y52.01 F1200.0
S1
G00 X26.84 Y51.74 F3000.0
S90
G01 Y55.72 F1200.0
S1
G00 X27.04 Y55.68 F3000.0
S90
G01 Y51.21 F1200.0
S1
G00 X27.04 Y49.69 F3000.0
S90
G01 Y45.54 F1200.0
S1
G00 X26.84 Y45.51 F3000.0
S90
G01 Y49.3 F1200.0
S1
G00 X26.64 Y48.98 F3000.0
S90
G01 Y45.57 F1200.0
S1
G00 X26.44 Y45.65 F3000.0
S90
G01 Y48.66 F1200.0
S1
G00 X26.24 Y48.42 F3000.0
S90
G01 Y45.73 F1200.0
S1
G00 X26.04 Y45.81 F3000.0
S90
G01 Y48.25 F1200.0
S1
G00 X25.84 Y48.08 F3000.0
S90
G01 Y45.89 F1200.0
S1
G00 X25.64 Y45.96 F3000.0
S90
G01 Y47.91 F1200.0
S1
G00 X25.44 Y47.73 F3000.0
S90
G01 Y45.95 F1200.0
S1
G00 X25.24 Y45.94 F3000.0
S90
G01 Y47.66 F1200.0
S1
G00 X25.04 Y47.61 F3000.0
S90
G01 Y45.62 F1200.0
S1
G00 X24.84 Y45.26 F3000.0
S90
G01 Y47.55 F1200.0
S1
G00 X24.64 Y47.5 F3000.0
S90
G01 Y44.94 F1200.0
S1
G00 X24.44 Y44.82 F3000.0
S90
G01 Y47.45 F1200.0
S1
G00 X24.24 Y47.5 F3000.0
S90
G01 Y44.74 F1200.0
S1
G00 X24.04 Y44.79 F3000.0
S90
G01 Y47.55 F1200.0
S1
G00 X23.84 Y47.61 F3000.0
S90
G01 Y45.11 F1200.0
S1
G00 X23.64 Y45.71 F3000.0
S90
G01 Y47.67 F1200.0
S1
G00 X23.44 Y47.73 F3000.0
S90
G01 Y45.89 F1200.0
S1
G00 X23.24 Y45.94 F3000.0
S90
G01 Y47.88 F1200.0
S1
G00 X23.04 Y48.05 F3000.0
S90
G01 Y45.95 F1200.0
S1
G00 X22.84 Y45.86 F3000.0
S90
G01 Y48.21 F1200.0
S1
G00 X22.64 Y48.38 F3000.0
S90
G01 Y45.76 F1200.0
S1
G00 X22.44 Y45.66 F3000.0
S90
G01 Y48.54 F1200.0
S1
G00 X22.24 Y48.78 F3000.0
S90
G01 Y45.57 F1200.0
S1
G00 X22.04 Y45.48 F3000.0
S90
G01 Y49.04 F1200.0
S1
G00 X21.84 Y49.3 F3000.0
S90
G01 Y45.51 F1200.0
S1
G00 X21.64 Y45.55 F3000.0
S90
G01 Y49.7 F1200.0
S1
G00 X22.64 Y50. F3000.0
S90
G01 Y49.06 F1200.0
S1
G00 X22.84 Y48.86 F3000.0
S90
G01 Y50.09 F1200.0
S1
G00 X23.04 Y50.11 F3000.0
S90
G01 Y49.71 F1200.0
S1
G00 X23.24 Y49.77 F3000.0
S90
G01 Y50.13 F1200.0
S1
G00 X23.44 Y50.14 F3000.0
S90
G01 Y49.79 F1200.0
S1
G00 X23.64 Y49.81 F3000.0
S90
G01 Y50.16 F1200.0
S1
G00 X23.84 Y50.18 F3000.0
S90
G01 Y49.83 F1200.0
S1
G00 X24.04 Y49.85 F3000.0
S90
G01 Y50.19 F1200.0
S1
G00 X24.24 Y50.2 F3000.0
S90
G01 Y49.85 F1200.0
S1
G00 X24.44 Y49.82 F3000.0
S90
G01 Y50.17 F1200.0
S1
G00 X24.64 Y50.15 F3000.0
S90
G01 Y49.79 F1200.0
S1
G00 X24.84 Y49.77 F3000.0
S90
G01 Y50.13 F1200.0
S1
G00 X25.04 Y50.11 F3000.0
S90
G01 Y49.73 F1200.0
S1
G00 X25.24 Y49.61 F3000.0
S90
G01 Y50.09 F1200.0
S1
G00 X25.44 Y50.04 F3000.0
S90
G01 Y49.48 F1200.0
S1
G00 X25.44 Y49.01 F3000.0
S90
G01 Y48.48 F1200.0
S1
G00 X25.24 Y48.36 F3000.0
S90
G01 Y48.87 F1200.0
S1
G00 X25.04 Y48.74 F3000.0
S90
G01 Y48.28 F1200.0
S1
G00 X24.84 Y48.25 F3000.0
S90
G01 Y48.66 F1200.0
S1
G00 X24.64 Y48.59 F3000.0
S90
G01 Y48.21 F1200.0
S1
G00 X24.44 Y48.21 F3000.0
S90
G01 Y48.53 F1200.0
S1
G00 X24.24 Y48.58 F3000.0
S90
G01 Y48.24 F1200.0
S1
G00 X24.04 Y48.26 F3000.0
S90
G01 Y48.68 F1200.0
S1
G00 X23.84 Y48.77 F3000.0
S90
G01 Y48.32 F1200.0
S1
G00 X23.64 Y48.39 F3000.0
S90
G01 Y48.87 F1200.0
S1
G00 X23.44 Y48.97 F3000.0
S90
G01 Y48.47 F1200.0
S1
G00 X23.24 Y48.55 F3000.0
S90
G01 Y49.07 F1200.0
S1
G00 X23.04 Y49.28 F3000.0
S90
G01 Y48.7 F1200.0
S1
G00 X25.64 Y48.59 F3000.0
S90
G01 Y49.94 F1200.0
S1
G00 X25.84 Y49.84 F3000.0
S90
G01 Y48.8 F1200.0
S1
G00 X26.04 Y49.03 F3000.0
S90
G01 Y49.74 F1200.0
S1
G00 X26.44 Y52.27 F3000.0
S90
G01 Y54.29 F1200.0
S1
G00 X26.24 Y54.18 F3000.0
S90
G01 Y52.54 F1200.0
S1
G00 X26.04 Y52.77 F3000.0
S90
G01 Y54.07 F1200.0
S1
G00 X25.84 Y53.98 F3000.0
S90
G01 Y52.98 F1200.0
S1
G00 X25.64 Y53.18 F3000.0
S90
G01 Y53.93 F1200.0
S1
G00 X25.44 Y53.88 F3000.0
S90
G01 Y53.39 F1200.0
S1
G00 X25.24 Y53.59 F3000.0
S90
G01 Y53.83 F1200.0
S1
G00 X25.24 Y54.33 F3000.0
S90
G01 Y58.17 F1200.0
S1
G00 X25.44 Y58.04 F3000.0
S90
G01 Y54.34 F1200.0
S1
G00 X25.64 Y54.35 F3000.0
S90
G01 Y57.91 F1200.0
S1
G00 X25.84 Y57.77 F3000.0
S90
G01 Y54.41 F1200.0
S1
G00 X26.04 Y54.51 F3000.0
S90
G01 Y57.62 F1200.0
S1
G00 X26.24 Y57.34 F3000.0
S90
G01 Y55.34 F1200.0
S1
G00 X25.04 Y54.31 F3000.0
S90
G01 Y58.29 F1200.0
S1
G00 X24.84 Y58.44 F3000.0
S90
G01 Y54.28 F1200.0
S1
G00 X24.64 Y54.26 F3000.0
S90
G01 Y56.38 F1200.0
S1
G00 X24.44 Y56.03 F3000.0
S90
G01 Y54.24 F1200.0
S1
G00 X24.24 Y54.11 F3000.0
S90
G01 Y55.85 F1200.0
S1
G00 X24.04 Y55.71 F3000.0
S90
G01 Y53.84 F1200.0
S1
G00 X23.84 Y53.46 F3000.0
S90
G01 Y55.56 F1200.0
S1
G00 X23.64 Y55.41 F3000.0
S90
G01 Y53.09 F1200.0
S1
G00 X23.44 Y52.89 F3000.0
S90
G01 Y55.26 F1200.0
S1
G00 X23.24 Y55.14 F3000.0
S90
G01 Y52.69 F1200.0
S1
G00 X23.04 Y52.73 F3000.0
S90
G01 Y55.04 F1200.0
S1
G00 X22.84 Y54.94 F3000.0
S90
G01 Y52.93 F1200.0
S1
G00 X22.64 Y53.13 F3000.0
S90
G01 Y54.84 F1200.0
S1
G00 X22.44 Y54.74 F3000.0
S90
G01 Y53.38 F1200.0
S1
G00 X22.24 Y53.55 F3000.0
S90
G01 Y54.64 F1200.0
S1
G00 X22.04 Y54.54 F3000.0
S90
G01 Y53.57 F1200.0
S1
G00 X21.84 Y53.42 F3000.0
S90
G01 Y54.44 F1200.0
S1
G00 X21.64 Y54.4 F3000.0
S90
G01 Y53.27 F1200.0
S1
G00 X21.44 Y53.12 F3000.0
S90
G01 Y54.45 F1200.0
S1
G00 X21.24 Y54.73 F3000.0
S90
G01 Y52.96 F1200.0
S1
G00 X21.04 Y52.77 F3000.0
S90
G01 Y58.21 F1200.0
S1
G00 X20.84 Y58.15 F3000.0
S90
G01 Y52.58 F1200.0
S1
G00 X20.64 Y52.4 F3000.0
S90
G01 Y58.11 F1200.0
S1
G00 X20.44 Y58.16 F3000.0
S90
G01 Y52.29 F1200.0
S1
G00 X20.24 Y52.59 F3000.0
S90
G01 Y58.22 F1200.0
S1
G00 X20.04 Y58.27 F3000.0
S90
G01 Y52.89 F1200.0
S1
G00 X19.84 Y53.18 F3000.0
S90
G01 Y54.51 F1200.0
S1
G00 X19.64 Y54.4 F3000.0
S90
G01 Y53.44 F1200.0
S1
G00 X19.44 Y53.57 F3000.0
S90
G01 Y54.4 F1200.0
S1
G00 X19.24 Y54.48 F3000.0
S90
G01 Y53.52 F1200.0
S1
G00 X19.04 Y53.43 F3000.0
S90
G01 Y54.56 F1200.0
S1
G00 X18.84 Y54.64 F3000.0
S90
G01 Y53.33 F1200.0
S1
G00 X18.64 Y53.24 F3000.0
S90
G01 Y54.75 F1200.0
S1
G00 X18.44 Y54.89 F3000.0
S90
G01 Y53.14 F1200.0
S1
G00 X18.24 Y53.03 F3000.0
S90
G01 Y55.03 F1200.0
S1
G00 X18.04 Y55.17 F3000.0
S90
G01 Y52.93 F1200.0
S1
G00 X17.84 Y52.83 F3000.0
S90
G01 Y55.31 F1200.0
S1
G00 X17.64 Y55.44 F3000.0
S90
G01 Y52.82 F1200.0
S1
G00 X17.44 Y52.8 F3000.0
S90
G01 Y55.59 F1200.0
S1
G00 X17.24 Y55.77 F3000.0
S90
G01 Y52.89 F1200.0
S1
G00 X17.04 Y53.09 F3000.0
S90
G01 Y55.94 F1200.0
S1
G00 X16.84 Y56.11 F3000.0
S90
G01 Y53.93 F1200.0
S1
G00 X16.64 Y54.2 F3000.0
S90
G01 Y56.28 F1200.0
S1
G00 X16.44 Y56.52 F3000.0
S90
G01 Y54.25 F1200.0
S1
G00 X16.24 Y54.31 F3000.0
S90
G01 Y56.83 F1200.0
S1
G00 X16.24 Y57.2 F3000.0
S90
G01 Y58.52 F1200.0
S1
G00 X16.04 Y58.39 F3000.0
S90
G01 Y54.34 F1200.0
S1
G00 X15.84 Y54.37 F3000.0
S90
G01 Y58.25 F1200.0
S1
G00 X15.64 Y58.21 F3000.0
S90
G01 Y54.39 F1200.0
S1
G00 X15.44 Y54.42 F3000.0
S90
G01 Y58.26 F1200.0
S1
G00 X15.24 Y58.38 F3000.0
S90
G01 Y54.49 F1200.0
S1
G00 X15.04 Y54.58 F3000.0
S90
G01 Y55.72 F1200.0
S1
G00 X14.84 Y55.46 F3000.0
S90
G01 Y54.67 F1200.0
S1
G00 X14.24 Y54.25 F3000.0
S90
G01 Y52.7 F1200.0
S1
G00 X14.04 Y53.01 F3000.0
S90
G01 Y55.8 F1200.0
S1
G00 X13.84 Y55.98 F3000.0
S90
G01 Y53.33 F1200.0
S1
G00 X13.64 Y53.65 F3000.0
S90
G01 Y56.02 F1200.0
S1
G00 X13.44 Y56.09 F3000.0
S90
G01 Y53.97 F1200.0
S1
G00 X13.24 Y54.28 F3000.0
S90
G01 Y56.18 F1200.0
S1
G00 X13.04 Y56.26 F3000.0
S90
G01 Y54.6 F1200.0
S1
G00 X12.84 Y54.92 F3000.0
S90
G01 Y56.51 F1200.0
S1
G00 X12.64 Y56.82 F3000.0
S90
G01 Y55.23 F1200.0
S1
G00 X12.44 Y55.59 F3000.0
S90
G01 Y57.33 F1200.0
S1
G00 X13.24 Y57.34 F3000.0
S90
G01 Y57.67 F1200.0
S1
G00 X13.44 Y57.86 F3000.0
S90
G01 Y57.16 F1200.0
S1
G00 X13.64 Y57.02 F3000.0
S90
G01 Y58.1 F1200.0
S1
G00 X13.64 Y59.27 F3000.0
S90
G01 Y61.14 F1200.0
S1
G00 X13.44 Y60.92 F3000.0
S90
G01 Y59.56 F1200.0
S1
G00 X13.24 Y59.77 F3000.0
S90
G01 Y60.8 F1200.0
S1
G00 X13.04 Y60.69 F3000.0
S90
G01 Y59.96 F1200.0
S1
G00 X12.84 Y60.1 F3000.0
S90
G01 Y60.63 F1200.0
S1
G00 X12.64 Y60.57 F3000.0
S90
G01 Y60.24 F1200.0
S1
G00 X12.24 Y60.65 F3000.0
S90
G01 Y62.54 F1200.0
S1
G00 X12.44 Y62.29 F3000.0
S90
G01 Y61.23 F1200.0
S1
G00 X12.64 Y61.39 F3000.0
S90
G01 Y62.05 F1200.0
S1
G00 X12.84 Y61.8 F3000.0
S90
G01 Y61.53 F1200.0
S1
G00 X13.64 Y62.22 F3000.0
S90
G01 Y63.54 F1200.0
S1
G00 X13.84 Y63.6 F3000.0
S90
G01 Y56.93 F1200.0
S1
G00 X14.04 Y56.84 F3000.0
S90
G01 Y63.63 F1200.0
S1
G00 X14.24 Y63.67 F3000.0
S90
G01 Y56.76 F1200.0
S1
G00 X14.44 Y56.67 F3000.0
S90
G01 Y63.71 F1200.0
S1
G00 X14.64 Y63.87 F3000.0
S90
G01 Y56.58 F1200.0
S1
G00 X14.84 Y56.5 F3000.0
S90
G01 Y64.05 F1200.0
S1
G00 X14.84 Y64.82 F3000.0
S90
G01 Y66.11 F1200.0
S1
G00 X15.04 Y66.19 F3000.0
S90
G01 Y61.39 F1200.0
S1
G00 X15.24 Y61.84 F3000.0
S90
G01 Y66.21 F1200.0
S1
G00 X15.44 Y66.12 F3000.0
S90
G01 Y62.07 F1200.0
S1
G00 X15.64 Y62.14 F3000.0
S90
G01 Y66.04 F1200.0
S1
G00 X15.84 Y65.96 F3000.0
S90
G01 Y62.2 F1200.0
S1
G00 X16.04 Y62.17 F3000.0
S90
G01 Y65.88 F1200.0
S1
G00 X16.24 Y65.8 F3000.0
S90
G01 Y62.11 F1200.0
S1
G00 X16.44 Y61.91 F3000.0
S90
G01 Y65.86 F1200.0
S1
G00 X16.64 Y65.92 F3000.0
S90
G01 Y63.69 F1200.0
S1
G00 X16.64 Y63.41 F3000.0
S90
G01 Y61.53 F1200.0
S1
G00 X16.04 Y61.41 F3000.0
S90
G01 Y60.57 F1200.0
S1
G00 X15.84 Y60.57 F3000.0
S90
G01 Y61.1 F1200.0
S1
G00 X16.84 Y60.93 F3000.0
S90
G01 Y63.05 F1200.0
S1
G00 X17.04 Y62.98 F3000.0
S90
G01 Y57.39 F1200.0
S1
G00 X17.24 Y57.4 F3000.0
S90
G01 Y62.93 F1200.0
S1
G00 X17.44 Y62.97 F3000.0
S90
G01 Y57.36 F1200.0
S1
G00 X17.64 Y57.33 F3000.0
S90
G01 Y63.02 F1200.0
S1
G00 X17.84 Y63.07 F3000.0
S90
G01 Y57.3 F1200.0
S1
G00 X18.04 Y57.26 F3000.0
S90
G01 Y63.14 F1200.0
S1
G00 X18.24 Y63.24 F3000.0
S90
G01 Y57.22 F1200.0
S1
G00 X18.44 Y57.12 F3000.0
S90
G01 Y63.34 F1200.0
S1
G00 X18.64 Y63.44 F3000.0
S90
G01 Y60.74 F1200.0
S1
G00 X19.24 Y60.75 F3000.0
S90
G01 Y59.45 F1200.0
S1
G00 X19.44 Y59.21 F3000.0
S90
G01 Y61.03 F1200.0
S1
G00 X19.64 Y61.27 F3000.0
S90
G01 Y59.59 F1200.0
S1
G00 X19.84 Y59.95 F3000.0
S90
G01 Y61.43 F1200.0
S1
G00 X20.04 Y61.58 F3000.0
S90
G01 Y60.3 F1200.0
S1
G00 X20.24 Y61.71 F3000.0
S90
G01 Y58.84 F1200.0
S1
G00 X20.44 Y58.82 F3000.0
S90
G01 Y61.8 F1200.0
S1
G00 X20.64 Y61.81 F3000.0
S90
G01 Y58.83 F1200.0
S1
G00 X20.84 Y58.89 F3000.0
S90
G01 Y61.75 F1200.0
S1
G00 X21.04 Y61.57 F3000.0
S90
G01 Y58.98 F1200.0
S1
G00 X21.24 Y59.07 F3000.0
S90
G01 Y61.4 F1200.0
S1
G00 X21.44 Y61.19 F3000.0
S90
G01 Y59.19 F1200.0
S1
G00 X21.64 Y59.5 F3000.0
S90
G01 Y60.79 F1200.0
S1
G00 X22.64 Y60.69 F3000.0
S90
G01 Y63.36 F1200.0
S1
G00 X22.84 Y63.29 F3000.0
S90
G01 Y57.08 F1200.0
S1
G00 X22.64 Y57.03 F3000.0
S90
G01 Y59.66 F1200.0
S1
G00 X22.44 Y59.26 F3000.0
S90
G01 Y56.94 F1200.0
S1
G00 X22.24 Y56.8 F3000.0
S90
G01 Y59.04 F1200.0
S1
G00 X22.04 Y58.82 F3000.0
S90
G01 Y56.65 F1200.0
S1
G00 X21.84 Y56.51 F3000.0
S90
G01 Y58.67 F1200.0
S1
G00 X21.64 Y58.53 F3000.0
S90
G01 Y56.31 F1200.0
S1
G00 X21.44 Y56.01 F3000.0
S90
G01 Y58.39 F1200.0
S1
G00 X21.24 Y58.28 F3000.0
S90
G01 Y55.71 F1200.0
S1
G00 X21.84 Y55.87 F3000.0
S90
G01 Y55.18 F1200.0
S1
G00 X22.04 Y55.04 F3000.0
S90
G01 Y56.01 F1200.0
S1
G00 X22.24 Y55.94 F3000.0
S90
G01 Y55.1 F1200.0
S1
G00 X22.04 Y52.91 F3000.0
S90
G01 Y52.24 F1200.0
S1
G00 X21.44 Y52.33 F3000.0
S90
G01 Y45.68 F1200.0
S1
G00 X21.24 Y45.9 F3000.0
S90
G01 Y52.14 F1200.0
S1
G00 X21.04 Y51.95 F3000.0
S90
G01 Y46.67 F1200.0
S1
G00 X20.84 Y47.21 F3000.0
S90
G01 Y51.78 F1200.0
S1
G00 X20.64 Y51.7 F3000.0
S90
G01 Y47.28 F1200.0
S1
G00 X20.44 Y47.27 F3000.0
S90
G01 Y51.62 F1200.0
S1
G00 X20.24 Y51.54 F3000.0
S90
G01 Y47.26 F1200.0
S1
G00 X20.04 Y47.31 F3000.0
S90
G01 Y51.46 F1200.0
S1
G00 X19.84 Y51.38 F3000.0
S90
G01 Y49.37 F1200.0
S1
G00 X19.64 Y49.61 F3000.0
S90
G01 Y51.3 F1200.0
S1
G00 X19.44 Y51.22 F3000.0
S90
G01 Y49.84 F1200.0
S1
G00 X19.24 Y50.06 F3000.0
S90
G01 Y51.04 F1200.0
S1
G00 X18.24 Y49.5 F3000.0
S90
G01 Y47.53 F1200.0
S1
G00 X18.44 Y47.33 F3000.0
S90
G01 Y49.23 F1200.0
S1
G00 X18.64 Y48.94 F3000.0
S90
G01 Y47.14 F1200.0
S1
G00 X18.84 Y46.94 F3000.0
S90
G01 Y48.23 F1200.0
S1
G00 X19.04 Y47.65 F3000.0
S90
G01 Y46.74 F1200.0
S1
G00 X19.24 Y46.55 F3000.0
S90
G01 Y47.27 F1200.0
S1
G00 X19.44 Y47.02 F3000.0
S90
G01 Y46.35 F1200.0
S1
G00 X19.64 Y46.22 F3000.0
S90
G01 Y46.77 F1200.0
S1
G00 X19.84 Y46.54 F3000.0
S90
G01 Y46.09 F1200.0
S1
G00 X20.04 Y45.96 F3000.0
S90
G01 Y46.33 F1200.0
S1
G00 X19.84 Y47.38 F3000.0
S90
G01 Y48.72 F1200.0
S1
G00 X19.64 Y48.23 F3000.0
S90
G01 Y47.55 F1200.0
S1
G00 X18.04 Y47.72 F3000.0
S90
G01 Y49.63 F1200.0
S1
G00 X17.84 Y49.77 F3000.0
S90
G01 Y47.94 F1200.0
S1
G00 X17.64 Y48.17 F3000.0
S90
G01 Y49.9 F1200.0
S1
G00 X17.44 Y49.98 F3000.0
S90
G01 Y48.4 F1200.0
S1
G00 X17.24 Y48.63 F3000.0
S90
G01 Y50.05 F1200.0
S1
G00 X17.04 Y50.12 F3000.0
S90
G01 Y48.86 F1200.0
S1
G00 X16.84 Y49.09 F3000.0
S90
G01 Y50.2 F1200.0
S1
G00 X16.64 Y50.33 F3000.0
S90
G01 Y49.32 F1200.0
S1
G00 X16.44 Y49.56 F3000.0
S90
G01 Y50.49 F1200.0
S1
G00 X16.24 Y50.65 F3000.0
S90
G01 Y49.83 F1200.0
S1
G00 X16.04 Y50.09 F3000.0
S90
G01 Y51.08 F1200.0
S1
G00 X15.84 Y51.57 F3000.0
S90
G01 Y50.36 F1200.0
S1
G00 X15.64 Y50.62 F3000.0
S90
G01 Y52.06 F1200.0
S1
G00 X15.44 Y52.55 F3000.0
S90
G01 Y50.89 F1200.0
S1
G00 X15.24 Y51.15 F3000.0
S90
G01 Y52.74 F1200.0
S1
G00 X15.04 Y52.91 F3000.0
S90
G01 Y51.43 F1200.0
S1
G00 X14.84 Y51.75 F3000.0
S90
G01 Y53.06 F1200.0
S1
G00 X14.64 Y53.16 F3000.0
S90
G01 Y52.06 F1200.0
S1
G00 X14.44 Y52.38 F3000.0
S90
G01 Y53.33 F1200.0
S1
G00 X16.24 Y52.93 F3000.0
S90
G01 Y52.46 F1200.0
S1
G00 X16.44 Y52.26 F3000.0
S90
G01 Y52.87 F1200.0
S1
G00 X16.64 Y52.71 F3000.0
S90
G01 Y52.1 F1200.0
S1
G00 X16.84 Y52.06 F3000.0
S90
G01 Y52.44 F1200.0
S1
G00 X13.44 Y51.78 F3000.0
S90
G01 Y51.5 F1200.0
S1
G00 X13.64 Y51.58 F3000.0
S90
G01 Y51.29 F1200.0
S1
G00 X13.24 Y51.71 F3000.0
S90
G01 Y51.97 F1200.0
S1
G00 X14.64 Y49.84 F3000.0
S90
G01 Y49.63 F1200.0
S1
G00 X14.84 Y49.62 F3000.0
S90
G01 Y49.37 F1200.0
S1
G00 X15.04 Y49.41 F3000.0
S90
G01 Y49.12 F1200.0
S1
G00 X15.24 Y49.2 F3000.0
S90
G01 Y48.86 F1200.0
S1
G00 X15.44 Y48.99 F3000.0
S90
G01 Y48.6 F1200.0
S1
G00 X15.64 Y48.77 F3000.0
S90
G01 Y48.35 F1200.0
S1
G00 X16.04 Y48.35 F3000.0
S90
G01 Y47.84 F1200.0
S1
G00 X16.44 Y47.85 F3000.0
S90
G01 Y47.33 F1200.0
S1
G00 X16.84 Y47.34 F3000.0
S90
G01 Y46.86 F1200.0
S1
G00 X17.04 Y46.7 F3000.0
S90
G01 Y47.09 F1200.0
S1
G00 X16.64 Y47.08 F3000.0
S90
G01 Y47.59 F1200.0
S1
G00 X16.24 Y47.58 F3000.0
S90
G01 Y48.1 F1200.0
S1
G00 X15.84 Y48.09 F3000.0
S90
G01 Y48.56 F1200.0
S1
G00 X18.04 Y45.8 F3000.0
S90
G01 Y45.54 F1200.0
S1
G00 X18.24 Y45.6 F3000.0
S90
G01 Y45.33 F1200.0
S1
G00 X18.44 Y45.4 F3000.0
S90
G01 Y45.12 F1200.0
S1
G00 X20.44 Y45.19 F3000.0
S90
G01 Y44.61 F1200.0
S1
G00 X20.64 Y45.21 F3000.0
S90
G01 Y42.75 F1200.0
S1
G00 X20.84 Y41.38 F3000.0
S90
G01 Y45.1 F1200.0
S1
G00 X21.04 Y44.98 F3000.0
S90
G01 Y40.01 F1200.0
S1
G00 X21.24 Y38.64 F3000.0
S90
G01 Y44.79 F1200.0
S1
G00 X21.44 Y44.6 F3000.0
S90
G01 Y37.16 F1200.0
S1
G00 X21.64 Y35.51 F3000.0
S90
G01 Y44.23 F1200.0
S1
G00 X21.84 Y43.51 F3000.0
S90
G01 Y33.86 F1200.0
S1
G00 X23.24 Y34.43 F3000.0
S90
G01 Y24.4 F1200.0
S1
G00 X23.04 Y23.42 F3000.0
S90
G01 Y39.25 F1200.0
S1
G00 X22.84 Y39.29 F3000.0
S90
G01 Y22.91 F1200.0
S1
G00 X22.64 Y21.76 F3000.0
S90
G01 Y39.32 F1200.0
S1
G00 X22.44 Y39.44 F3000.0
S90
G01 Y13.13 F1200.0
S1
G00 X22.64 Y13.12 F3000.0
S90
G01 Y21.1 F1200.0
S1
G00 X22.84 Y20.58 F3000.0
S90
G01 Y13.07 F1200.0
S1
G00 X23.04 Y12.94 F3000.0
S90
G01 Y20.38 F1200.0
S1
G00 X23.24 Y20.37 F3000.0
S90
G01 Y12.53 F1200.0
S1
G00 X23.44 Y11.88 F3000.0
S90
G01 Y20.49 F1200.0
S1
G00 X23.64 Y20.9 F3000.0
S90
G01 Y11.25 F1200.0
S1
G00 X23.84 Y10.73 F3000.0
S90
G01 Y22.08 F1200.0
S1
G00 X24.04 Y22.16 F3000.0
S90
G01 Y10.59 F1200.0
S1
G00 X24.24 Y10.7 F3000.0
S90
G01 Y22.16 F1200.0
S1
G00 X24.44 Y22.15 F3000.0
S90
G01 Y10.81 F1200.0
S1
G00 X24.64 Y10.91 F3000.0
S90
G01 Y15.61 F1200.0
S1
G00 X24.84 Y14.75 F3000.0
S90
G01 Y10.97 F1200.0
S1
G00 X25.04 Y10.92 F3000.0
S90
G01 Y14.39 F1200.0
S1
G00 X25.24 Y14.04 F3000.0
S90
G01 Y10.78 F1200.0
S1
G00 X25.44 Y10.4 F3000.0
S90
G01 Y13.68 F1200.0
S1
G00 X25.64 Y13.42 F3000.0
S90
G01 Y9.2 F1200.0
S1
G00 X25.84 Y8.95 F3000.0
S90
G01 Y13.23 F1200.0
S1
G00 X26.04 Y13.03 F3000.0
S90
G01 Y8.86 F1200.0
S1
G00 X26.24 Y8.85 F3000.0
S90
G01 Y12.83 F1200.0
S1
G00 X26.44 Y12.63 F3000.0
S90
G01 Y8.91 F1200.0
S1
G00 X26.64 Y9.04 F3000.0
S90
G01 Y12.5 F1200.0
S1
G00 X26.84 Y12.4 F3000.0
S90
G01 Y9.16 F1200.0
S1
G00 X27.04 Y9.31 F3000.0
S90
G01 Y12.29 F1200.0
S1
G00 X27.24 Y12.18 F3000.0
S90
G01 Y9.45 F1200.0
S1
G00 X27.44 Y9.6 F3000.0
S90
G01 Y12.08 F1200.0
S1
G00 X27.64 Y11.97 F3000.0
S90
G01 Y9.61 F1200.0
S1
G00 X27.84 Y9.63 F3000.0
S90
G01 Y11.91 F1200.0
S1
G00 X28.04 Y11.88 F3000.0
S90
G01 Y9.41 F1200.0
S1
G00 X28.24 Y9.08 F3000.0
S90
G01 Y11.84 F1200.0
S1
G00 X28.44 Y11.81 F3000.0
S90
G01 Y8.49 F1200.0
S1
G00 X28.84 Y8.54 F3000.0
S90
G01 Y9.25 F1200.0
S1
G00 X28.64 Y9.27 F3000.0
S90
G01 Y7.49 F1200.0
S1
G00 X28.64 Y7.13 F3000.0
S90
G01 Y5.25 F1200.0
S1
G00 X28.84 Y5.09 F3000.0
S90
G01 Y8.42 F1200.0
S1
G00 X29.04 Y8.38 F3000.0
S90
G01 Y5.03 F1200.0
S1
G00 X29.24 Y4.99 F3000.0
S90
G01 Y8.39 F1200.0
S1
G00 X29.44 Y8.41 F3000.0
S90
G01 Y4.95 F1200.0
S1
G00 X29.64 Y4.93 F3000.0
S90
G01 Y9.47 F1200.0
S1
G00 X29.44 Y9.58 F3000.0
S90
G01 Y8.59 F1200.0
S1
G00 X29.24 Y8.64 F3000.0
S90
G01 Y9.63 F1200.0
S1
G00 X29.04 Y9.45 F3000.0
S90
G01 Y8.6 F1200.0
S1
G00 X28.64 Y9.51 F3000.0
S90
G01 Y11.77 F1200.0
S1
G00 X28.84 Y11.74 F3000.0
S90
G01 Y9.93 F1200.0
S1
G00 X29.04 Y10.07 F3000.0
S90
G01 Y11.7 F1200.0
S1
G00 X29.24 Y11.72 F3000.0
S90
G01 Y10.2 F1200.0
S1
G00 X29.44 Y10.33 F3000.0
S90
G01 Y11.75 F1200.0
S1
G00 X29.64 Y11.79 F3000.0
S90
G01 Y10.45 F1200.0
S1
G00 X29.84 Y10.63 F3000.0
S90
G01 Y11.82 F1200.0
S1
G00 X30.04 Y11.85 F3000.0
S90
G01 Y10.94 F1200.0
S1
G00 X30.24 Y10.72 F3000.0
S90
G01 Y11.88 F1200.0
S1
G00 X30.44 Y11.92 F3000.0
S90
G01 Y4.91 F1200.0
S1
G00 X30.24 Y4.92 F3000.0
S90
G01 Y9.53 F1200.0
S1
G00 X30.04 Y9.22 F3000.0
S90
G01 Y4.92 F1200.0
S1
G00 X29.84 Y4.93 F3000.0
S90
G01 Y9.35 F1200.0
S1
G00 X31.44 Y10.14 F3000.0
S90
G01 Y5.0 F1200.0
S1
G00 X31.24 Y4.98 F3000.0
S90
G01 Y10.43 F1200.0
S1
G00 X31.64 Y10.73 F3000.0
S90
G01 Y5.02 F1200.0
S1
G00 X31.84 Y5.04 F3000.0
S90
G01 Y11.16 F1200.0
S1
G00 X32.04 Y11.24 F3000.0
S90
G01 Y5.06 F1200.0
S1
G00 X32.24 Y5.08 F3000.0
S90
G01 Y11.23 F1200.0
S1
G00 X32.44 Y11.23 F3000.0
S90
G01 Y5.13 F1200.0
S1
G00 X32.64 Y5.19 F3000.0
S90
G01 Y11.21 F1200.0
S1
G00 X32.84 Y11.18 F3000.0
S90
G01 Y5.25 F1200.0
S1
G00 X33.04 Y5.31 F3000.0
S90
G01 Y11.15 F1200.0
S1
G00 X33.24 Y11.2 F3000.0
S90
G01 Y5.36 F1200.0
S1
G00 X33.44 Y5.42 F3000.0
S90
G01 Y22.26 F1200.0
S1
G00 X33.64 Y22.27 F3000.0
S90
G01 Y5.48 F1200.0
S1
G00 X33.84 Y5.56 F3000.0
S90
G01 Y22.28 F1200.0
S1
G00 X34.04 Y22.3 F3000.0
S90
G01 Y11.76 F1200.0
S1
G00 X34.24 Y12.18 F3000.0
S90
G01 Y22.33 F1200.0
S1
G00 X34.44 Y22.37 F3000.0
S90
G01 Y12.43 F1200.0
S1
G00 X34.64 Y12.64 F3000.0
S90
G01 Y22.28 F1200.0
S1
G00 X34.84 Y22.41 F3000.0
S90
G01 Y31.03 F1200.0
S1
G00 X35.04 Y30.96 F3000.0
S90
G01 Y20.84 F1200.0
S1
G00 X35.24 Y20.78 F3000.0
S90
G01 Y30.86 F1200.0
S1
G00 X35.44 Y30.75 F3000.0
S90
G01 Y20.72 F1200.0
S1
G00 X35.64 Y20.66 F3000.0
S90
G01 Y30.64 F1200.0
S1
G00 X35.84 Y30.53 F3000.0
S90
G01 Y20.59 F1200.0
S1
G00 X36.04 Y20.51 F3000.0
S90
G01 Y30.41 F1200.0
S1
G00 X36.24 Y30.3 F3000.0
S90
G01 Y20.25 F1200.0
S1
G00 X36.44 Y19.92 F3000.0
S90
G01 Y30.19 F1200.0
S1
G00 X36.64 Y30.07 F3000.0
S90
G01 Y19.53 F1200.0
S1
G00 X36.84 Y19.47 F3000.0
S90
G01 Y29.93 F1200.0
S1
G00 X37.04 Y29.79 F3000.0
S90
G01 Y19.54 F1200.0
S1
G00 X37.24 Y19.86 F3000.0
S90
G01 Y29.65 F1200.0
S1
G00 X37.44 Y29.52 F3000.0
S90
G01 Y20.52 F1200.0
S1
G00 X37.64 Y21.59 F3000.0
S90
G01 Y29.44 F1200.0
S1
G00 X37.84 Y29.36 F3000.0
S90
G01 Y22.04 F1200.0
S1
G00 X38.04 Y22.11 F3000.0
S90
G01 Y29.29 F1200.0
S1
G00 X38.24 Y29.21 F3000.0
S90
G01 Y22.16 F1200.0
S1
G00 X38.44 Y22.15 F3000.0
S90
G01 Y29.13 F1200.0
S1
G00 X38.64 Y29.03 F3000.0
S90
G01 Y22.14 F1200.0
S1
G00 X38.84 Y22.13 F3000.0
S90
G01 Y28.86 F1200.0
S1
G00 X39.04 Y28.68 F3000.0
S90
G01 Y22.15 F1200.0
S1
G00 X39.24 Y22.17 F3000.0
S90
G01 Y28.52 F1200.0
S1
G00 X39.44 Y28.37 F3000.0
S90
G01 Y22.18 F1200.0
S1
G00 X39.64 Y22.2 F3000.0
S90
G01 Y24.67 F1200.0
S1
G00 X39.64 Y25.28 F3000.0
S90
G01 Y28.22 F1200.0
S1
G00 X39.84 Y28.09 F3000.0
S90
G01 Y25.66 F1200.0
S1
G00 X40.04 Y25.76 F3000.0
S90
G01 Y28.04 F1200.0
S1
G00 X40.24 Y27.98 F3000.0
S90
G01 Y25.85 F1200.0
S1
G00 X40.44 Y25.94 F3000.0
S90
G01 Y27.93 F1200.0
S1
G00 X40.64 Y27.89 F3000.0
S90
G01 Y26.04 F1200.0
S1
G00 X40.84 Y26.14 F3000.0
S90
G01 Y27.88 F1200.0
S1
G00 X41.04 Y27.81 F3000.0
S90
G01 Y26.39 F1200.0
S1
G00 X39.84 Y24.14 F3000.0
S90
G01 Y22.34 F1200.0
S1
G00 X40.04 Y22.48 F3000.0
S90
G01 Y23.68 F1200.0
S1
G00 X44.24 Y23.75 F3000.0
S90
G01 Y26.04 F1200.0
S1
G00 X44.04 Y25.64 F3000.0
S90
G01 Y24.03 F1200.0
S1
G00 X43.84 Y24.3 F3000.0
S90
G01 Y25.35 F1200.0
S1
G00 X43.64 Y25.11 F3000.0
S90
G01 Y24.52 F1200.0
S1
G00 X44.24 Y23.1 F3000.0
S90
G01 Y21.84 F1200.0
S1
G00 X44.44 Y21.75 F3000.0
S90
G01 Y27.9 F1200.0
S1
G00 X44.64 Y28.09 F3000.0
S90
G01 Y21.72 F1200.0
S1
G00 X44.84 Y21.69 F3000.0
S90
G01 Y28.16 F1200.0
S1
G00 X45.04 Y28.23 F3000.0
S90
G01 Y21.65 F1200.0
S1
G00 X45.24 Y21.6 F3000.0
S90
G01 Y28.33 F1200.0
S1
G00 X45.44 Y28.43 F3000.0
S90
G01 Y21.46 F1200.0
S1
G00 X45.64 Y21.32 F3000.0
S90
G01 Y28.53 F1200.0
S1
G00 X45.84 Y29.02 F3000.0
S90
G01 Y21.04 F1200.0
S1
G00 X46.04 Y20.52 F3000.0
S90
G01 Y29.68 F1200.0
S1
G00 X46.24 Y29.78 F3000.0
S90
G01 Y25.57 F1200.0
S1
G00 X46.44 Y26.21 F3000.0
S90
G01 Y29.81 F1200.0
S1
G00 X46.64 Y29.79 F3000.0
S90
G01 Y26.53 F1200.0
S1
G00 X46.84 Y26.84 F3000.0
S90
G01 Y29.72 F1200.0
S1
G00 X47.04 Y29.65 F3000.0
S90
G01 Y27.07 F1200.0
S1
G00 X47.24 Y27.22 F3000.0
S90
G01 Y29.58 F1200.0
S1
G00 X47.44 Y29.51 F3000.0
S90
G01 Y27.37 F1200.0
S1
G00 X47.64 Y27.53 F3000.0
S90
G01 Y29.44 F1200.0
S1
G00 X47.84 Y29.84 F3000.0
S90
G01 Y27.66 F1200.0
S1
G00 X48.04 Y27.71 F3000.0
S90
G01 Y30.33 F1200.0
S1
G00 X48.24 Y30.43 F3000.0
S90
G01 Y27.76 F1200.0
S1
G00 X48.44 Y27.8 F3000.0
S90
G01 Y30.52 F1200.0
S1
G00 X48.64 Y30.49 F3000.0
S90
G01 Y27.85 F1200.0
S1
G00 X48.84 Y27.9 F3000.0
S90
G01 Y30.45 F1200.0
S1
G00 X49.04 Y30.39 F3000.0
S90
G01 Y27.85 F1200.0
S1
G00 X49.24 Y27.8 F3000.0
S90
G01 Y30.24 F1200.0
S1
G00 X49.44 Y30.09 F3000.0
S90
G01 Y27.75 F1200.0
S1
G00 X49.64 Y27.69 F3000.0
S90
G01 Y29.94 F1200.0
S1
G00 X49.84 Y29.79 F3000.0
S90
G01 Y27.59 F1200.0
S1
G00 X50.04 Y27.45 F3000.0
S90
G01 Y29.63 F1200.0
S1
G00 X50.24 Y29.48 F3000.0
S90
G01 Y27.31 F1200.0
S1
G00 X50.44 Y27.18 F3000.0
S90
G01 Y29.48 F1200.0
S1
G00 X50.64 Y29.56 F3000.0
S90
G01 Y27.01 F1200.0
S1
G00 X50.84 Y26.78 F3000.0
S90
G01 Y29.67 F1200.0
S1
G00 X51.04 Y29.77 F3000.0
S90
G01 Y26.55 F1200.0
S1
G00 X51.24 Y26.32 F3000.0
S90
G01 Y29.84 F1200.0
S1
G00 X51.44 Y29.8 F3000.0
S90
G01 Y25.96 F1200.0
S1
G00 X51.64 Y25.52 F3000.0
S90
G01 Y29.7 F1200.0
S1
G00 X51.84 Y29.45 F3000.0
S90
G01 Y20.35 F1200.0
S1
G00 X51.64 Y19.93 F3000.0
S90
G01 Y24.18 F1200.0
S1
G00 X51.44 Y23.7 F3000.0
S90
G01 Y19.66 F1200.0
S1
G00 X51.24 Y19.62 F3000.0
S90
G01 Y23.27 F1200.0
S1
G00 X51.04 Y23.01 F3000.0
S90
G01 Y19.58 F1200.0
S1
G00 X50.84 Y19.69 F3000.0
S90
G01 Y22.75 F1200.0
S1
G00 X50.64 Y22.5 F3000.0
S90
G01 Y19.8 F1200.0
S1
G00 X50.44 Y19.92 F3000.0
S90
G01 Y22.34 F1200.0
S1
G00 X50.24 Y22.22 F3000.0
S90
G01 Y20.05 F1200.0
S1
