%
(Header)
(Generated by gcodetools from Inkscape.)
(Edited from UniversalBit-Dev)
(Using default header. To add your own header create file "header" in the output dir.)
M3 S2000
(Header end.)
G21 (All units in mm)

(Start cutting path id: path8937)
(Change tool to Default tool)

G00 Z5.000000
G00 X39.582513 Y7.870910

G01 Z-1.000000 F100.0(Penetrate)
G02 X39.364090 Y8.022799 Z-1.000000 I3.924276 J5.876278 F400.000000
G02 X38.998083 Y8.293970 Z-1.000000 I11.928290 J16.482529
G03 X38.617409 Y8.537046 Z-1.000000 I-1.696728 J-2.237579
G03 X38.136333 Y8.751130 Z-1.000000 I-1.787788 J-3.369835
G02 X37.679219 Y8.987568 Z-1.000000 I0.691896 J1.897764
G02 X37.408433 Y9.254540 Z-1.000000 I0.627477 J0.907255
G03 X37.147162 Y9.539117 Z-1.000000 I-1.277491 J-0.910646
G03 X36.800953 Y9.771040 Z-1.000000 I-1.182371 J-1.390642
G02 X36.456109 Y10.003682 Z-1.000000 I0.811665 J1.575028
G02 X36.208293 Y10.281640 Z-1.000000 I0.926761 J1.075713
G03 X35.965957 Y10.568736 Z-1.000000 I-1.491178 J-1.012871
G03 X35.645513 Y10.822290 Z-1.000000 I-1.477391 J-1.537871
G02 X35.325090 Y11.074081 Z-1.000000 I1.195365 J1.850965
G02 X35.155893 Y11.286390 Z-1.000000 I0.672580 J0.709580
G03 X34.990865 Y11.505155 Z-1.000000 I-1.048922 J-0.619640
G03 X34.630433 Y11.840350 Z-1.000000 I-2.851050 J-2.704323
G02 X34.278713 Y12.181334 Z-1.000000 I1.862828 J2.273371
G02 X34.091843 Y12.457570 Z-1.000000 I1.026638 J0.895832
G03 X33.905911 Y12.734288 Z-1.000000 I-1.243823 J-0.634924
G03 X33.592723 Y13.036800 Z-1.000000 I-1.805826 J-1.556178
G02 X33.299790 Y13.350203 Z-1.000000 I0.945375 J1.177227
G02 X33.096933 Y13.747540 Z-1.000000 I1.339017 J0.934077
G03 X32.903476 Y14.156464 Z-1.000000 I-2.003941 J-0.697819
G03 X32.584923 Y14.585040 Z-1.000000 I-2.520557 J-1.540808
G02 X32.185323 Y15.187132 Z-1.000000 I1.880764 J1.681886
G02 X31.940153 Y15.946730 Z-1.000000 I2.781769 J1.317217
G03 X31.843466 Y16.238806 Z-1.000000 I-1.102928 J-0.203065
G03 X31.505323 Y16.830470 Z-1.000000 I-4.940198 J-2.430924
G02 X31.164490 Y17.421487 Z-1.000000 I4.914770 J3.228078
G02 X31.065163 Y17.707690 Z-1.000000 I1.036369 J0.520011
G02 X31.029218 Y18.011934 Z-1.000000 I1.764558 J0.362719
G02 X31.006063 Y19.533300 Z-1.000000 I44.089433 J1.431899
G02 X31.203575 Y21.322274 Z-1.000000 I8.337562 J-0.015118
G02 X31.583623 Y22.140480 Z-1.000000 I2.047974 J-0.453896
G03 X31.763593 Y22.440111 Z-1.000000 I-1.257817 J0.959357
G03 X31.974753 Y22.992900 Z-1.000000 I-4.120893 J1.890867
G02 X32.208948 Y23.530651 Z-1.000000 I2.525584 J-0.780041
G02 X32.567423 Y24.023440 Z-1.000000 I2.473374 J-1.422454
G03 X32.954764 Y24.503193 Z-1.000000 I-4.033744 J3.652988
G03 X33.191243 Y24.892580 Z-1.000000 I-2.413109 J1.732010
G02 X33.440363 Y25.264836 Z-1.000000 I1.658272 J-0.840261
G02 X33.734963 Y25.524477 Z-1.000000 I1.083048 J-0.931918
G03 X34.045540 Y25.773731 Z-1.000000 I-1.200422 J1.813873
G03 X34.311453 Y26.081207 Z-1.000000 I-1.574617 J1.630494
G02 X34.580154 Y26.385144 Z-1.000000 I1.638453 J-1.177761
G02 X34.934113 Y26.656827 Z-1.000000 I1.657162 J-1.792596
G03 X35.303180 Y26.915886 Z-1.000000 I-2.462450 J3.900533
G03 X35.758753 Y27.298047 Z-1.000000 I-4.924067 J6.332599
G02 X36.218089 Y27.672990 Z-1.000000 I3.938826 J-4.356550
G02 X36.532213 Y27.866837 Z-1.000000 I1.348307 J-1.833461
G03 X36.837471 Y28.068372 Z-1.000000 I-0.747014 J1.463424
G03 X37.153593 Y28.385097 Z-1.000000 I-1.571904 J1.885035
G02 X37.471920 Y28.699928 Z-1.000000 I1.763745 J-1.464983
G02 X37.861483 Y28.959987 Z-1.000000 I1.581988 J-1.947979
G03 X38.306301 Y29.435837 Z-1.000000 I-0.486345 J0.900459
G03 X38.524033 Y30.412957 Z-1.000000 I-2.199344 J1.002898
G03 X38.349614 Y31.417964 Z-1.000000 I-2.804249 J0.030960
G03 X37.899503 Y32.100167 Z-1.000000 I-1.691710 J-0.626582
G02 X37.524761 Y32.511068 Z-1.000000 I2.647427 J2.790790
G02 X37.350203 Y32.797697 Z-1.000000 I1.100816 J0.866868
G03 X37.170003 Y33.074840 Z-1.000000 I-1.010661 J-0.459983
G03 X36.883293 Y33.323637 Z-1.000000 I-1.093761 J-0.970834
G02 X36.586376 Y33.566363 Z-1.000000 I1.052885 J1.590918
G02 X36.402743 Y33.804747 Z-1.000000 I0.831226 J0.830234
G03 X36.209771 Y34.030173 Z-1.000000 I-0.716188 J-0.417772
G03 X35.782213 Y34.309467 Z-1.000000 I-1.548458 J-1.903550
G02 X35.349632 Y34.585251 Z-1.000000 I1.259299 J2.452430
G02 X35.154303 Y34.797537 Z-1.000000 I0.534945 J0.688220
G03 X34.806958 Y35.092361 Z-1.000000 I-0.668683 J-0.435782
G03 X33.853203 Y35.369797 Z-1.000000 I-1.527442 J-3.472852
G03 X33.026039 Y35.436298 Z-1.000000 I-0.877285 J-5.734439
G03 X19.416113 Y35.494537 Z-1.000000 I-13.482398 J-1560.434352
G03 X5.803196 Y35.467641 Z-1.000000 I0.389094 J-3641.892769
G03 X5.347262 Y35.440037 Z-1.000000 I0.015515 J-4.035401
G02 X4.920577 Y35.466468 Z-1.000000 I-0.140295 J1.192453
G02 X4.674202 Y35.605287 Z-1.000000 I0.125417 J0.510630
G01 X4.455552 Y35.823937 Z-1.000000
G01 X4.435152 Y77.885952 Z-1.000000
G01 X4.413952 Y120.484472 Z-1.000000
G02 X4.491627 Y120.985039 Z-1.000000 I1.634550 J0.002672
G02 X4.650752 Y121.225302 Z-1.000000 I0.504610 J-0.161376
G01 X4.888302 Y121.429642 Z-1.000000
G01 X46.909163 Y121.429642 Z-1.000000
G01 X88.930023 Y121.429642 Z-1.000000
G01 X89.153103 Y121.254162 Z-1.000000
G01 X89.376193 Y121.078682 Z-1.000000
G01 X89.376193 Y105.586622 Z-1.000000
G02 X89.152700 Y89.956655 Z-1.000000 I-546.651570 J-0.000000
G02 X88.913963 Y89.427722 Z-1.000000 I-0.753029 J0.021540
G03 X88.715861 Y89.197710 Z-1.000000 I0.958832 J-1.026126
G03 X88.360513 Y88.623382 Z-1.000000 I5.721535 J-3.937122
G02 X87.996040 Y88.055585 Z-1.000000 I-4.532071 J2.508288
G02 X87.640313 Y87.647632 Z-1.000000 I-2.681906 J1.979503
G03 X87.268672 Y87.251019 Z-1.000000 I4.168118 J-4.278114
G03 X87.075143 Y86.986602 Z-1.000000 I1.649381 J-1.410223
G02 X86.866132 Y86.742931 Z-1.000000 I-0.896840 J0.557796
G02 X86.456363 Y86.455602 Z-1.000000 I-1.670461 J1.946444
G03 X86.028407 Y86.181082 Z-1.000000 I2.210583 J-3.916970
G03 X85.539543 Y85.791472 Z-1.000000 I3.988816 J-5.506480
G02 X85.041928 Y85.422760 Z-1.000000 I-2.515110 J2.874258
G02 X84.655453 Y85.241472 Z-1.000000 I-0.958414 J1.540579
G03 X84.256710 Y85.077164 Z-1.000000 I0.965896 J-2.910020
G03 X83.783023 Y84.807962 Z-1.000000 I2.184073 J-4.394447
G02 X83.045984 Y84.472062 Z-1.000000 I-1.520690 J2.360168
G02 X81.986483 Y84.285762 Z-1.000000 I-1.382435 J4.756124
G01 X81.243093 Y84.237162 Z-1.000000
G01 X80.875003 Y84.638092 Z-1.000000
G03 X80.489674 Y85.019117 Z-1.000000 I-4.134853 J-3.796204
G03 X80.177923 Y85.263812 Z-1.000000 I-2.006236 J-2.235086
G02 X79.420839 Y85.913547 Z-1.000000 I2.567893 J3.758110
G02 X78.683773 Y86.862082 Z-1.000000 I4.820309 J4.506296
G03 X78.424606 Y87.186308 Z-1.000000 I-1.669561 J-1.068856
G03 X78.200993 Y87.350862 Z-1.000000 I-0.630998 J-0.623252
G02 X77.987004 Y87.521794 Z-1.000000 I0.322161 J0.622724
G02 X77.730873 Y87.908822 Z-1.000000 I1.538477 J1.296415
G03 X77.474354 Y88.297680 Z-1.000000 I-1.824763 J-0.924706
G03 X77.235543 Y88.500172 Z-1.000000 I-0.708296 J-0.593270
G02 X76.994000 Y88.701113 Z-1.000000 I0.497688 J0.843897
G02 X76.729343 Y89.082082 Z-1.000000 I1.613156 J1.403061
G03 X76.464691 Y89.463755 Z-1.000000 I-1.895096 J-1.031467
G03 X76.212503 Y89.678392 Z-1.000000 I-0.828834 J-0.718368
G02 X75.951009 Y89.885766 Z-1.000000 I0.752066 J1.216897
G02 X75.740603 Y90.152172 Z-1.000000 I1.048823 J1.044645
G03 X75.523801 Y90.408857 Z-1.000000 I-0.970720 J-0.599992
G03 X75.207163 Y90.621602 Z-1.000000 I-0.971484 J-1.103896
G02 X74.880206 Y90.829120 Z-1.000000 I0.830531 J1.669877
G02 X74.474863 Y91.201232 Z-1.000000 I2.336943 J2.952472
G03 X74.048538 Y91.521333 Z-1.000000 I-1.135755 J-1.068698
G03 X73.481693 Y91.708572 Z-1.000000 I-0.889589 J-1.741486
G02 X72.884321 Y91.856171 Z-1.000000 I0.663323 J3.967296
G02 X72.296363 Y92.099712 Z-1.000000 I1.350650 J4.092245
G03 X71.393587 Y92.313192 Z-1.000000 I-0.898387 J-1.783559
G03 X70.459513 Y92.095712 Z-1.000000 I0.004692 J-2.134811
G02 X69.846354 Y91.847280 Z-1.000000 I-2.063843 J4.212920
G02 X69.276763 Y91.711122 Z-1.000000 I-1.136746 J3.495885
G03 X68.528632 Y91.475847 Z-1.000000 I0.405487 J-2.596470
G03 X68.065883 Y91.119512 Z-1.000000 I0.639771 J-1.309467
G02 X67.760646 Y90.856615 Z-1.000000 I-1.040666 J0.899619
G02 X67.265943 Y90.613452 Z-1.000000 I-1.377072 J2.176783
G03 X66.767986 Y90.370721 Z-1.000000 I0.914462 J-2.508140
G03 X66.351253 Y90.043172 Z-1.000000 I1.293172 J-2.074146
G02 X65.948851 Y89.688046 Z-1.000000 I-3.632910 J3.710992
G02 X65.615713 Y89.458792 Z-1.000000 I-1.834026 J2.308418
G03 X65.297216 Y89.218425 Z-1.000000 I0.905198 J-1.530626
G03 X65.043353 Y88.915942 Z-1.000000 I1.198182 J-1.263358
G02 X64.791896 Y88.610058 Z-1.000000 I-1.598957 J1.058150
G02 X64.495123 Y88.374362 Z-1.000000 I-1.234224 J1.249369
G03 X64.203918 Y88.134840 Z-1.000000 I0.805755 J-1.276396
G03 X63.954433 Y87.802342 Z-1.000000 I1.333319 J-1.260286
G02 X63.710127 Y87.461721 Z-1.000000 I-1.967370 J1.153151
G02 X63.400963 Y87.163912 Z-1.000000 I-1.807148 J1.566667
G03 X63.117167 Y86.851256 Z-1.000000 I0.846053 J-1.053086
G03 X62.822813 Y86.281682 Z-1.000000 I2.604674 J-1.706934
G02 X62.543342 Y85.697775 Z-1.000000 I-4.159120 J1.631815
G02 X62.325483 Y85.410892 Z-1.000000 I-1.201165 J0.686003
G03 X61.983047 Y84.892611 Z-1.000000 I1.132752 J-1.120692
G03 X61.731223 Y83.955662 Z-1.000000 I3.598465 J-1.469477
G02 X61.591850 Y83.035417 Z-1.000000 I-36.073669 J4.992748
G02 X61.440053 Y82.186792 Z-1.000000 I-30.569957 J5.030290
G03 X61.080266 Y78.340213 Z-1.000000 I19.454324 J-3.759761
G03 X61.473153 Y74.633272 Z-1.000000 I18.446812 J0.080827
G02 X61.805334 Y72.785815 Z-1.000000 I-31.782522 J-6.668228
G02 X61.859563 Y72.059246 Z-1.000000 I-4.840213 J-0.726569
G03 X61.887161 Y71.981909 Z-1.000000 I0.122157 J0.000000
G03 X62.267663 Y71.560271 Z-1.000000 I4.522985 J3.699200
G02 X62.628710 Y71.122013 Z-1.000000 I-2.152215 J-2.140891
G02 X62.778973 Y70.805510 Z-1.000000 I-0.956694 J-0.648122
G03 X62.927855 Y70.485914 Z-1.000000 I1.170470 J0.350781
G03 X63.408043 Y69.846898 Z-1.000000 I5.249225 J3.444598
G03 X65.354930 Y67.798577 Z-1.000000 I20.695859 J17.721586
G03 X66.210313 Y67.189343 Z-1.000000 I2.589147 J2.730133
G02 X66.597992 Y66.940617 Z-1.000000 I-1.160612 J-2.235486
G02 X66.960943 Y66.604379 Z-1.000000 I-1.786591 J-2.292546
G03 X67.330653 Y66.284758 Z-1.000000 I1.514728 J1.378475
G03 X67.715743 Y66.095413 Z-1.000000 I0.882898 J1.309364
G02 X68.110838 Y65.916386 Z-1.000000 I-0.653607 J-1.967928
G02 X68.513933 Y65.627500 Z-1.000000 I-1.371011 J-2.338703
G03 X69.151871 Y65.269187 Z-1.000000 I1.195313 J1.381082
G03 X70.622563 Y64.951810 Z-1.000000 I2.356734 J7.354648
G03 X71.468520 Y64.911539 Z-1.000000 I0.721187 J6.244222
G03 X72.419703 Y64.987490 Z-1.000000 I-0.158386 J7.977693
G03 X73.685898 Y65.315223 Z-1.000000 I-0.801016 J5.704561
G03 X74.220893 Y65.679984 Z-1.000000 I-0.506671 J1.317854
G02 X74.455392 Y65.879720 Z-1.000000 I0.916847 J-0.838895
G02 X74.874363 Y66.109297 Z-1.000000 I1.641503 J-2.498600
G03 X75.275540 Y66.355131 Z-1.000000 I-0.750775 J1.675453
G03 X75.540213 Y66.645824 Z-1.000000 I-0.804218 J0.998068
G02 X75.796429 Y66.950398 Z-1.000000 I1.448869 J-0.958775
G02 X76.119143 Y67.192361 Z-1.000000 I1.224931 J-1.297541
G03 X76.430512 Y67.441541 Z-1.000000 I-0.698511 J1.191973
G03 X76.671203 Y67.783697 Z-1.000000 I-1.111332 J1.037506
G02 X76.906929 Y68.132502 Z-1.000000 I1.573546 J-0.809364
G02 X77.183813 Y68.375800 Z-1.000000 I1.025235 J-0.887560
G03 X77.460595 Y68.620565 Z-1.000000 I-0.733392 J1.108201
G03 X77.765563 Y69.056427 Z-1.000000 I-2.093669 J1.789541
G02 X78.058671 Y69.502534 Z-1.000000 I3.446062 J-1.944842
G02 X78.203963 Y69.634547 Z-1.000000 I0.426451 J-0.323387
G03 X78.353598 Y69.764535 Z-1.000000 I-0.321805 J0.521563
G03 X78.796463 Y70.347768 Z-1.000000 I-6.451399 J5.358485
G02 X79.248353 Y70.924848 Z-1.000000 I5.147783 J-3.565567
G02 X79.576383 Y71.231852 Z-1.000000 I1.764598 J-1.556702
G03 X79.927681 Y71.518628 Z-1.000000 I-4.955332 J6.428786
G03 X80.408363 Y71.950672 Z-1.000000 I-10.779847 J12.476833
G02 X81.229968 Y72.402593 Z-1.000000 I1.299883 J-1.390412
G02 X82.522423 Y72.499492 Z-1.000000 I0.913746 J-3.519755
G02 X83.725469 Y72.255910 Z-1.000000 I-0.670561 J-6.404579
G02 X84.317363 Y71.953638 Z-1.000000 I-0.549293 J-1.806244
G03 X84.604681 Y71.764655 Z-1.000000 I1.544955 J2.035951
G03 X85.227563 Y71.439140 Z-1.000000 I5.254593 J9.296104
G02 X85.821435 Y71.086723 Z-1.000000 I-1.725218 J-3.583823
G02 X86.045343 Y70.852239 Z-1.000000 I-0.511168 J-0.712258
G03 X86.262916 Y70.610912 Z-1.000000 I0.869651 J0.565308
G03 X86.622583 Y70.385606 Z-1.000000 I1.112441 J1.376116
G02 X86.976258 Y70.157639 Z-1.000000 I-0.674098 J-1.434153
G02 X87.159453 Y69.928160 Z-1.000000 I-0.500586 J-0.587483
G03 X87.327947 Y69.675524 Z-1.000000 I1.276696 J0.668977
G03 X87.737853 Y69.232788 Z-1.000000 I4.363454 J3.628774
G02 X88.142169 Y68.786257 Z-1.000000 I-3.265759 J-3.363325
G02 X88.343453 Y68.470788 Z-1.000000 I-1.416367 J-1.125659
G03 X88.537669 Y68.150569 Z-1.000000 I2.073617 J1.038662
G03 X88.741373 Y67.920454 Z-1.000000 I1.265318 J0.914875
G02 X88.943772 Y67.689240 Z-1.000000 I-1.005474 J-1.084363
G02 X89.172943 Y67.309436 Z-1.000000 I-2.516638 J-1.777561
G01 X89.376223 Y66.910085 Z-1.000000
G01 X89.376223 Y51.367089 Z-1.000000
G01 X89.376223 Y35.824097 Z-1.000000
G01 X89.157443 Y35.605317 Z-1.000000
G02 X88.909105 Y35.469642 Z-1.000000 I-0.355394 J0.355394
G02 X88.404753 Y35.441227 Z-1.000000 I-0.341136 J1.564793
G03 X87.869498 Y35.469646 Z-1.000000 I-0.556780 J-5.431842
G03 X74.420703 Y35.496427 Z-1.000000 I-13.588586 J-3446.997914
G03 X59.644733 Y35.154988 Z-1.000000 I-0.016470 J-319.177123
G03 X58.811553 Y34.774117 Z-1.000000 I0.056749 J-1.225895
G02 X58.492996 Y34.491759 Z-1.000000 I-1.795496 J1.704806
G02 X58.119513 Y34.259767 Z-1.000000 I-1.575551 J2.119842
G03 X57.766844 Y34.012715 Z-1.000000 I0.709572 J-1.388165
G03 X57.528023 Y33.709157 Z-1.000000 I0.854661 J-0.918121
G02 X57.297338 Y33.393090 Z-1.000000 I-1.443501 J0.811338
G02 X56.992403 Y33.132957 Z-1.000000 I-1.272586 J1.182965
G03 X56.693101 Y32.870433 Z-1.000000 I0.859278 J-1.281540
G03 X56.496633 Y32.569277 Z-1.000000 I0.944985 J-0.831150
G02 X56.312167 Y32.253042 Z-1.000000 I-1.784868 J0.829227
G02 X56.013803 Y31.894807 Z-1.000000 I-2.589796 J1.853605
G03 X55.576271 Y31.218059 Z-1.000000 I1.505392 J-1.453079
G03 X55.431333 Y30.437027 Z-1.000000 I1.887717 J-0.754272
G03 X55.617937 Y29.586912 Z-1.000000 I2.153528 J0.027171
G03 X56.024413 Y29.106277 Z-1.000000 I1.031298 J0.459979
G02 X56.388288 Y28.844164 Z-1.000000 I-3.269833 J-4.922932
G02 X56.976983 Y28.363647 Z-1.000000 I-10.443920 J-13.396017
G03 X57.571280 Y27.893265 Z-1.000000 I6.576443 J7.698288
G03 X57.872843 Y27.707577 Z-1.000000 I1.306337 J1.783814
G02 X58.163801 Y27.513860 Z-1.000000 I-0.689138 J-1.350433
G02 X58.421163 Y27.242937 Z-1.000000 I-1.119168 J-1.320851
G03 X58.679404 Y26.973045 Z-1.000000 I1.331760 J1.015779
G03 X58.990413 Y26.767617 Z-1.000000 I1.068948 J1.280197
G02 X59.295848 Y26.556938 Z-1.000000 I-0.641567 J-1.256864
G02 X59.589303 Y26.225417 Z-1.000000 I-1.346544 J-1.487573
G03 X59.879614 Y25.889667 Z-1.000000 I1.835094 J1.293359
G03 X60.143053 Y25.700317 Z-1.000000 I0.825492 J0.870553
G02 X60.394996 Y25.504150 Z-1.000000 I-0.432437 J-0.815262
G02 X60.633523 Y25.158090 Z-1.000000 I-1.185247 J-1.072185
G03 X60.867378 Y24.800859 Z-1.000000 I1.764350 J0.899843
G03 X61.198943 Y24.469670 Z-1.000000 I1.844265 J1.514790
G02 X61.507507 Y24.126131 Z-1.000000 I-0.963353 J-1.175619
G02 X61.767363 Y23.600780 Z-1.000000 I-2.049029 J-1.340462
G03 X62.013558 Y23.060096 Z-1.000000 I3.189827 J1.126063
G03 X62.326763 Y22.612820 Z-1.000000 I2.486778 J1.408066
G02 X62.597337 Y22.093001 Z-1.000000 I-0.991777 J-0.846564
G02 X62.885073 Y20.455810 Z-1.000000 I-10.156431 J-2.628872
G02 X62.928954 Y19.346613 Z-1.000000 I-10.019560 J-0.951851
G02 X62.847673 Y18.057110 Z-1.000000 I-13.657145 J0.213535
G02 X62.553415 Y16.653527 Z-1.000000 I-7.410260 J0.820910
G02 X62.231753 Y16.086810 Z-1.000000 I-1.469290 J0.459306
G03 X61.997634 Y15.747357 Z-1.000000 I1.225298 J-1.095541
G03 X61.815043 Y15.282480 Z-1.000000 I2.141200 J-1.109304
G02 X61.484174 Y14.434577 Z-1.000000 I-4.326511 J1.199784
G02 X61.216353 Y14.114270 Z-1.000000 I-0.840765 J0.430875
G03 X60.968952 Y13.863768 Z-1.000000 I0.764799 J-1.002754
G03 X60.712123 Y13.435790 Z-1.000000 I2.034074 J-1.511694
G02 X60.456970 Y13.007501 Z-1.000000 I-2.365825 J1.119295
G02 X60.244293 Y12.797760 Z-1.000000 I-0.757534 J0.555438
G03 X60.019736 Y12.594370 Z-1.000000 I0.750383 J-1.054135
G03 X59.661503 Y12.129930 Z-1.000000 I3.656595 J-3.190789
G02 X58.361459 Y10.595088 Z-1.000000 I-7.848027 J5.329444
G02 X57.137253 Y9.721970 Z-1.000000 I-3.659648 J3.836428
G03 X56.904376 Y9.563111 Z-1.000000 I0.533287 J-1.031880
G03 X56.598233 Y9.249010 Z-1.000000 I1.858229 J-2.117399
G02 X56.278412 Y8.958238 Z-1.000000 I-1.204181 J1.003210
G02 X55.853243 Y8.739840 Z-1.000000 I-1.081627 J1.582622
G03 X55.418127 Y8.531215 Z-1.000000 I0.850103 J-2.331067
G03 X55.091243 Y8.278340 Z-1.000000 I0.941350 J-1.554568
G02 X54.417220 Y7.977025 Z-1.000000 I-0.747187 J0.766881
G02 X46.982143 Y7.722930 Z-1.000000 I-7.428240 J108.451781
G02 X39.825555 Y7.794809 Z-1.000000 I0.000000 J356.306029
G02 X39.582563 Y7.871100 Z-1.000000 I0.009124 J0.454182
G01 X39.582513 Y7.870910 Z-1.000000
G00 Z5.000000

(End cutting path id: path8937)

(Footer)
M5
G00 X0.0000 Y0.0000
M2
(Using default footer. To add your own footer create file "footer" in the output dir.)
(end)
%
