%
(Header)
(Generated by gcodetools from Inkscape.)
(Using default header. To add your own header create file "header" in the output dir.)
M3 S2000
(Header end.)
G21 (All units in mm)

(Start cutting path id: path1)
(Change tool to Default tool)

G00 Z5.000000
G00 X41.734947 Y4.601720

G01 Z-0.125000 F100.0(Penetrate)
G02 X37.274810 Y9.018078 Z-0.125000 I0.973306 J5.443308 F400.000000
G02 X39.573436 Y16.037950 Z-0.125000 I7.524961 J1.422259
G02 X45.264328 Y19.970833 Z-0.125000 I16.182231 J-17.331922
G02 X49.590242 Y20.979900 Z-0.125000 I4.325914 J-8.768158
G03 X49.710502 Y21.246472 Z-0.125000 I-0.000000 J0.160413
G03 X46.009290 Y25.036510 Z-0.125000 I-39.461470 J-34.834368
G02 X35.981207 Y37.388215 Z-0.125000 I38.203324 J41.263097
G02 X29.464294 Y52.637694 Z-0.125000 I52.402225 J31.411509
G03 X27.449164 Y57.187277 Z-0.125000 I-16.137626 J-4.426712
G03 X26.139373 Y57.868837 Z-0.125000 I-1.243499 J-0.790371
G03 X24.307493 Y57.613426 Z-0.125000 I0.445336 J-9.891148
G03 X21.685440 Y56.816275 Z-0.125000 I5.000512 J-21.159005
G02 X19.043529 Y56.092181 Z-0.125000 I-5.301917 J14.162798
G02 X13.763513 Y55.400785 Z-0.125000 I-10.051462 J56.253658
G02 X8.874979 Y55.662664 Z-0.125000 I-1.495294 J17.845573
G02 X7.822795 Y56.547206 Z-0.125000 I0.267522 J1.386294
G03 X7.046818 Y57.963265 Z-0.125000 I-5.487038 J-2.086168
G03 X6.447571 Y58.397112 Z-0.125000 I-0.988934 J-0.735178
G02 X5.963562 Y58.859273 Z-0.125000 I0.248116 J0.744371
G02 X5.678172 Y60.393122 Z-0.125000 I3.979197 J1.533849
G03 X5.398309 Y62.001235 Z-0.125000 I-4.760084 J-0.000000
G03 X4.788879 Y62.870708 Z-0.125000 I-1.895764 J-0.680458
G02 X3.772809 Y64.852654 Z-0.125000 I1.807727 J2.178178
G02 X4.546344 Y66.360779 Z-0.125000 I1.635359 J0.113645
G03 X4.948990 Y66.896603 Z-0.125000 I-0.483732 J0.782697
G03 X5.193103 Y68.682900 Z-0.125000 I-6.413548 J1.786297
G02 X6.325125 Y70.275239 Z-0.125000 I1.685929 J0.000000
G02 X10.736008 Y70.611047 Z-0.125000 I2.839723 J-8.163470
G03 X14.411016 Y70.100679 Z-0.125000 I7.529236 J40.729313
G03 X14.778589 Y70.233235 Z-0.125000 I0.042746 J0.457379
G03 X14.834070 Y70.575017 Z-0.125000 I-0.209384 J0.209383
G03 X12.630446 Y74.530605 Z-0.125000 I-45.294418 J-22.641521
G02 X10.721906 Y78.509466 Z-0.125000 I17.788999 J10.980012
G02 X10.845392 Y79.552792 Z-0.125000 I1.116465 J0.396828
G02 X12.593101 Y79.998055 Z-0.125000 I1.115625 J-0.726345
G02 X19.659516 Y74.797561 Z-0.125000 I-14.958870 J-27.727225
G03 X25.420306 Y69.537617 Z-0.125000 I79.843404 J81.661375
G03 X26.143623 Y69.271196 Z-0.125000 I0.723317 J0.848669
G03 X26.637669 Y69.653118 Z-0.125000 I0.000000 J0.510504
G03 X27.719773 Y75.327223 Z-0.125000 I-42.272704 J11.002033
G02 X35.092257 Y97.815076 Z-0.125000 I60.758393 J-7.466775
G02 X48.680039 Y112.683138 Z-0.125000 I38.670970 J-21.698133
G03 X51.984505 Y115.501673 Z-0.125000 I-11.725541 J17.093443
G03 X52.769182 Y116.988587 Z-0.125000 I-2.252170 J2.139022
G02 X54.426733 Y121.913376 Z-0.125000 I22.498811 J-4.831154
G02 X56.849121 Y125.704415 Z-0.125000 I15.622647 J-7.313073
G02 X63.577499 Y129.560473 Z-0.125000 I8.629319 J-7.259017
G02 X68.880008 Y127.761980 Z-0.125000 I0.990962 J-5.794298
G03 X70.602940 Y126.788707 Z-0.125000 I2.384933 J2.210272
G03 X73.053054 Y126.894217 Z-0.125000 I1.016766 J4.889601
G02 X80.067413 Y126.042114 Z-0.125000 I2.532217 J-8.451773
G02 X84.448251 Y120.173547 Z-0.125000 I-4.814713 J-8.163558
G03 X85.331333 Y118.708371 Z-0.125000 I2.828138 J0.705847
G03 X88.540851 Y116.506919 Z-0.125000 I10.067224 J11.236782
G02 X99.805082 Y108.069215 Z-0.125000 I-18.792374 J-36.825246
G02 X109.025240 Y94.818150 Z-0.125000 I-39.544271 J-37.348352
G02 X114.732184 Y64.715863 Z-0.125000 I-51.193546 J-25.297652
G02 X103.843190 Y33.448060 Z-0.125000 I-66.449087 J5.610911
G02 X95.005604 Y23.169032 Z-0.125000 I-45.604092 J30.270316
G02 X90.565201 Y21.408790 Z-0.125000 I-4.564855 J5.034525
G03 X90.493085 Y21.171344 Z-0.125000 I0.002444 J-0.130416
G03 X94.122376 Y18.930460 Z-0.125000 I22.050335 J31.652866
G02 X100.134470 Y13.826149 Z-0.125000 I-9.202255 J-16.931660
G02 X101.428720 Y9.531760 Z-0.125000 I-4.920647 J-3.825218
G02 X99.336587 Y6.473193 Z-0.125000 I-3.688904 J0.278481
G02 X90.192193 Y4.155110 Z-0.125000 I-10.348332 J21.626702
G02 X79.636057 Y4.152023 Z-0.125000 I-5.308948 J105.589762
G02 X75.417962 Y4.985067 Z-0.125000 I0.736749 J14.826121
G02 X72.683178 Y7.254771 Z-0.125000 I1.718387 J4.852932
G02 X71.960086 Y10.610960 Z-0.125000 I4.815722 J2.793539
G02 X72.366465 Y13.291945 Z-0.125000 I27.427241 J-2.786079
G02 X72.738531 Y14.458420 Z-0.125000 I5.509109 J-1.114644
G03 X72.463417 Y15.084664 Z-0.125000 I-0.422878 J0.187778
G03 X69.380030 Y15.590250 Z-0.125000 I-3.083387 J-9.149443
G01 X65.518942 Y15.590250 Z-0.125000
G01 X66.477884 Y12.677420 Z-0.125000
G02 X66.613006 Y7.847204 Z-0.125000 I-8.023561 J-2.641452
G02 X64.444477 Y5.097840 Z-0.125000 I-4.284411 J1.149397
G02 X57.857757 Y3.348904 Z-0.125000 I-6.902813 J12.719198
G02 X41.734947 Y4.601720 Z-0.125000 I-1.779824 J81.465686
G01 X41.734947 Y4.601720 Z-0.125000
G00 Z5.000000

(End cutting path id: path1)


(Start cutting path id: path1)
(Change tool to Default tool)

G00 Z5.000000
G00 X42.766295 Y10.333670

G01 Z-0.125000 F100.0(Penetrate)
G02 X41.376584 Y10.989697 Z-0.125000 I1.236771 J4.419926 F400.000000
G02 X40.502641 Y11.913260 Z-0.125000 I1.798077 J2.576747
G02 X40.720137 Y13.404049 Z-0.125000 I0.995629 J0.616004
G02 X46.534781 Y17.278930 Z-0.125000 I16.738375 J-18.817429
G02 X54.559334 Y19.428276 Z-0.125000 I9.693947 J-20.137765
G02 X59.341753 Y18.238220 Z-0.125000 I0.587508 J-7.843475
G02 X61.766403 Y14.932045 Z-0.125000 I-2.981345 J-4.728600
G02 X60.904387 Y12.299340 Z-0.125000 I-2.468014 J-0.649383
G02 X53.957814 Y9.408902 Z-0.125000 I-8.381574 J10.350842
G02 X42.766295 Y10.333670 Z-0.125000 I-3.196636 J29.496522
G01 X42.766295 Y10.333670 Z-0.125000
G00 Z5.000000

(End cutting path id: path1)


(Start cutting path id: path1)
(Change tool to Default tool)

G00 Z5.000000
G00 X58.398068 Y11.919990

G01 Z-0.125000 F100.0(Penetrate)
G03 X60.446973 Y14.330893 Z-0.125000 I-1.360809 J3.232565 F400.000000
G03 X59.618573 Y16.984820 Z-0.125000 I-2.632805 J0.634445
G03 X55.558391 Y18.600791 Z-0.125000 I-4.240638 J-4.746089
G03 X48.456359 Y17.301450 Z-0.125000 I-0.492594 J-17.366614
G03 X41.485460 Y13.654649 Z-0.125000 I16.337078 J-39.714369
G03 X40.764810 Y12.330910 Z-0.125000 I0.855441 J-1.323739
G03 X41.578676 Y11.344169 Z-0.125000 I1.005101 J-0.000000
G03 X47.892039 Y10.663715 Z-0.125000 I7.194290 J37.121344
G03 X54.415259 Y10.909331 Z-0.125000 I1.248693 J53.583127
G03 X58.398068 Y11.919990 Z-0.125000 I-1.353494 J13.686919
G01 X58.398068 Y11.919990 Z-0.125000
G00 Z5.000000

(End cutting path id: path1)


(Start cutting path id: path1)
(Change tool to Default tool)

G00 Z5.000000
G00 X64.753446 Y7.092350

G01 Z-0.125000 F100.0(Penetrate)
G03 X65.705973 Y8.719131 Z-0.125000 I-4.891923 J3.956616 F400.000000
G03 X65.988386 Y10.190230 Z-0.125000 I-3.690289 J1.471099
G03 X64.767733 Y14.497458 Z-0.125000 I-8.209623 J-0.000000
G03 X60.822959 Y18.571720 Z-0.125000 I-11.214863 J-6.911600
G03 X58.113543 Y19.684957 Z-0.125000 I-4.176544 J-6.311217
G03 X53.559708 Y20.006990 Z-0.125000 I-3.563590 J-18.033680
G03 X40.918696 Y15.932448 Z-0.125000 I1.402495 J-25.997403
G03 X37.531019 Y9.739200 Z-0.125000 I3.967317 J-6.193248
G03 X39.457568 Y7.217273 Z-0.125000 I2.613924 J0.000000
G03 X53.273485 Y5.448440 Z-0.125000 I13.240711 J48.579145
G03 X63.204896 Y6.212959 Z-0.125000 I-0.870658 J76.198968
G03 X64.753446 Y7.092350 Z-0.125000 I-0.345271 J2.411142
G01 X64.753446 Y7.092350 Z-0.125000
G00 Z5.000000

(End cutting path id: path1)


(Start cutting path id: path1)
(Change tool to Default tool)

G00 Z5.000000
G00 X80.063373 Y10.801860

G01 Z-0.125000 F100.0(Penetrate)
G02 X76.884438 Y13.129713 Z-0.125000 I1.767985 J5.748890 F400.000000
G02 X76.555389 Y15.874510 Z-0.125000 I2.435194 J1.684056
G02 X78.147589 Y17.741034 Z-0.125000 I3.435716 J-1.318409
G02 X82.405039 Y19.260430 Z-0.125000 I6.258713 J-10.812802
G02 X86.075766 Y19.097262 Z-0.125000 I1.443564 J-8.895740
G02 X92.171321 Y17.035841 Z-0.125000 I-10.418244 J-40.849299
G02 X97.754840 Y14.017619 Z-0.125000 I-13.377357 J-31.420954
G02 X98.649683 Y12.344330 Z-0.125000 I-1.117042 J-1.673289
G02 X98.358388 Y11.603613 Z-0.125000 I-1.087411 J0.000000
G02 X97.032783 Y10.606510 Z-0.125000 I-3.457562 J3.216962
G02 X90.716320 Y9.138013 Z-0.125000 I-6.159423 J12.174806
G02 X80.063373 Y10.801860 Z-0.125000 I0.434111 J37.714635
G01 X80.063373 Y10.801860 Z-0.125000
G00 Z5.000000

(End cutting path id: path1)


(Start cutting path id: path1)
(Change tool to Default tool)

G00 Z5.000000
G00 X75.853881 Y19.137860

G01 Z-0.125000 F100.0(Penetrate)
G02 X80.227116 Y21.442958 Z-0.125000 I7.272324 J-8.496060 F400.000000
G02 X85.995789 Y21.860000 Z-0.125000 I3.968249 J-14.784540
G03 X91.787876 Y23.432370 Z-0.125000 I0.944509 J7.974986
G03 X100.916280 Y33.156680 Z-0.125000 I-23.939971 J31.619592
G03 X108.583768 Y49.269847 Z-0.125000 I-53.045436 J35.122673
G03 X111.717660 Y67.654302 Z-0.125000 I-66.315905 J20.763827
G03 X111.001955 Y80.564118 Z-0.125000 I-72.182554 J2.473031
G03 X108.463200 Y89.939579 Z-0.125000 I-40.332204 J-5.889984
G03 X100.733770 Y103.160929 Z-0.125000 I-49.087253 J-19.827204
G03 X90.375180 Y112.575403 Z-0.125000 I-34.548803 J-27.607546
G03 X86.397171 Y113.968437 Z-0.125000 I-4.811698 J-7.364092
G03 X85.380499 Y113.050903 Z-0.125000 I-0.088014 J-0.924504
G02 X84.201306 Y109.056604 Z-0.125000 I-7.545590 J0.056391
G02 X80.273264 Y105.023719 Z-0.125000 I-11.634337 J7.402476
G02 X76.096852 Y103.610481 Z-0.125000 I-4.674549 J6.936563
G02 X71.810524 Y104.518845 Z-0.125000 I-0.491937 J8.245884
G02 X67.651400 Y107.813708 Z-0.125000 I6.362776 J12.304243
G02 X66.635143 Y110.563087 Z-0.125000 I3.210953 J2.749379
G03 X66.121909 Y110.988974 Z-0.125000 I-0.433320 J0.000000
G03 X63.724731 Y110.016970 Z-0.125000 I1.202208 J-6.406900
G02 X58.348255 Y108.449607 Z-0.125000 I-5.210106 J7.867002
G02 X54.555852 Y110.178660 Z-0.125000 I0.092152 J5.225664
G02 X53.372202 Y111.708865 Z-0.125000 I9.658448 J8.693934
G02 X52.846515 Y112.765693 Z-0.125000 I4.036153 J2.666819
G03 X52.312171 Y113.706881 Z-0.125000 I-2.897030 J-1.022464
G03 X51.905844 Y113.897520 Z-0.125000 I-0.406327 J-0.337703
G03 X48.896743 Y112.744789 Z-0.125000 I0.000000 J-4.503858
G03 X40.318295 Y103.492638 Z-0.125000 I46.133610 J-51.377334
G03 X32.683917 Y89.309204 Z-0.125000 I39.477909 J-30.395745
G03 X29.312694 Y71.510801 Z-0.125000 I59.585864 J-20.504726
G03 X30.023180 Y58.602446 Z-0.125000 I66.039152 J-2.838883
G03 X33.045737 Y47.291575 Z-0.125000 I53.579231 J8.258466
G03 X37.403355 Y38.586903 Z-0.125000 I47.944233 J18.558144
G03 X43.371684 Y30.387986 Z-0.125000 I61.214607 J38.288878
G03 X50.595486 Y23.349388 Z-0.125000 I39.092881 J32.895281
G03 X54.282085 Y22.054230 Z-0.125000 I3.699311 J4.635460
G02 X58.749404 Y21.253515 Z-0.125000 I-0.031143 J-13.036052
G02 X63.089246 Y18.815090 Z-0.125000 I-5.404815 J-14.700521
G03 X65.711355 Y17.433574 Z-0.125000 I4.970026 J6.253946
G03 X69.369986 Y16.883760 Z-0.125000 I3.658631 J11.897925
G03 X72.994316 Y17.495789 Z-0.125000 I0.000000 J11.037340
G03 X75.853881 Y19.137860 Z-0.125000 I-2.916999 J8.390687
G01 X75.853881 Y19.137860 Z-0.125000
G00 Z5.000000

(End cutting path id: path1)


(Start cutting path id: path1)
(Change tool to Default tool)

G00 Z5.000000
G00 X71.165918 Y40.006390

G01 Z-0.125000 F100.0(Penetrate)
G02 X68.158441 Y43.283528 Z-0.125000 I2.792371 J5.581171 F400.000000
G02 X63.054690 Y60.424433 Z-0.125000 I93.767102 J37.249689
G02 X59.913212 Y86.822453 Z-0.125000 I158.638501 J32.264598
G02 X61.889322 Y92.561171 Z-0.125000 I8.432768 J0.305795
G02 X63.765693 Y93.959064 Z-0.125000 I3.909938 J-3.289992
G02 X66.346755 Y94.494770 Z-0.125000 I2.581062 J-5.950000
G02 X68.987615 Y93.991595 Z-0.125000 I0.000000 J-7.181720
G02 X71.496368 Y92.458488 Z-0.125000 I-3.158612 J-7.987901
G02 X73.641550 Y90.286445 Z-0.125000 I-14.179285 J-16.149284
G02 X74.680515 Y88.739625 Z-0.125000 I-6.081917 J-5.207424
G02 X75.737921 Y85.870471 Z-0.125000 I-11.197002 J-5.756000
G02 X78.796856 Y71.855377 Z-0.125000 I-423.962497 J-99.875443
G02 X81.359788 Y58.041727 Z-0.125000 I-459.996591 J-92.490599
G02 X81.989304 Y52.389806 Z-0.125000 I-48.731759 J-8.288806
G02 X80.733629 Y43.253298 Z-0.125000 I-24.387878 J-1.302795
G02 X77.832537 Y40.115260 Z-0.125000 I-4.967268 J1.682164
G02 X74.148493 Y39.327548 Z-0.125000 I-3.843333 J8.966065
G02 X71.165918 Y40.006390 Z-0.125000 I-0.105012 J6.430196
G01 X71.165918 Y40.006390 Z-0.125000
G00 Z5.000000

(End cutting path id: path1)


(Start cutting path id: path1)
(Change tool to Default tool)

G00 Z5.000000
G00 X76.887449 Y40.539580

G01 Z-0.125000 F100.0(Penetrate)
G03 X79.231314 Y43.164719 Z-0.125000 I-2.121940 J4.253515 F400.000000
G03 X80.406970 Y50.191831 Z-0.125000 I-18.303939 J6.674204
G03 X79.934514 Y55.619901 Z-0.125000 I-39.676839 J-0.718851
G03 X77.501494 Y69.570357 Z-0.125000 I-408.080034 J-63.983555
G03 X74.541616 Y83.595058 Z-0.125000 I-387.043731 J-74.359896
G03 X73.294009 Y87.214807 Z-0.125000 I-17.676986 J-4.067792
G03 X67.481693 Y92.836634 Z-0.125000 I-10.275338 J-4.807963
G03 X62.278897 Y91.928292 Z-0.125000 I-1.903901 J-4.449292
G03 X60.655534 Y88.812792 Z-0.125000 I3.586157 J-3.849288
G03 X60.449612 Y78.941324 Z-0.125000 I41.150746 J-5.796301
G03 X64.453754 Y53.028643 Z-0.125000 I236.943695 J23.347877
G03 X67.716175 Y44.579804 Z-0.125000 I27.792042 J5.877282
G03 X71.238942 Y40.509594 Z-0.125000 I12.646297 J7.385790
G03 X74.069141 Y39.520310 Z-0.125000 I2.830199 J3.553751
G03 X74.813536 Y39.650783 Z-0.125000 I0.000000 J2.188755
G03 X76.887449 Y40.539580 Z-0.125000 I-6.635157 J18.346458
G01 X76.887449 Y40.539580 Z-0.125000
G00 Z5.000000

(End cutting path id: path1)


(Start cutting path id: path1)
(Change tool to Default tool)

G00 Z5.000000
G00 X90.069137 Y45.016474

G01 Z-0.125000 F100.0(Penetrate)
G02 X88.222627 Y46.193755 Z-0.125000 I2.779973 J6.396982 F400.000000
G02 X87.361403 Y47.416505 Z-0.125000 I2.157806 J2.434485
G03 X86.849309 Y48.367834 Z-0.125000 I-4.480726 J-1.798453
G03 X86.725649 Y48.334050 Z-0.125000 I-0.055869 J-0.038710
G02 X85.868274 Y48.081822 Z-0.125000 I-0.475962 J0.034581
G02 X84.385752 Y51.445780 Z-0.125000 I6.453393 J4.852719
G02 X84.866213 Y55.316579 Z-0.125000 I6.304237 J1.182708
G02 X88.913083 Y61.254301 Z-0.125000 I19.765076 J-9.123001
G03 X91.184000 Y64.623085 Z-0.125000 I-8.624322 J8.263517
G03 X91.491949 Y66.994651 Z-0.125000 I-3.775085 J1.695973
G03 X90.097187 Y71.162571 Z-0.125000 I-13.697728 J-2.266507
G03 X88.948307 Y71.858227 Z-0.125000 I-1.148880 J-0.600862
G02 X87.523975 Y72.697551 Z-0.125000 I0.000000 J1.628207
G02 X86.684655 Y75.945253 Z-0.125000 I5.863742 J3.247702
G02 X88.113797 Y78.739028 Z-0.125000 I3.445294 J0.000000
G02 X91.440703 Y79.377498 Z-0.125000 I2.349529 J-3.255733
G02 X94.322317 Y76.973415 Z-0.125000 I-1.051470 J-4.189367
G02 X96.880683 Y67.392935 Z-0.125000 I-27.461310 J-12.465086
G03 X97.678515 Y64.691291 Z-0.125000 I7.371597 J0.708306
G03 X98.994213 Y63.318439 Z-0.125000 I2.995330 J1.553741
G02 X100.331734 Y61.945407 Z-0.125000 I-1.741547 J-3.034485
G02 X101.247510 Y59.142557 Z-0.125000 I-7.286427 J-3.931728
G03 X101.752154 Y56.026988 Z-0.125000 I65.661847 J9.036914
G03 X102.267290 Y53.674885 Z-0.125000 I37.921103 J7.072673
G02 X102.523008 Y49.285597 Z-0.125000 I-11.368928 J-2.864443
G02 X101.208430 Y45.602690 Z-0.125000 I-9.195616 J1.206221
G02 X98.351760 Y43.688296 Z-0.125000 I-3.542551 J2.197649
G02 X96.034643 Y44.739702 Z-0.125000 I-0.375525 J2.251374
G03 X95.566014 Y44.992600 Z-0.125000 I-0.453965 J-0.280570
G03 X94.449015 Y44.696112 Z-0.125000 I0.069066 J-2.512551
G02 X92.795342 Y44.345041 Z-0.125000 I-1.432252 J2.676196
G02 X90.069137 Y45.016462 Z-0.125000 I0.610757 J8.350279
G01 X90.069137 Y45.016474 Z-0.125000
G00 Z5.000000

(End cutting path id: path1)


(Start cutting path id: path1)
(Change tool to Default tool)

G00 Z5.000000
G00 X100.292150 Y46.682435

G01 Z-0.125000 F100.0(Penetrate)
G03 X101.169360 Y49.998229 Z-0.125000 I-6.554840 J3.508048 F400.000000
G03 X100.519580 Y55.474502 Z-0.125000 I-19.212897 J0.497004
G03 X99.726879 Y56.271509 Z-0.125000 I-1.091358 J-0.292749
G03 X96.700173 Y56.521244 Z-0.125000 I-2.179978 J-7.954428
G02 X93.366961 Y56.646058 Z-0.125000 I-1.224634 J11.865429
G02 X91.035798 Y57.538557 Z-0.125000 I1.180855 J6.575027
G03 X88.911322 Y58.229881 Z-0.125000 I-2.481030 J-4.014361
G03 X87.794704 Y57.784150 Z-0.125000 I-0.103262 J-1.362820
G03 X85.875295 Y54.441789 Z-0.125000 I6.719568 J-6.081136
G03 X85.783571 Y51.440456 Z-0.125000 I5.243473 J-1.662314
G03 X86.713775 Y50.496399 Z-0.125000 I1.266856 J0.317961
G03 X87.609365 Y50.953414 Z-0.125000 I0.193756 J0.726337
G02 X88.173578 Y51.343070 Z-0.125000 I0.566889 J-0.217531
G02 X89.104333 Y50.960014 Z-0.125000 I0.005767 J-1.308298
G02 X89.478988 Y49.926303 Z-0.125000 I-0.917164 J-0.917164
G02 X88.918886 Y48.904486 Z-0.125000 I-1.450931 J0.130902
G03 X88.480948 Y47.908636 Z-0.125000 I0.695617 J-0.900126
G03 X89.105365 Y46.696275 Z-0.125000 I1.781204 J0.150415
G03 X91.075520 Y45.760746 Z-0.125000 I2.739937 J3.227839
G03 X95.118378 Y45.387659 Z-0.125000 I4.070064 J22.012964
G03 X99.106480 Y45.795701 Z-0.125000 I0.023653 J19.462210
G03 X100.292150 Y46.682655 Z-0.125000 I-0.356242 J1.712194
G01 X100.292150 Y46.682435 Z-0.125000
G00 Z5.000000

(End cutting path id: path1)


(Start cutting path id: path1)
(Change tool to Default tool)

G00 Z5.000000
G00 X105.187250 Y37.364380

G01 Z-0.125000 F100.0(Penetrate)
G03 X109.212899 Y46.169932 Z-0.125000 I-50.389943 J28.359837 F400.000000
G03 X112.235150 Y56.977288 Z-0.125000 I-73.099471 J26.268352
G03 X113.539882 Y73.204739 Z-0.125000 I-66.548855 J13.516888
G03 X111.033570 Y87.057047 Z-0.125000 I-50.735557 J-2.026745
G03 X104.584927 Y100.299678 Z-0.125000 I-51.936352 J-17.099535
G03 X95.303513 Y110.638902 Z-0.125000 I-40.475094 J-26.998547
G03 X86.213180 Y117.163704 Z-0.125000 I-48.894318 J-58.524690
G03 X85.398817 Y116.699629 Z-0.125000 I-0.279300 J-0.456445
G03 X85.618984 Y116.288997 Z-0.125000 I0.506084 J0.007006
G03 X89.348258 Y113.995687 Z-0.125000 I25.256490 J36.892083
G02 X93.072319 Y111.539302 Z-0.125000 I-13.317516 J-24.241504
G02 X97.616103 Y107.528105 Z-0.125000 I-31.455327 J-40.210952
G02 X108.537281 Y90.940901 Z-0.125000 I-34.246257 J-34.436979
G02 X112.532420 Y69.783531 Z-0.125000 I-53.090719 J-20.980988
G02 X109.980986 Y51.228960 Z-0.125000 I-70.322730 J0.217350
G02 X102.537520 Y33.699490 Z-0.125000 I-70.071236 J19.408979
G03 X101.770829 Y32.148498 Z-0.125000 I10.105141 J-5.960198
G03 X101.881760 Y32.082590 Z-0.125000 I0.060473 J-0.024526
G03 X102.854490 Y33.436385 Z-0.125000 I-10.100094 J8.283485
G03 X105.187250 Y37.364380 Z-0.125000 I-83.156896 J52.041965
G01 X105.187250 Y37.364380 Z-0.125000
G00 Z5.000000

(End cutting path id: path1)


(Start cutting path id: path1)
(Change tool to Default tool)

G00 Z5.000000
G00 X99.536153 Y59.208968

G01 Z-0.125000 F100.0(Penetrate)
G03 X100.093731 Y60.293867 Z-0.125000 I-1.410870 J1.410841 F400.000000
G03 X99.886033 Y61.322041 Z-0.125000 I-1.455604 J0.241023
G03 X98.517489 Y61.926132 Z-0.125000 I-1.133090 J-0.714733
G03 X97.458223 Y60.888600 Z-0.125000 I0.231318 J-1.295657
G02 X96.651883 Y59.427135 Z-0.125000 I-2.709882 J0.541958
G02 X95.389543 Y58.923058 Z-0.125000 I-1.262340 J1.328577
G02 X92.095744 Y59.806847 Z-0.125000 I0.000000 J6.579733
G02 X91.211967 Y61.338815 Z-0.125000 I0.885892 J1.531968
G03 X90.955510 Y61.796430 Z-0.125000 I-0.536506 J-0.000000
G03 X90.544002 Y61.747600 Z-0.125000 I-0.174764 J-0.285574
G03 X90.267697 Y60.246936 Z-0.125000 I0.950851 J-0.950841
G03 X92.058147 Y58.368178 Z-0.125000 I3.549904 J1.590521
G03 X96.226013 Y57.615359 Z-0.125000 I3.342262 J6.590136
G03 X99.536153 Y59.208968 Z-0.125000 I-0.621192 J5.524908
G01 X99.536153 Y59.208968 Z-0.125000
G00 Z5.000000

(End cutting path id: path1)


(Start cutting path id: path1)
(Change tool to Default tool)

G00 Z5.000000
G00 X96.930263 Y11.301970

G01 Z-0.125000 F100.0(Penetrate)
G01 X98.444623 Y12.141920 Z-0.125000 F400.000000
G01 X96.455283 Y13.815830 Z-0.125000
G03 X86.120511 Y18.739679 Z-0.125000 I-14.616195 J-17.370382
G03 X79.133867 Y17.142260 Z-0.125000 I-1.678075 J-8.738072
G03 X77.288653 Y14.975620 Z-0.125000 I3.787568 J-5.094730
G03 X77.243765 Y13.577875 Z-0.125000 I1.434430 J-0.745660
G03 X78.301340 Y12.409804 Z-0.125000 I2.287552 J1.008356
G03 X81.833962 Y11.016840 Z-0.125000 I6.752145 J11.947824
G03 X91.810505 Y9.925488 Z-0.125000 I9.233337 J38.260383
G03 X96.930263 Y11.301970 Z-0.125000 I-0.207389 J10.980958
G01 X96.930263 Y11.301970 Z-0.125000
G00 Z5.000000

(End cutting path id: path1)


(Start cutting path id: path1)
(Change tool to Default tool)

G00 Z5.000000
G00 X97.230223 Y5.932750

G01 Z-0.125000 F100.0(Penetrate)
G03 X99.711180 Y10.801020 Z-0.125000 I-0.991853 J3.571770 F400.000000
G03 X92.568203 Y18.420460 Z-0.125000 I-12.688147 J-4.736850
G03 X84.253861 Y20.564889 Z-0.125000 I-10.425430 J-23.230965
G03 X79.066491 Y19.543730 Z-0.125000 I-0.800365 J-9.620433
G03 X74.584884 Y15.583943 Z-0.125000 I5.451594 J-10.685994
G03 X73.112630 Y10.751120 Z-0.125000 I7.088883 J-4.800194
G03 X73.662861 Y7.753895 Z-0.125000 I8.617392 J0.032865
G03 X75.168317 Y6.169211 Z-0.125000 I2.624386 J0.985740
G03 X77.719329 Y5.546255 Z-0.125000 I3.078599 J7.072210
G03 X85.714519 Y5.265400 Z-0.125000 I8.208003 J119.718507
G03 X94.732699 Y5.518448 Z-0.125000 I0.273055 J151.091436
G03 X97.230223 Y5.932750 Z-0.125000 I-0.689394 J11.890870
G01 X97.230223 Y5.932750 Z-0.125000
G00 Z5.000000

(End cutting path id: path1)


(Start cutting path id: path1)
(Change tool to Default tool)

G00 Z5.000000
G00 X22.332198 Y58.276339

G01 Z-0.125000 F100.0(Penetrate)
G02 X24.904874 Y59.422012 Z-0.125000 I12.182949 J-23.896139 F400.000000
G02 X25.702741 Y59.569854 Z-0.125000 I0.797867 J-2.079028
G03 X26.160337 Y59.945641 Z-0.125000 I0.000000 J0.466501
G03 X26.536127 Y63.773787 Z-0.125000 I-19.310650 J3.828146
G03 X26.002102 Y67.443688 Z-0.125000 I-12.877079 J-0.000000
G03 X25.286196 Y67.977711 Z-0.125000 I-0.715906 J-0.212857
G02 X24.281885 Y68.313365 Z-0.125000 I-0.000000 J1.670327
G02 X23.644079 Y69.213368 Z-0.125000 I1.089840 J1.448337
G03 X23.028822 Y70.276728 Z-0.125000 I-2.716843 J-0.862284
G03 X21.498531 Y71.554954 Z-0.125000 I-5.535949 J-5.072490
G02 X19.861691 Y72.802256 Z-0.125000 I6.216116 J9.855108
G02 X16.472631 Y76.140124 Z-0.125000 I41.955627 J45.988533
G03 X12.460191 Y79.239080 Z-0.125000 I-11.708876 J-11.013244
G03 X11.660686 Y78.764434 Z-0.125000 I-0.258860 J-0.474646
G03 X11.867593 Y77.978976 Z-0.125000 I1.594326 J0.000000
G03 X13.582968 Y75.368957 Z-0.125000 I20.513044 J11.613021
G02 X15.255156 Y72.742220 Z-0.125000 I-15.375601 J-11.633774
G02 X15.523243 Y71.696576 Z-0.125000 I-2.048823 J-1.082476
G03 X15.757957 Y70.646759 Z-0.125000 I2.653921 J0.042207
G03 X16.584869 Y69.344728 Z-0.125000 I4.973411 J2.244984
G03 X20.807587 Y65.367305 Z-0.125000 I20.510254 J17.544878
G03 X22.664349 Y64.743923 Z-0.125000 I1.856762 J2.453519
G02 X24.103471 Y64.426841 Z-0.125000 I-0.000000 J-3.424374
G02 X24.225366 Y64.020948 Z-0.125000 I-0.119025 J-0.256995
G02 X23.616508 Y63.641691 Z-0.125000 I-0.687037 J0.424609
G02 X20.878523 Y63.695456 Z-0.125000 I-1.139451 J11.716280
G03 X18.668478 Y63.480899 Z-0.125000 I-0.652954 J-4.763821
G03 X18.312158 Y62.817065 Z-0.125000 I0.179273 J-0.523773
G02 X18.443801 Y61.537752 Z-0.125000 I-4.075734 J-1.065828
G02 X18.131771 Y59.261995 Z-0.125000 I-13.422183 J0.681051
G03 X19.001134 Y57.873002 Z-0.125000 I1.135219 J-0.256034
G03 X22.332198 Y58.276339 Z-0.125000 I1.114740 J4.750524
G01 X22.332198 Y58.276339 Z-0.125000
G00 Z5.000000

(End cutting path id: path1)


(Start cutting path id: path1)
(Change tool to Default tool)

G00 Z5.000000
G00 X16.042978 Y58.233829

G01 Z-0.125000 F100.0(Penetrate)
G03 X16.260075 Y58.649223 Z-0.125000 I-0.221602 J0.380243 F400.000000
G03 X15.989328 Y58.903395 Z-0.125000 I-0.275395 J-0.022066
G03 X9.935750 Y58.143049 Z-0.125000 I-0.363330 J-21.585593
G03 X9.073658 Y57.013799 Z-0.125000 I0.308554 J-1.129250
G03 X9.667702 Y56.357982 Z-0.125000 I0.659029 J0.000000
G03 X12.382595 Y56.685913 Z-0.125000 I0.620668 J6.263648
G03 X14.893254 Y57.658646 Z-0.125000 I-14.714912 J41.706144
G03 X16.042982 Y58.233829 Z-0.125000 I-3.927334 J9.286990
G01 X16.042978 Y58.233829 Z-0.125000
G00 Z5.000000

(End cutting path id: path1)


(Start cutting path id: path1)
(Change tool to Default tool)

G00 Z5.000000
G00 X13.439271 Y60.305319

G01 Z-0.125000 F100.0(Penetrate)
G03 X16.567814 Y61.282755 Z-0.125000 I-4.416419 J19.631513 F400.000000
G03 X16.834752 Y61.678668 Z-0.125000 I-0.160134 J0.395913
G03 X16.507406 Y62.006911 Z-0.125000 I-0.328244 J0.000000
G03 X12.181986 Y61.833747 Z-0.125000 I-0.138635 J-50.645503
G03 X7.812373 Y61.303579 Z-0.125000 I4.791781 J-57.765647
G03 X6.898690 Y60.854454 Z-0.125000 I0.273894 J-1.711145
G03 X6.895096 Y59.629197 Z-0.125000 I0.578098 J-0.614330
G03 X8.661577 Y59.175921 Z-0.125000 I1.288690 J1.353456
G02 X10.048274 Y59.523107 Z-0.125000 I13.846843 J-52.362835
G02 X13.439271 Y60.305319 Z-0.125000 I73.833458 J-312.336861
G01 X13.439271 Y60.305319 Z-0.125000
G00 Z5.000000

(End cutting path id: path1)


(Start cutting path id: path1)
(Change tool to Default tool)

G00 Z5.000000
G00 X16.144877 Y63.868108

G01 Z-0.125000 F100.0(Penetrate)
G03 X15.999476 Y64.553182 Z-0.125000 I-0.269021 J0.300870 F400.000000
G03 X10.523780 Y65.676739 Z-0.125000 I-7.875365 J-24.476099
G03 X6.143929 Y65.610461 Z-0.125000 I-1.885963 J-20.119816
G03 X5.417160 Y65.041671 Z-0.125000 I0.110701 J-0.890155
G03 X5.356355 Y64.085271 Z-0.125000 I1.499676 J-0.575479
G03 X5.799511 Y63.475321 Z-0.125000 I0.965842 J0.235767
G03 X6.564047 Y63.251462 Z-0.125000 I0.788711 J1.276178
G03 X11.038831 Y63.300314 Z-0.125000 I1.334021 J82.772349
G03 X15.514496 Y63.593248 Z-0.125000 I-3.104711 J81.773934
G03 X16.144877 Y63.868108 Z-0.125000 I-0.101745 J1.093654
G01 X16.144877 Y63.868108 Z-0.125000
G00 Z5.000000

(End cutting path id: path1)


(Start cutting path id: path1)
(Change tool to Default tool)

G00 Z5.000000
G00 X16.030159 Y67.492627

G01 Z-0.125000 F100.0(Penetrate)
G03 X15.494162 Y68.033506 Z-0.125000 I-0.809197 J-0.265874 F400.000000
G03 X11.731711 Y69.091182 Z-0.125000 I-11.949228 J-35.285874
G03 X7.887952 Y69.765116 Z-0.125000 I-8.937383 J-39.675715
G03 X6.621951 Y69.611924 Z-0.125000 I-0.327930 J-2.597732
G03 X6.478429 Y68.563708 Z-0.125000 I0.216250 J-0.563543
G03 X9.770628 Y67.274672 Z-0.125000 I4.017667 J5.412469
G03 X15.726236 Y67.057103 Z-0.125000 I4.500490 J41.572262
G03 X16.030159 Y67.492627 Z-0.125000 I-0.011556 J0.331869
G01 X16.030159 Y67.492627 Z-0.125000
G00 Z5.000000

(End cutting path id: path1)


(Start cutting path id: path1)
(Change tool to Default tool)

G00 Z5.000000
G00 X73.911173 Y111.092064

G01 Z-0.125000 F100.0(Penetrate)
G02 X72.378059 Y113.350563 Z-0.125000 I0.916724 J2.271895 F400.000000
G02 X73.878813 Y117.001960 Z-0.125000 I5.124207 J0.028018
G02 X76.536759 Y117.199159 Z-0.125000 I1.443375 J-1.443376
G02 X78.276769 Y113.746012 Z-0.125000 I-2.556476 J-3.453147
G02 X76.922340 Y111.337560 Z-0.125000 I-2.818576 J0.000000
G02 X73.911151 Y111.092064 Z-0.125000 I-1.750339 J2.879225
G01 X73.911173 Y111.092064 Z-0.125000
G00 Z5.000000

(End cutting path id: path1)


(Start cutting path id: path1)
(Change tool to Default tool)

G00 Z5.000000
G00 X80.569180 Y107.739367

G01 Z-0.125000 F100.0(Penetrate)
G03 X83.887264 Y115.936205 Z-0.125000 I-8.860849 J8.356876 F400.000000
G03 X80.777417 Y123.585801 Z-0.125000 I-10.619888 J0.139551
G03 X76.848068 Y125.737394 Z-0.125000 I-5.644525 J-5.644535
G03 X73.182054 Y125.256808 Z-0.125000 I-1.168337 J-5.310537
G02 X70.237822 Y124.813645 Z-0.125000 I-2.123586 J4.106581
G02 X68.030926 Y126.185926 Z-0.125000 I0.625193 J3.466133
G03 X64.528825 Y127.830105 Z-0.125000 I-3.273122 J-2.419921
G03 X59.421576 Y125.700857 Z-0.125000 I0.468387 J-8.313267
G03 X54.361485 Y117.255610 Z-0.125000 I11.253122 J-12.481007
G03 X55.934236 Y111.604465 Z-0.125000 I5.791200 J-1.432697
G03 X58.222898 Y110.601968 Z-0.125000 I2.426969 J2.426967
G03 X62.087405 Y111.356312 Z-0.125000 I0.343466 J8.516543
G03 X63.601306 Y112.691036 Z-0.125000 I-1.425736 J3.143058
G03 X63.380921 Y113.459061 Z-0.125000 I-0.460735 J0.283424
G02 X61.516444 Y116.059509 Z-0.125000 I1.515215 J3.055007
G02 X62.715833 Y118.404084 Z-0.125000 I2.289377 J0.307914
G02 X65.402408 Y118.443720 Z-0.125000 I1.381668 J-2.581671
G02 X66.635143 Y116.453022 Z-0.125000 I-0.990985 J-1.990698
G03 X66.786119 Y115.210889 Z-0.125000 I5.185224 J-0.000000
G03 X67.227956 Y114.050435 Z-0.125000 I4.957454 J1.223186
G02 X67.772366 Y112.905743 Z-0.125000 I-13.429601 J-7.088862
G02 X68.605357 Y110.812323 Z-0.125000 I-44.146262 J-18.778635
G03 X71.556125 Y106.893122 Z-0.125000 I8.038949 J2.982110
G03 X75.824709 Y105.489662 Z-0.125000 I4.268584 J5.789658
G03 X78.215283 Y106.027725 Z-0.125000 I0.000000 J5.579607
G03 X80.569180 Y107.739370 Z-0.125000 I-3.372476 J7.112304
G01 X80.569180 Y107.739367 Z-0.125000
G00 Z5.000000

(End cutting path id: path1)


(Start cutting path id: path1)
(Change tool to Default tool)

G00 Z5.000000
G00 X84.088616 Y127.944451

G01 Z-0.125000 F100.0(Penetrate)
G03 X80.405188 Y130.689867 Z-0.125000 I-26.715773 J-31.999945 F400.000000
G03 X77.723022 Y132.164142 Z-0.125000 I-10.223109 J-15.422034
G02 X75.588574 Y133.547838 Z-0.125000 I3.349583 J7.505082
G02 X75.573708 Y134.089681 Z-0.125000 I0.249016 J0.277957
G02 X77.096851 Y134.464672 Z-0.125000 I1.071540 J-1.071539
G02 X82.306607 Y131.987687 Z-0.125000 I-6.107497 J-19.562926
G02 X87.961291 Y126.895032 Z-0.125000 I-14.236818 J-21.493702
G02 X87.881249 Y125.226664 Z-0.125000 I-0.958284 J-0.790129
G02 X87.626742 Y125.205796 Z-0.125000 I-0.139551 J0.139550
G02 X84.088616 Y127.944451 Z-0.125000 I35.290500 J49.247353
G01 X84.088616 Y127.944451 Z-0.125000
G00 Z5.000000

(End cutting path id: path1)


(Start cutting path id: path1)
(Change tool to Default tool)

G00 Z5.000000
G00 X54.346736 Y130.744119

G01 Z-0.125000 F100.0(Penetrate)
G02 X56.569477 Y134.311319 Z-0.125000 I3.973808 J0.000000 F400.000000
G02 X66.141770 Y136.534062 Z-0.125000 I9.572293 J-19.500273
G02 X68.041731 Y136.216229 Z-0.125000 I0.000000 J-5.837770
G02 X68.132601 Y135.882436 Z-0.125000 I-0.068083 J-0.197800
G02 X67.502437 Y135.423188 Z-0.125000 I-1.281373 J1.096285
G02 X64.197848 Y134.261946 Z-0.125000 I-11.558076 J27.608632
G03 X60.574098 Y133.003076 Z-0.125000 I9.626023 J-33.554268
G03 X57.788738 Y131.632495 Z-0.125000 I8.676487 J-21.148331
G02 X54.787524 Y130.402653 Z-0.125000 I-5.983365 J10.324461
G02 X54.346736 Y130.744119 Z-0.125000 I-0.088132 J0.341466
G01 X54.346736 Y130.744119 Z-0.125000
G00 Z5.000000

(End cutting path id: path1)


(Footer)
M5
G00 X0.0000 Y0.0000
M2
(Using default footer. To add your own footer create file "footer" in the output dir.)
(end)
%
