%
(Header)
(Generated by gcodetools from Inkscape.)
(Using default header. To add your own header create file "header" in the output dir.)
M3 S2000
(Header end.)
G21 (All units in mm)

(Start cutting path id: path27)
(Change tool to Default tool)

G00 Z5.000000
G00 X96.858368 Y83.620118

G00 Z4.000000 (Fast pre-penetrate)
G01 Z-1.000000 F100.0(Penetrate)
G01 X67.258043 Y83.620118 Z-1.000000 F400.000000
G01 X52.457872 Y83.620118 Z-1.000000
G01 X54.307893 Y85.470140 Z-1.000000
G01 X54.307893 Y96.570266 Z-1.000000
G01 X52.457872 Y98.420288 Z-1.000000
G01 X50.607850 Y100.270308 Z-1.000000
G01 X24.707558 Y100.270308 Z-1.000000
G01 X22.857538 Y98.420288 Z-1.000000
G01 X21.007516 Y100.270308 Z-1.000000
G01 X9.907390 Y100.270308 Z-1.000000
G01 X8.057370 Y98.420288 Z-1.000000
G01 X8.057370 Y83.620118 Z-1.000000
G01 X9.907390 Y81.770098 Z-1.000000
G01 X21.007516 Y81.770098 Z-1.000000
G01 X22.857538 Y83.620118 Z-1.000000
G01 X22.857538 Y68.819950 Z-1.000000
G01 X37.657703 Y68.819950 Z-1.000000
G01 X37.657703 Y54.019784 Z-1.000000
G01 X35.807683 Y55.869806 Z-1.000000
G01 X24.707558 Y55.869806 Z-1.000000
G01 X22.857538 Y54.019784 Z-1.000000
G01 X21.007516 Y55.869806 Z-1.000000
G01 X9.907390 Y55.869806 Z-1.000000
G01 X8.057370 Y54.019784 Z-1.000000
G01 X6.207351 Y52.169763 Z-1.000000
G01 X6.207351 Y41.069639 Z-1.000000
G01 X8.057370 Y39.219616 Z-1.000000
G01 X9.907390 Y37.369594 Z-1.000000
G01 X21.007516 Y37.369594 Z-1.000000
G01 X22.857538 Y39.219616 Z-1.000000
G01 X24.707558 Y37.369594 Z-1.000000
G01 X35.807683 Y37.369594 Z-1.000000
G01 X37.657703 Y39.219616 Z-1.000000
G01 X39.507727 Y37.369594 Z-1.000000
G01 X50.607850 Y37.369594 Z-1.000000
G01 X52.457872 Y39.219616 Z-1.000000
G01 X54.307893 Y41.069639 Z-1.000000
G01 X54.307893 Y52.169763 Z-1.000000
G01 X52.457872 Y54.019784 Z-1.000000
G01 X67.258043 Y54.019784 Z-1.000000
G01 X82.058210 Y54.019784 Z-1.000000
G01 X82.058210 Y68.819950 Z-1.000000
G01 X96.858368 Y68.819950 Z-1.000000
G01 X96.858368 Y83.620118 Z-1.000000
G00 Z5.000000

(End cutting path id: path27)



(Footer)
M5
G00 X0.0000 Y0.0000
M2
(Using default footer. To add your own footer create file "footer" in the output dir.)
(end)
%
