%
(Header)
(Generated by gcodetools from Inkscape.)
(Using default header. To add your own header create file "header" in the output dir.)
M3
(Header end.)
G21 (All units in mm)

(Start cutting path id: path27)
(Change tool to Default tool)

G00 Z5.000000
G00 X111.218870 Y66.396710

G00 Z4.000000 (Fast pre-penetrate)
G01 Z-1.000000 F100.0(Penetrate)
G01 X78.213487 Y66.396710 Z-1.000000 F400.000000
G01 X61.710816 Y66.396710 Z-1.000000
G01 X63.773665 Y68.459543 Z-1.000000
G01 X63.773665 Y80.836548 Z-1.000000
G01 X61.710816 Y82.899384 Z-1.000000
G01 X59.648008 Y84.962217 Z-1.000000
G01 X30.768326 Y84.962217 Z-1.000000
G01 X28.705476 Y82.899384 Z-1.000000
G01 X26.642627 Y84.962217 Z-1.000000
G01 X14.265656 Y84.962217 Z-1.000000
G01 X12.202807 Y82.899384 Z-1.000000
G01 X12.202807 Y66.396710 Z-1.000000
G01 X14.265656 Y64.333874 Z-1.000000
G01 X26.642627 Y64.333874 Z-1.000000
G01 X28.705476 Y66.396710 Z-1.000000
G01 X28.705476 Y49.894033 Z-1.000000
G01 X45.208146 Y49.894033 Z-1.000000
G01 X45.208146 Y33.391354 Z-1.000000
G01 X43.145339 Y35.454191 Z-1.000000
G01 X30.768326 Y35.454191 Z-1.000000
G01 X28.705476 Y33.391354 Z-1.000000
G01 X26.642627 Y35.454191 Z-1.000000
G01 X14.265656 Y35.454191 Z-1.000000
G01 X12.202807 Y33.391354 Z-1.000000
G01 X10.139958 Y31.328527 Z-1.000000
G01 X10.139958 Y18.951515 Z-1.000000
G01 X12.202807 Y16.888679 Z-1.000000
G01 X14.265656 Y14.825851 Z-1.000000
G01 X26.642627 Y14.825851 Z-1.000000
G01 X28.705476 Y16.888679 Z-1.000000
G01 X30.768326 Y14.825851 Z-1.000000
G01 X43.145339 Y14.825851 Z-1.000000
G01 X45.208146 Y16.888679 Z-1.000000
G01 X47.270995 Y14.825851 Z-1.000000
G01 X59.648008 Y14.825851 Z-1.000000
G01 X61.710816 Y16.888679 Z-1.000000
G01 X63.773665 Y18.951515 Z-1.000000
G01 X63.773665 Y31.328527 Z-1.000000
G01 X61.710816 Y33.391354 Z-1.000000
G01 X78.213487 Y33.391354 Z-1.000000
G01 X94.716197 Y33.391354 Z-1.000000
G01 X94.716197 Y49.894033 Z-1.000000
G01 X111.218870 Y49.894033 Z-1.000000
G01 X111.218870 Y66.396710 Z-1.000000
G00 Z5.000000

(End cutting path id: path27)



(Footer)
M5
G00 X0.0000 Y0.0000
M2
(Using default footer. To add your own footer create file "footer" in the output dir.)
(end)
%