%
(Header)
(Generated by gcodetools from Inkscape.)
(Edited from UniversalBit-dev )
(Using default header. To add your own header create file "header" in the output dir.)
M3 S2000
(Header end.)
G21 (All units in mm)

(Start cutting path id: path437)
(Change tool to Default tool)

G00 Z5.000000
G00 X10.919601 Y11.769890

G01 Z-1.000000 F100.0(Penetrate)
G02 X10.019294 Y12.121617 Z-1.000000 I0.146301 J1.702595 F400.000000
G02 X9.595081 Y12.796080 Z-1.000000 I0.711204 J0.917959
G02 X9.508162 Y13.609994 Z-1.000000 I3.822696 J0.819833
G02 X9.467231 Y69.298965 Z-1.000000 I35742.129936 J54.114151
G02 X9.513196 Y125.057658 Z-1.000000 I35729.998367 J-1.574299
G02 X9.600081 Y125.568173 Z-1.000000 I1.557945 J-0.002500
G02 X9.769888 Y125.889715 Z-1.000000 I1.146245 J-0.399725
G02 X9.967801 Y126.065913 Z-1.000000 I0.518111 J-0.382713
G02 X10.333998 Y126.163849 Z-1.000000 I0.367926 J-0.642126
G02 X66.655424 Y126.246589 Z-1.000000 I75.814431 J-32438.106694
G02 X122.951151 Y126.231582 Z-1.000000 I19.498295 J-32446.988559
G02 X123.442460 Y126.134113 Z-1.000000 I-0.001468 J-1.294392
G02 X123.726069 Y125.969006 Z-1.000000 I-0.457812 J-1.112534
G02 X123.865590 Y125.803063 Z-1.000000 I-0.324024 J-0.414055
G02 X123.920045 Y125.588534 Z-1.000000 I-0.405608 J-0.217134
G02 X123.976840 Y106.157803 Z-1.000000 I-3546.824773 J-20.082615
G02 X123.662824 Y86.219713 Z-1.000000 I-625.654158 J-0.117753
G02 X123.312480 Y85.194523 Z-1.000000 I-1.846394 J0.058522
G03 X123.008112 Y84.668906 Z-1.000000 I2.415302 J-1.749557
G03 X122.664690 Y83.755043 Z-1.000000 I7.023900 J-3.160983
G02 X122.285713 Y82.880942 Z-1.000000 I-4.039097 J1.231993
G02 X121.960210 Y82.530743 Z-1.000000 I-0.921792 J0.530415
G03 X121.592964 Y82.203340 Z-1.000000 I1.040838 J-1.537174
G03 X121.259660 Y81.715373 Z-1.000000 I2.031703 J-1.745559
G02 X120.927427 Y81.226748 Z-1.000000 I-2.410079 J1.281434
G02 X120.580810 Y80.918493 Z-1.000000 I-1.280385 J1.090723
G03 X120.218192 Y80.621125 Z-1.000000 I1.326888 J-1.987820
G03 X119.897370 Y80.235453 Z-1.000000 I1.933952 J-1.935034
G02 X119.563243 Y79.870554 Z-1.000000 I-1.467454 J1.008280
G02 X119.089910 Y79.569033 Z-1.000000 I-1.458157 J1.766754
G03 X118.612900 Y79.271286 Z-1.000000 I1.065819 J-2.238485
G03 X118.307120 Y78.946753 Z-1.000000 I0.970311 J-1.220563
G02 X117.831908 Y78.481447 Z-1.000000 I-1.489360 J1.045749
G02 X117.080170 Y78.123276 Z-1.000000 I-1.589825 J2.368798
G03 X116.467785 Y77.893190 Z-1.000000 I1.570227 J-5.109215
G03 X115.817180 Y77.558289 Z-1.000000 I2.730473 J-6.103848
G02 X114.466908 Y76.971494 Z-1.000000 I-3.105276 J5.298591
G02 X113.287900 Y76.804068 Z-1.000000 I-1.148167 J3.850367
G02 X112.127293 Y77.027082 Z-1.000000 I0.025021 J3.261734
G02 X111.536750 Y77.487318 Z-1.000000 I0.475836 J1.219549
G03 X111.242855 Y77.795186 Z-1.000000 I-1.213007 J-0.863743
G03 X110.718970 Y78.128853 Z-1.000000 I-1.957281 J-2.494985
G02 X110.208573 Y78.470103 Z-1.000000 I1.156025 J2.281347
G02 X109.965190 Y78.776293 Z-1.000000 I0.676386 J0.787469
G03 X109.743164 Y79.113060 Z-1.000000 I-1.776461 J-0.929625
G03 X109.256070 Y79.646703 Z-1.000000 I-4.987233 J-4.063078
G02 X108.770067 Y80.181991 Z-1.000000 I4.300681 J4.392982
G02 X108.481010 Y80.608423 Z-1.000000 I2.429758 J1.958195
G03 X108.190102 Y81.031003 Z-1.000000 I-2.491534 J-1.403771
G03 X107.838090 Y81.383083 Z-1.000000 I-2.072069 J-1.719659
G02 X107.490439 Y81.737391 Z-1.000000 I1.557437 J1.875887
G02 X107.219080 Y82.158113 Z-1.000000 I1.937907 J1.547791
G03 X106.108501 Y83.700415 Z-1.000000 I-5.578534 J-2.845982
G03 X104.100650 Y85.333153 Z-1.000000 I-8.284079 J-8.136359
G02 X103.299539 Y85.901694 Z-1.000000 I5.755183 J8.958100
G02 X103.198690 Y86.038003 Z-1.000000 I0.195385 J0.250018
G03 X102.881005 Y86.385172 Z-1.000000 I-0.600216 J-0.230304
G03 X101.694180 Y86.774093 Z-1.000000 I-1.990079 J-4.067582
G02 X100.975672 Y86.938457 Z-1.000000 I1.401171 J7.777760
G02 X100.238140 Y87.179403 Z-1.000000 I2.353637 J8.453723
G03 X99.267140 Y87.353279 Z-1.000000 I-0.955744 J-2.539114
G03 X98.192881 Y87.167903 Z-1.000000 I0.018632 J-3.313346
G02 X97.368064 Y86.908248 Z-1.000000 I-4.581706 J13.114296
G02 X96.581691 Y86.715313 Z-1.000000 I-3.292678 J11.721427
G03 X95.577341 Y86.379861 Z-1.000000 I0.949530 J-4.514154
G03 X94.880311 Y85.919783 Z-1.000000 I1.215519 J-2.599592
G02 X94.435645 Y85.602081 Z-1.000000 I-1.673007 J1.871559
G02 X93.766061 Y85.294613 Z-1.000000 I-2.232480 J3.978927
G03 X93.126877 Y84.961164 Z-1.000000 I0.943749 J-2.588402
G03 X92.773221 Y84.597663 Z-1.000000 I0.783373 J-1.115947
G02 X92.436487 Y84.206109 Z-1.000000 I-1.718318 J1.137171
G02 X92.030201 Y83.926173 Z-1.000000 I-1.260833 J1.395114
G03 X91.615330 Y83.647649 Z-1.000000 I0.952289 J-1.866711
G03 X90.692401 Y82.774573 Z-1.000000 I8.839585 J-10.268680
G02 X89.804181 Y81.854221 Z-1.000000 I-330.439352 J318.013970
G02 X89.253021 Y81.287263 Z-1.000000 I-126.703832 J122.621949
G03 X88.739914 Y80.693523 Z-1.000000 I4.616026 J-4.507724
G03 X88.468961 Y80.259803 Z-1.000000 I2.178914 J-1.662705
G02 X88.192884 Y79.834907 Z-1.000000 I-2.039574 J1.023080
G02 X87.842681 Y79.497033 Z-1.000000 I-1.626819 J1.335751
G03 X87.530005 Y79.137964 Z-1.000000 I0.716934 J-0.939976
G03 X87.145671 Y78.261639 Z-1.000000 I4.158697 J-2.346343
G02 X86.798917 Y77.347625 Z-1.000000 I-9.366724 J3.030720
G02 X86.464891 Y76.704982 Z-1.000000 I-4.950891 J2.165189
G03 X86.098337 Y75.698345 Z-1.000000 I2.336067 J-1.420705
G03 X85.729221 Y71.903283 Z-1.000000 I34.237255 J-5.245474
G03 X85.680229 Y65.819938 Z-1.000000 I89.839384 J-3.765389
G03 X85.964931 Y62.799456 Z-1.000000 I22.252899 J0.573837
G03 X86.206396 Y61.957913 Z-1.000000 I3.683549 J0.601511
G03 X86.644901 Y61.177537 Z-1.000000 I3.598272 J1.508534
G02 X86.905674 Y60.724384 Z-1.000000 I-2.025069 J-1.466961
G02 X87.098071 Y60.155755 Z-1.000000 I-3.013060 J-1.336341
G03 X87.509831 Y59.032105 Z-1.000000 I5.020394 J1.202447
G03 X87.894841 Y58.577122 Z-1.000000 I1.143225 J0.577015
G02 X88.197221 Y58.278122 Z-1.000000 I-0.864631 J-1.176806
G02 X88.569141 Y57.680651 Z-1.000000 I-3.195960 J-2.403946
G03 X88.948824 Y57.093772 Z-1.000000 I2.959821 J1.498605
G03 X89.277791 Y56.803903 Z-1.000000 I1.015324 J0.820670
G02 X89.625791 Y56.527312 Z-1.000000 I-0.992667 J-1.606164
G02 X89.962191 Y56.113794 Z-1.000000 I-1.927951 J-1.911997
G03 X90.301196 Y55.702571 Z-1.000000 I2.123762 J1.405447
G03 X90.711581 Y55.377560 Z-1.000000 I1.722226 J1.753021
G02 X91.122642 Y55.053226 Z-1.000000 I-1.334415 J-2.113890
G02 X91.451091 Y54.656264 Z-1.000000 I-1.690021 J-1.732700
G03 X91.787355 Y54.274518 Z-1.000000 I1.547051 J1.023757
G03 X92.197981 Y54.012839 Z-1.000000 I1.109294 J1.287688
G02 X92.616614 Y53.755527 Z-1.000000 I-0.794346 J-1.761559
G02 X93.048581 Y53.326940 Z-1.000000 I-1.860074 J-2.306727
G03 X93.500237 Y52.932479 Z-1.000000 I1.399921 J1.147101
G03 X94.294161 Y52.560741 Z-1.000000 I2.026627 J3.294621
G02 X95.106008 Y52.205134 Z-1.000000 I-1.597882 J-4.752472
G02 X95.630131 Y51.828556 Z-1.000000 I-1.277713 J-2.331354
G03 X96.545853 Y51.357214 Z-1.000000 I1.311543 J1.422858
G03 X99.197291 Y51.083145 Z-1.000000 I2.651438 J12.688448
G03 X101.897266 Y51.362143 Z-1.000000 I-0.000000 J13.203869
G03 X102.701620 Y51.815192 Z-1.000000 I-0.312311 J1.495044
G02 X103.131245 Y52.202039 Z-1.000000 I2.434049 J-2.271215
G02 X103.599350 Y52.492165 Z-1.000000 I1.818964 J-2.412124
G03 X105.681664 Y53.975319 Z-1.000000 I-3.694629 J7.390512
G03 X107.161240 Y55.975439 Z-1.000000 I-5.470794 J5.594297
G02 X107.382697 Y56.297422 Z-1.000000 I1.389349 J-0.718433
G02 X107.808370 Y56.701861 Z-1.000000 I2.636708 J-2.348910
G03 X108.226854 Y57.111720 Z-1.000000 I-1.867122 J2.324990
G03 X108.499990 Y57.527274 Z-1.000000 I-1.647244 J1.380242
G02 X108.851499 Y58.049970 Z-1.000000 I2.230723 J-1.120604
G02 X110.207820 Y59.480265 Z-1.000000 I18.399524 J-16.089672
G03 X110.525025 Y59.791477 Z-1.000000 I-36.469796 J37.489254
G03 X111.130980 Y60.393730 Z-1.000000 I-135.215090 J136.652407
G02 X112.385922 Y61.046170 Z-1.000000 I1.663283 J-1.666123
G02 X114.820290 Y61.043484 Z-1.000000 I1.209608 J-6.868173
G02 X116.011266 Y60.681154 Z-1.000000 I-0.922357 J-5.170306
G02 X116.609250 Y60.257147 Z-1.000000 I-0.732786 J-1.667138
G03 X116.911482 Y60.016218 Z-1.000000 I0.968113 J0.904410
G03 X117.411550 Y59.790708 Z-1.000000 I1.341214 J2.306940
G02 X118.104285 Y59.425620 Z-1.000000 I-0.754348 J-2.271096
G02 X118.618800 Y58.874128 Z-1.000000 I-1.342452 J-1.768195
G03 X118.836621 Y58.626531 Z-1.000000 I0.978205 J0.640956
G03 X119.155520 Y58.414835 Z-1.000000 I1.024274 J1.196924
G02 X120.365443 Y57.544764 Z-1.000000 I-2.105234 J-4.203841
G02 X121.271010 Y56.311115 Z-1.000000 I-3.495351 J-3.514975
G03 X121.538503 Y55.929756 Z-1.000000 I1.554562 J0.805908
G03 X121.930900 Y55.595773 Z-1.000000 I1.574627 J1.452527
G02 X122.351117 Y55.139277 Z-1.000000 I-0.713995 J-1.078911
G02 X122.792150 Y54.026321 Z-1.000000 I-4.222247 J-2.317020
G03 X123.028228 Y53.385636 Z-1.000000 I3.299752 J0.852046
G03 X123.345650 Y52.890337 Z-1.000000 I2.273988 J1.107968
G02 X123.677080 Y52.401583 Z-1.000000 I-2.523624 J-2.068049
G02 X123.849920 Y51.978721 Z-1.000000 I-1.708602 J-0.945126
G02 X123.938400 Y51.340248 Z-1.000000 I-2.339941 J-0.649640
G02 X123.982806 Y32.111351 Z-1.000000 I-4200.304869 J-19.314376
G02 X123.939033 Y12.855590 Z-1.000000 I-4197.705155 J-0.085424
G02 X123.850920 Y12.341210 Z-1.000000 I-1.587800 J0.007251
G02 X123.684451 Y12.017915 Z-1.000000 I-1.230712 J0.429202
G02 X123.518940 Y11.871760 Z-1.000000 I-0.392116 J0.277254
G02 X123.201334 Y11.791446 Z-1.000000 I-0.320286 J0.598435
G02 X104.201713 Y11.756824 Z-1.000000 I-17.641356 J4467.830688
G02 X85.258292 Y11.802676 Z-1.000000 I1.360522 J4475.288542
G02 X84.674531 Y11.883560 Z-1.000000 I0.010071 J2.219696
G02 X84.252348 Y12.038541 Z-1.000000 I0.742941 J2.676370
G02 X83.711981 Y12.328320 Z-1.000000 I2.167450 J4.690478
G03 X83.164874 Y12.601794 Z-1.000000 I-1.821510 J-2.960082
G03 X82.282031 Y12.891900 Z-1.000000 I-2.942269 J-7.465447
G02 X80.934796 Y13.398327 Z-1.000000 I1.849916 J6.966501
G02 X80.414791 Y13.816010 Z-1.000000 I0.686619 J1.387363
G03 X80.010262 Y14.216575 Z-1.000000 I-1.961108 J-1.575964
G03 X79.582661 Y14.471330 Z-1.000000 I-1.189746 J-1.510729
G02 X79.155934 Y14.727038 Z-1.000000 I0.747180 J1.730819
G02 X78.742021 Y15.140310 Z-1.000000 I1.622983 J2.039411
G03 X78.338369 Y15.569796 Z-1.000000 I-2.857223 J-2.280928
G03 X78.035471 Y15.779910 Z-1.000000 I-0.959859 J-1.060339
G02 X77.754126 Y16.004421 Z-1.000000 I0.423956 J0.819817
G02 X77.419211 Y16.510050 Z-1.000000 I2.002149 J1.689905
G03 X77.088369 Y17.027771 Z-1.000000 I-2.755255 J-1.396136
G03 X76.729061 Y17.384310 Z-1.000000 I-1.645569 J-1.299030
G02 X76.383875 Y17.750580 Z-1.000000 I1.003027 J1.291081
G02 X75.929751 Y18.549560 Z-1.000000 I4.495440 J3.083664
G03 X75.516649 Y19.386479 Z-1.000000 I-16.266099 J-7.508503
G03 X75.215011 Y19.907280 Z-1.000000 I-6.591689 J-3.470033
G02 X74.723206 Y21.038504 Z-1.000000 I3.355152 J2.131186
G02 X74.532051 Y22.533730 Z-1.000000 I5.752285 J1.495226
G02 X74.758700 Y23.864047 Z-1.000000 I4.017477 J-0.000000
G02 X75.178251 Y24.375130 Z-1.000000 I0.910149 J-0.319399
G03 X75.468867 Y24.609373 Z-1.000000 I-0.657549 J1.113191
G03 X75.827551 Y25.075560 Z-1.000000 I-2.354585 J2.182699
G02 X76.190821 Y25.538323 Z-1.000000 I2.454970 J-1.553191
G02 X76.575561 Y25.851650 Z-1.000000 I1.487434 J-1.433570
G03 X76.965448 Y26.158697 Z-1.000000 I-1.276024 J2.021351
G03 X77.205501 Y26.463790 Z-1.000000 I-1.019631 J1.049250
G02 X77.454668 Y26.756243 Z-1.000000 I0.965732 J-0.570424
G02 X77.978071 Y27.105360 Z-1.000000 I1.921496 J-2.313836
G03 X78.503213 Y27.456814 Z-1.000000 I-1.384038 J2.636091
G03 X78.856691 Y27.839580 Z-1.000000 I-1.298052 J1.553325
G02 X79.205842 Y28.222921 Z-1.000000 I1.735735 J-1.230247
G02 X79.549691 Y28.435070 Z-1.000000 I0.841711 J-0.979512
G03 X79.898035 Y28.643797 Z-1.000000 I-0.546157 J1.306519
G03 X80.259901 Y29.013830 Z-1.000000 I-1.451671 J1.781587
G02 X80.614558 Y29.400905 Z-1.000000 I2.581557 J-2.009338
G02 X81.094331 Y29.789230 Z-1.000000 I3.077972 J-3.312269
G03 X82.449453 Y30.954570 Z-1.000000 I-5.241995 J7.466259
G03 X83.164781 Y31.956990 Z-1.000000 I-3.132244 J2.991612
G02 X83.374025 Y32.270777 Z-1.000000 I1.512000 J-0.781594
G02 X83.845931 Y32.767110 Z-1.000000 I4.296797 J-3.612824
G03 X84.239118 Y33.297568 Z-1.000000 I-1.233831 J1.325490
G03 X84.481731 Y34.068260 Z-1.000000 I-2.436278 J1.190471
G02 X84.642215 Y34.891474 Z-1.000000 I11.188879 J-1.754004
G02 X84.843631 Y35.616700 Z-1.000000 I8.869022 J-2.072595
G03 X84.964574 Y36.580248 Z-1.000000 I-2.480777 J0.800748
G03 X84.662011 Y38.519270 Z-1.000000 I-10.625555 J-0.664885
G03 X84.085789 Y40.262020 Z-1.000000 I-12.330302 J-3.110251
G03 X83.679001 Y40.900140 Z-1.000000 I-1.997856 J-0.824871
G02 X83.312257 Y41.390661 Z-1.000000 I2.225495 J2.046281
G02 X83.016571 Y42.003900 Z-1.000000 I3.202854 J1.922226
G03 X82.709353 Y42.601667 Z-1.000000 I-2.702670 J-1.011187
G03 X82.380441 Y42.950970 Z-1.000000 I-1.220607 J-0.819845
G02 X82.023979 Y43.283284 Z-1.000000 I1.499159 J1.965438
G02 X81.808411 Y43.600930 Z-1.000000 I1.151482 J1.013414
G03 X79.705228 Y46.503959 Z-1.000000 I-10.269831 J-5.226905
G03 X78.363361 Y47.061550 Z-1.000000 I-1.341867 J-1.335834
G02 X78.249398 Y47.103287 Z-1.000000 I-0.000000 J0.176455
G02 X77.634201 Y47.678420 Z-1.000000 I5.483014 J6.481561
G03 X76.987130 Y48.212940 Z-1.000000 I-2.722610 J-2.636972
G03 X76.415811 Y48.475790 Z-1.000000 I-1.165442 J-1.780835
G02 X75.823796 Y48.711959 Z-1.000000 I0.922428 J3.172390
G02 X75.304891 Y49.048810 Z-1.000000 I1.426119 J2.764977
G03 X74.385102 Y49.484763 Z-1.000000 I-1.379349 J-1.721920
G03 X71.081191 Y49.948320 Z-1.000000 I-4.937021 J-23.181882
G02 X68.480033 Y50.140661 Z-1.000000 I18.511302 J268.025306
G02 X67.609881 Y50.221941 Z-1.000000 I2.372497 J30.097530
G03 X66.740757 Y50.267832 Z-1.000000 I-0.852310 J-7.888649
G03 X65.799601 Y50.218141 Z-1.000000 I0.019732 J-9.311321
G02 X64.857308 Y50.132252 Z-1.000000 I-3.891239 J37.478964
G02 X62.319411 Y49.944930 Z-1.000000 I-21.342338 J271.867273
G03 X59.786287 Y49.732922 Z-1.000000 I6.041682 J-87.426588
G03 X59.297541 Y49.647840 Z-1.000000 I0.326735 J-3.323234
G03 X58.838803 Y49.473463 Z-1.000000 I0.515488 J-2.046697
G03 X58.108951 Y49.029340 Z-1.000000 I2.950736 J-5.670881
G02 X57.391831 Y48.568672 Z-1.000000 I-5.774207 J8.200181
G02 X57.257961 Y48.532450 Z-1.000000 I-0.133870 J0.229269
G03 X56.539183 Y48.338683 Z-1.000000 I0.000000 J-1.430035
G03 X55.967401 Y47.782090 Z-1.000000 I0.825778 J-1.420302
G02 X55.684129 Y47.441095 Z-1.000000 I-1.354958 J0.837438
G02 X55.301781 Y47.176780 Z-1.000000 I-1.177982 J1.295318
G03 X53.229928 Y45.677300 Z-1.000000 I3.770343 J-7.390632
G03 X51.693041 Y43.598040 Z-1.000000 I5.971226 J-6.021262
G02 X51.420244 Y43.192349 Z-1.000000 I-1.998437 J1.049235
G02 X51.013601 Y42.792180 Z-1.000000 I-2.350075 J1.981402
G03 X50.633924 Y42.378747 Z-1.000000 I1.240913 J-1.520647
G03 X50.377361 Y41.860950 Z-1.000000 I1.717718 J-1.173574
G02 X50.137171 Y41.324802 Z-1.000000 I-2.778688 J0.922952
G02 X49.742301 Y40.756080 Z-1.000000 I-3.526029 J2.026722
G03 X49.273687 Y39.921443 Z-1.000000 I2.051869 J-1.700911
G03 X48.778721 Y37.952480 Z-1.000000 I11.338980 J-3.897135
G03 X48.683041 Y36.773152 Z-1.000000 I7.255248 J-1.182173
G03 X48.777721 Y35.344450 Z-1.000000 I10.763844 J-0.004166
G03 X49.246795 Y33.420547 Z-1.000000 I9.226336 J1.230374
G03 X49.705091 Y32.769790 Z-1.000000 I1.414739 J0.509575
G02 X50.053673 Y32.410991 Z-1.000000 I-1.442986 J-1.750623
G02 X50.264261 Y32.050020 Z-1.000000 I-1.250320 J-0.971343
G03 X50.484869 Y31.693493 Z-1.000000 I1.225696 J0.511906
G03 X51.421041 Y30.711130 Z-1.000000 I10.537742 J9.105000
G02 X52.408985 Y29.763116 Z-1.000000 I-116.664440 J-122.567091
G02 X52.978561 Y29.204410 Z-1.000000 I-39.950357 J-41.297298
G03 X53.569034 Y28.676202 Z-1.000000 I5.280543 J5.308867
G03 X53.899791 Y28.464210 Z-1.000000 I1.153165 J1.435183
G02 X54.222473 Y28.246302 Z-1.000000 I-0.665709 J-1.333668
G02 X54.619821 Y27.826440 Z-1.000000 I-2.180672 J-2.461686
G03 X55.020368 Y27.410146 Z-1.000000 I2.356234 J1.866259
G03 X55.411131 Y27.148460 Z-1.000000 I1.295848 J1.512431
G02 X55.802253 Y26.887202 Z-1.000000 I-0.914269 J-1.792119
G02 X56.194541 Y26.480450 Z-1.000000 I-1.884697 J-2.210227
G03 X56.579728 Y26.062234 Z-1.000000 I2.995789 J2.372704
G03 X56.918891 Y25.802900 Z-1.000000 I1.472038 J1.573714
G02 X57.242945 Y25.533751 Z-1.000000 I-0.796000 J-1.288031
G02 X57.546851 Y25.112590 Z-1.000000 I-1.702624 J-1.548829
G03 X57.854132 Y24.694237 Z-1.000000 I1.867467 J1.049630
G03 X58.239191 Y24.376780 Z-1.000000 I1.441868 J1.356657
G02 X58.713217 Y23.757159 Z-1.000000 I-0.599596 J-0.949839
G02 X58.880661 Y22.291230 Z-1.000000 I-3.840334 J-1.181184
G02 X58.598795 Y20.724036 Z-1.000000 I-7.437699 J0.528757
G02 X58.137151 Y19.752990 Z-1.000000 I-3.261551 J0.955311
G03 X57.812103 Y19.211829 Z-1.000000 I4.212630 J-2.898509
G03 X57.527091 Y18.578720 Z-1.000000 I5.491568 J-2.852898
G02 X57.088925 Y17.730003 Z-1.000000 I-4.070871 J1.564200
G02 X56.697271 Y17.329400 Z-1.000000 I-1.249852 J0.830177
G03 X56.391930 Y17.040867 Z-1.000000 I0.813820 J-1.167056
G03 X56.103401 Y16.572860 Z-1.000000 I1.916841 J-1.504689
G02 X55.805139 Y16.115413 Z-1.000000 I-1.791381 J0.842045
G02 X55.411441 Y15.777800 Z-1.000000 I-1.346694 J1.172055
G03 X54.997153 Y15.453488 Z-1.000000 I1.391605 J-2.204459
G03 X54.704181 Y15.098470 Z-1.000000 I1.382170 J-1.439002
G02 X54.401951 Y14.759475 Z-1.000000 I-1.244535 J0.805338
G02 X53.940271 Y14.469420 Z-1.000000 I-1.358216 J1.649415
G03 X53.469006 Y14.183098 Z-1.000000 I1.025961 J-2.219653
G03 X52.978561 Y13.724650 Z-1.000000 I2.219427 J-2.865891
G02 X52.462251 Y13.322437 Z-1.000000 I-1.347116 J1.196762
G02 X51.571241 Y12.993430 Z-1.000000 I-1.749690 J3.367466
G03 X50.641265 Y12.707456 Z-1.000000 I1.572382 J-6.768446
G03 X49.760951 Y12.294620 Z-1.000000 I2.498933 J-6.473600
G01 X48.905421 Y11.817600 Z-1.000000
G01 X30.293431 Y11.761000 Z-1.000000
G02 X11.682790 Y11.737009 Z-1.000000 I-16.164008 J5320.401169
G02 X10.919781 Y11.770000 Z-1.000000 I0.004109 J8.934739
G01 X10.919601 Y11.769890 Z-1.000000
G00 Z5.000000

(End cutting path id: path437)

(Footer)
M5
G00 X0.0000 Y0.0000
M2
(Using default footer. To add your own footer create file "footer" in the output dir.)
(end)
%
