%
(Header)
(Generated by gcodetools from Inkscape.)
(Edited From UniversalBit-Dev)
(Using default header. To add your own header create file "header" in the output dir.)
M3 S2000
(Header end.)
G21 (All units in mm)

(Start cutting path id: path235)
(Change tool to Default tool)

G00 Z5.000000
G00 X6.325021 Y41.483820

G01 Z-1.000000 F100.0(Penetrate)
G02 X7.501377 Y61.225833 Z-1.000000 I166.246784 J-0.000000 F400.000000
G02 X9.166911 Y65.245925 Z-1.000000 I7.991259 J-0.955735
G02 X13.088279 Y69.039852 Z-1.000000 I15.885227 J-12.495318
G02 X15.712047 Y69.928462 Z-1.000000 I2.713713 J-3.694822
G02 X18.362779 Y69.139360 Z-1.000000 I0.089228 J-4.546949
G02 X22.380191 Y65.505220 Z-1.000000 I-11.166516 J-16.381809
G03 X27.211442 Y61.254129 Z-1.000000 I16.404400 J13.772324
G03 X30.809693 Y60.177470 Z-1.000000 I3.670693 J5.716545
G03 X34.451175 Y61.161820 Z-1.000000 I0.074151 J6.953468
G03 X39.555711 Y65.322064 Z-1.000000 I-11.677752 J19.540070
G03 X42.913705 Y70.884963 Z-1.000000 I-12.132647 J11.118725
G03 X44.196521 Y78.261492 Z-1.000000 I-20.567088 J7.376529
G03 X42.861541 Y85.583953 Z-1.000000 I-20.749596 J0.000000
G03 X39.427521 Y90.905922 Z-1.000000 I-14.058238 J-5.302238
G03 X34.601656 Y94.609725 Z-1.000000 I-16.490737 J-16.490756
G03 X31.259461 Y95.490208 Z-1.000000 I-3.285569 J-5.688071
G03 X27.931522 Y94.553301 Z-1.000000 I0.056728 J-6.580453
G03 X23.156801 Y90.765657 Z-1.000000 I12.054004 J-20.098669
G02 X18.665053 Y86.974025 Z-1.000000 I-21.152245 J20.501574
G02 X16.118048 Y86.121367 Z-1.000000 I-2.766804 J4.034365
G02 X13.625965 Y86.836804 Z-1.000000 I-0.182681 J4.061732
G02 X9.956331 Y90.171951 Z-1.000000 I10.571984 J15.318670
G02 X7.774467 Y95.016198 Z-1.000000 I7.450559 J6.269238
G02 X6.325021 Y114.718292 Z-1.000000 I133.179026 J19.702094
G01 X6.325021 Y134.949070 Z-1.000000
G01 X25.611431 Y134.928390 Z-1.000000
G02 X40.478331 Y134.522980 Z-1.000000 I-0.304459 J-283.961967
G02 X46.293446 Y133.632235 Z-1.000000 I-1.597366 J-29.855171
G02 X50.992241 Y131.214726 Z-1.000000 I-2.940707 J-11.490876
G02 X53.912081 Y127.685779 Z-1.000000 I-8.249950 J-9.798389
G02 X54.176856 Y124.183024 Z-1.000000 I-3.626531 J-2.035516
G02 X50.097191 Y117.568207 Z-1.000000 I-19.047338 J7.181910
G03 X44.531655 Y111.037480 Z-1.000000 I81.036149 J-74.696487
G03 X44.205761 Y110.083405 Z-1.000000 I1.195631 J-0.941103
G03 X45.613954 Y105.773767 Z-1.000000 I7.494324 J0.063917
G03 X52.023631 Y99.204237 Z-1.000000 I24.942361 J17.923831
G03 X54.963835 Y97.897372 Z-1.000000 I4.267336 J5.639826
G03 X62.921871 Y97.122180 Z-1.000000 I8.195473 J42.898076
G03 X70.563748 Y98.448793 Z-1.000000 I0.119538 J21.985002
G03 X75.896361 Y101.846575 Z-1.000000 I-4.999434 J13.729808
G03 X79.600168 Y106.672436 Z-1.000000 I-16.490709 J16.490727
G03 X80.480652 Y110.014629 Z-1.000000 I-5.688059 J3.285568
G03 X79.543745 Y113.342568 Z-1.000000 I-6.580452 J-0.056728
G03 X75.756101 Y118.117292 Z-1.000000 I-20.098715 J-12.054028
G02 X71.961236 Y122.614597 Z-1.000000 I20.484924 J21.135077
G02 X71.113150 Y125.164343 Z-1.000000 I4.015237 J2.751449
G02 X71.837870 Y127.658870 Z-1.000000 I4.073930 J0.168964
G02 X75.207061 Y131.355344 Z-1.000000 I15.585889 J-10.822249
G02 X80.098321 Y133.522867 Z-1.000000 I6.181166 J-7.345895
G02 X99.402741 Y134.635989 Z-1.000000 I16.850168 J-124.274729
G01 X119.238190 Y134.247744 Z-1.000000
G01 X119.238190 Y113.668227 Z-1.000000
G02 X117.837947 Y93.643662 Z-1.000000 I-143.883534 J-0.000000
G02 X115.837730 Y89.472548 Z-1.000000 I-7.566803 J1.063436
G02 X112.337271 Y86.657321 Z-1.000000 I-11.825841 J11.120424
G02 X109.901784 Y86.116169 Z-1.000000 I-2.034575 J3.405625
G02 X107.454607 Y87.035380 Z-1.000000 I0.517542 J5.094942
G02 X103.107740 Y90.765655 Z-1.000000 I18.084626 J25.471735
G03 X98.333013 Y94.553299 Z-1.000000 I-16.828750 J-16.311074
G03 X95.005073 Y95.490206 Z-1.000000 I-3.384668 J-5.643551
G03 X91.662879 Y94.609722 Z-1.000000 I-0.056626 J-6.568548
G03 X86.837021 Y90.905920 Z-1.000000 I11.664852 J-20.194504
G03 X83.430890 Y85.572395 Z-1.000000 I10.389184 J-10.389195
G03 X82.068021 Y77.892861 Z-1.000000 I20.955003 J-7.679534
G03 X84.639042 Y67.226989 Z-1.000000 I23.409177 J-0.000000
G03 X90.581721 Y61.259464 Z-1.000000 I12.278544 J6.284692
G03 X96.265132 Y60.937473 Z-1.000000 I3.201585 J6.191180
G03 X104.361800 Y66.510319 Z-1.000000 I-7.399404 J19.418595
G02 X108.497308 Y69.037302 Z-1.000000 I6.254649 J-5.588528
G02 X112.382220 Y68.604630 Z-1.000000 I1.378570 J-5.279403
G02 X116.063451 Y65.726508 Z-1.000000 I-5.793510 J-11.203407
G02 X118.584445 Y61.005723 Z-1.000000 I-8.801446 J-7.733673
G02 X119.522515 Y55.117683 Z-1.000000 I-28.270435 J-7.522729
G02 X119.939510 Y40.204330 Z-1.000000 I-266.470796 J-14.913353
G01 X119.939510 Y21.334580 Z-1.000000
G01 X63.132271 Y21.334580 Z-1.000000
G01 X6.325021 Y21.334580 Z-1.000000
G01 X6.325021 Y41.483820 Z-1.000000
G00 Z5.000000

(End cutting path id: path235)

(Footer)
M5
G00 X0.0000 Y0.0000
M2
(Using default footer. To add your own footer create file "footer" in the output dir.)
(end)
%
