%
(Header)
(Generated by gcodetools from Inkscape.)
(Using default header. To add your own header create file "header" in the output dir.)
M3 S2000
(Header end.)
G21 (All units in mm)

(Start cutting path id: path66418)
(Change tool to Default tool)

G00 Z5.000000
G00 X54.884206 Y2.000060

G00 Z4.000000 (Fast pre-penetrate)
G01 Z-1.000000 F100.0(Penetrate)
G03 X53.662211 Y3.477231 Z-1.000000 I-14.446006 J-10.706482 F400.000000
G03 X51.620106 Y5.542880 Z-1.000000 I-30.357195 J-27.968937
G02 X49.448948 Y7.692410 Z-1.000000 I42.860729 J45.463256
G02 X47.722396 Y9.595220 Z-1.000000 I31.843528 J30.628560
G03 X46.949573 Y10.481026 Z-1.000000 I-46.607864 J-39.883084
G03 X46.907506 Y10.511353 Z-1.000000 I-0.089099 J-0.079251
G01 X46.869084 Y10.500306 Z-1.000000
G03 X46.485396 Y9.899320 Z-1.000000 I8.261690 J-5.697486
G02 X46.068536 Y9.300941 Z-1.000000 I-4.147827 J2.445189
G02 X45.463146 Y8.646180 Z-1.000000 I-5.579401 J4.551442
G02 X43.657756 Y7.425848 Z-1.000000 I-4.496082 J4.705981
G02 X39.599956 Y5.984140 Z-1.000000 I-10.507797 J23.143671
G03 X36.786922 Y5.041288 Z-1.000000 I5.636265 J-21.483829
G03 X35.214066 Y4.180040 Z-1.000000 I3.086528 J-7.503616
G02 X34.720360 Y3.890219 Z-1.000000 I-2.034822 J2.900863
G02 X34.645136 Y3.905250 Z-1.000000 I-0.027668 J0.057283
G02 X34.598824 Y3.992472 Z-1.000000 I0.156429 J0.138966
G02 X34.434006 Y4.732640 Z-1.000000 I11.935693 J3.046227
G03 X33.990906 Y6.187481 Z-1.000000 I-6.972943 J-1.328847
G03 X32.735906 Y8.716000 Z-1.000000 I-22.498773 J-9.591282
G02 X31.274210 Y11.467154 Z-1.000000 I44.979020 J25.661359
G02 X30.755096 Y12.731253 Z-1.000000 I8.935635 J4.408141
G02 X30.351432 Y14.944400 Z-1.000000 I7.615155 J2.532344
G02 X30.583926 Y17.031333 Z-1.000000 I6.986390 J0.278100
G01 X30.704366 Y17.481023 Z-1.000000
G01 X30.020446 Y17.423023 Z-1.000000
G02 X29.335493 Y17.386060 Z-1.000000 I-0.944433 J11.136314
G02 X24.413436 Y17.292853 Z-1.000000 I-13.337776 J574.328984
G03 X19.497090 Y17.165077 Z-1.000000 I3.179687 J-216.988547
G03 X18.914536 Y17.087593 Z-1.000000 I0.115668 J-3.098297
G02 X18.345101 Y16.976666 Z-1.000000 I-1.879414 J8.130778
G01 X18.302796 Y16.990393 Z-1.000000
G02 X18.287358 Y17.033142 Z-1.000000 I0.037820 J0.037820
G02 X18.365896 Y17.679953 Z-1.000000 I11.366771 J-1.052013
G03 X18.422778 Y18.336851 Z-1.000000 I-5.084370 J0.771180
G03 X18.485286 Y23.048253 Z-1.000000 I-262.925096 J5.844424
G02 X18.531663 Y27.761940 Z-1.000000 I427.041626 J-1.844480
G02 X18.572086 Y28.692603 Z-1.000000 I16.605249 J-0.255038
G01 X18.638586 Y29.622283 Z-1.000000
G01 X18.188276 Y29.504373 Z-1.000000
G02 X16.904725 Y29.291174 Z-1.000000 I-1.803611 J6.888145
G02 X15.614586 Y29.315893 Z-1.000000 I-0.511487 J6.984281
G02 X13.976760 Y29.733562 Z-1.000000 I0.681748 J6.093455
G02 X11.154806 Y31.138513 Z-1.000000 I8.068198 J19.742136
G03 X7.865835 Y32.876007 Z-1.000000 I-19.041169 J-32.062122
G03 X6.232888 Y33.432358 Z-1.000000 I-3.388179 J-7.270043
G02 X5.423453 Y33.648938 Z-1.000000 I2.246322 J10.016170
G02 X5.369899 Y33.701461 Z-1.000000 I0.024489 J0.078534
G02 X5.377338 Y33.777356 Z-1.000000 I0.088697 J0.029618
G02 X5.632599 Y34.162821 Z-1.000000 I2.990468 J-1.703086
G03 X6.394106 Y35.519975 Z-1.000000 I-4.407240 J3.365148
G03 X7.481188 Y38.921254 Z-1.000000 I-27.212750 J10.571819
G02 X7.972963 Y40.765274 Z-1.000000 I74.235830 J-18.810127
G02 X8.199337 Y41.485303 Z-1.000000 I11.527874 J-3.228713
G02 X9.563462 Y44.057275 Z-1.000000 I9.103826 J-3.180756
G02 X11.365806 Y45.745449 Z-1.000000 I5.568619 J-4.139017
G03 X11.874363 Y46.101120 Z-1.000000 I-4.615461 J7.140831
G03 X11.897016 Y46.146615 Z-1.000000 I-0.034357 J0.045495
G03 X11.876308 Y46.195184 Z-1.000000 I-0.067313 J0.000000
G03 X11.020866 Y46.987340 Z-1.000000 I-22.734763 J-23.693106
G02 X10.163779 Y47.790320 Z-1.000000 I16.606203 J18.584089
G02 X7.099078 Y50.839021 Z-1.000000 I236.638676 J240.945333
G03 X4.012221 Y53.857239 Z-1.000000 I-101.968139 J-101.199405
G03 X3.448479 Y54.302701 Z-1.000000 I-2.738987 J-2.886802
G02 X2.850915 Y54.701604 Z-1.000000 I19.071239 J29.216153
G01 X2.843519 Y54.715605 Z-1.000000
G01 X2.850618 Y54.730027 Z-1.000000
G02 X3.448479 Y55.181215 Z-1.000000 I24.076415 J-31.281510
G03 X4.022341 Y55.664494 Z-1.000000 I-3.549040 J4.796600
G03 X6.013888 Y57.633378 Z-1.000000 I-57.438459 J60.091298
G02 X10.323291 Y61.973396 Z-1.000000 I288.395038 J-282.051067
G02 X11.187756 Y62.765596 Z-1.000000 I10.441553 J-10.526290
G03 X11.802036 Y63.303512 Z-1.000000 I-15.541822 J18.367870
G03 X11.838056 Y63.354840 Z-1.000000 I-0.095318 J0.105194
G01 X11.825066 Y63.401578 Z-1.000000
G03 X11.420836 Y63.664611 Z-1.000000 I-2.330181 J-3.138899
G02 X9.983748 Y64.808723 Z-1.000000 I2.889819 J5.104424
G02 X8.805607 Y66.521937 Z-1.000000 I5.543566 J5.073891
G02 X8.316672 Y67.704543 Z-1.000000 I8.000424 J4.000063
G02 X7.471798 Y70.540864 Z-1.000000 I45.405825 J15.069332
G03 X6.424583 Y73.749897 Z-1.000000 I-28.709186 J-7.593376
G03 X5.636439 Y75.240712 Z-1.000000 I-6.903554 J-2.695940
G02 X5.566208 Y75.727967 Z-1.000000 I0.460122 J0.315009
G02 X5.878988 Y75.987529 Z-1.000000 I0.361526 J-0.117415
G03 X7.259079 Y76.374604 Z-1.000000 I-0.636690 J4.923923
G03 X10.770546 Y78.161987 Z-1.000000 I-15.240497 J34.284246
G02 X13.811908 Y79.705238 Z-1.000000 I15.849151 J-27.466211
G02 X15.231336 Y80.131443 Z-1.000000 I2.418549 J-5.477980
G02 X16.476887 Y80.206471 Z-1.000000 I0.970486 J-5.734907
G02 X18.030036 Y79.998937 Z-1.000000 I-0.433745 J-9.161607
G03 X18.573264 Y79.885367 Z-1.000000 I4.904311 J22.102371
G03 X18.658076 Y79.875655 Z-1.000000 I0.103115 J0.525281
G01 X18.699318 Y79.914274 Z-1.000000
G03 X18.677776 Y80.519402 Z-1.000000 I-4.576718 J0.140021
G02 X18.636521 Y81.167532 Z-1.000000 I8.471679 J0.864617
G02 X18.536146 Y86.089183 Z-1.000000 I488.870383 J12.432176
G03 X18.384523 Y91.086606 Z-1.000000 I-167.020590 J-2.566422
G03 X18.252446 Y92.347364 Z-1.000000 I-10.723096 J-0.486057
G01 X18.297158 Y92.399044 Z-1.000000
G02 X20.032696 Y92.312684 Z-1.000000 I-0.559471 J-28.725606
G03 X21.243946 Y92.258285 Z-1.000000 I1.380630 J17.229210
G03 X24.413416 Y92.269754 Z-1.000000 I1.157407 J118.102495
G02 X27.583257 Y92.282587 Z-1.000000 I2.078925 J-122.015570
G02 X29.076046 Y92.228074 Z-1.000000 I-0.242281 J-27.101182
G03 X30.559988 Y92.153256 Z-1.000000 I3.473926 J54.148107
G03 X30.607376 Y92.171874 Z-1.000000 I0.002337 J0.063670
G01 X30.620882 Y92.217522 Z-1.000000
G03 X30.513676 Y92.613136 Z-1.000000 I-3.629335 J-0.771172
G02 X30.277170 Y93.758075 Z-1.000000 I4.771257 J1.582476
G02 X30.300246 Y95.055878 Z-1.000000 I6.173011 J0.539348
G02 X30.756255 Y96.793741 Z-1.000000 I6.678448 J-0.823642
G02 X32.465656 Y100.316107 Z-1.000000 I29.547503 J-12.163408
G03 X34.080034 Y103.558439 Z-1.000000 I-30.859928 J17.388429
G03 X34.476096 Y104.931346 Z-1.000000 I-5.054092 J2.201607
G02 X34.590543 Y105.519899 Z-1.000000 I7.217962 J-1.098165
G02 X34.635676 Y105.603250 Z-1.000000 I0.177266 J-0.042092
G02 X34.709807 Y105.616033 Z-1.000000 I0.045643 J-0.043349
G02 X35.232836 Y105.300179 Z-1.000000 I-1.879348 J-3.703016
G03 X36.683390 Y104.508009 Z-1.000000 I4.093057 J5.770706
G03 X39.752516 Y103.480356 Z-1.000000 I10.133819 J25.168182
G02 X42.410519 Y102.673319 Z-1.000000 I-11.534550 J-42.770065
G02 X43.605216 Y102.177316 Z-1.000000 I-3.077849 J-9.100256
G02 X45.440156 Y100.919087 Z-1.000000 I-3.541331 J-7.131615
G02 X46.569796 Y99.463655 Z-1.000000 I-3.686579 J-4.027457
G03 X46.838371 Y98.999706 Z-1.000000 I6.903368 J3.686579
G03 X46.895676 Y98.942711 Z-1.000000 I0.150861 J0.094374
G03 X46.958467 Y98.950690 Z-1.000000 I0.026466 J0.042780
G03 X47.789306 Y99.875585 Z-1.000000 I-13.993642 J13.406196
G02 X48.637143 Y100.829408 Z-1.000000 I18.186108 J-15.311594
G02 X50.939506 Y103.233571 Z-1.000000 I117.970218 J-110.670481
G03 X54.654149 Y107.168461 Z-1.000000 I-110.895645 J108.409284
G03 X55.087636 Y107.784144 Z-1.000000 I-2.219162 J2.022904
G02 X55.306184 Y108.126392 Z-1.000000 I2.228572 J-1.182189
G02 X55.370446 Y108.157052 Z-1.000000 I0.061811 J-0.046878
G02 X55.437440 Y108.124261 Z-1.000000 I-0.002964 J-0.090887
G02 X55.803766 Y107.635229 Z-1.000000 I-4.691681 J-3.896181
G03 X56.693050 Y106.510593 Z-1.000000 I7.804609 J5.257432
G03 X59.387316 Y103.752252 Z-1.000000 I50.016114 J46.159249
G02 X62.215720 Y100.890988 Z-1.000000 I-62.566747 J-64.676795
G02 X63.384686 Y99.523404 Z-1.000000 I-13.076961 J-12.361150
G03 X63.781107 Y99.036430 Z-1.000000 I9.554544 J7.373031
G03 X63.834636 Y98.999137 Z-1.000000 I0.098879 J0.084863
G01 X63.884209 Y99.014327 Z-1.000000
G03 X64.222496 Y99.541514 Z-1.000000 I-5.074145 J3.628128
G02 X65.231526 Y100.859167 Z-1.000000 I5.419629 J-3.105060
G02 X66.588546 Y101.901082 Z-1.000000 I4.687186 J-4.700060
G02 X67.830612 Y102.485009 Z-1.000000 I4.003666 J-6.903195
G02 X70.426346 Y103.316640 Z-1.000000 I10.891800 J-29.529343
G03 X74.373317 Y104.638057 Z-1.000000 I-9.744085 J35.660183
G03 X75.679606 Y105.411148 Z-1.000000 I-1.820779 J4.566726
G02 X75.986489 Y105.630464 Z-1.000000 I1.743072 J-2.114671
G02 X76.078206 Y105.656422 Z-1.000000 I0.091717 J-0.149051
G02 X76.141209 Y105.613146 Z-1.000000 I0.000000 J-0.067499
G02 X76.230596 Y105.260070 Z-1.000000 I-1.430562 J-0.550023
G03 X76.637918 Y103.762897 Z-1.000000 I5.641464 J0.730826
G03 X78.433496 Y100.084893 Z-1.000000 I36.420934 J15.503171
G02 X79.813172 Y97.340575 Z-1.000000 I-33.557755 J-18.589773
G02 X80.278846 Y96.016094 Z-1.000000 I-7.298799 J-3.310284
G02 X80.472925 Y94.471668 Z-1.000000 I-6.029278 J-1.542073
G02 X80.277846 Y92.821861 Z-1.000000 I-7.096534 J0.002683
G03 X80.118053 Y92.127407 Z-1.000000 I37.584693 J-9.013777
G03 X80.111546 Y92.067650 Z-1.000000 I0.271116 J-0.059757
G01 X80.140286 Y92.039175 Z-1.000000
G03 X80.716506 Y92.073250 Z-1.000000 I-0.053657 J5.796496
G02 X81.323044 Y92.114027 Z-1.000000 I0.791355 J-7.239686
G02 X86.328006 Y92.215701 Z-1.000000 I12.533518 J-493.731695
G03 X91.328005 Y92.345227 Z-1.000000 I-3.578544 J234.711129
G03 X91.876926 Y92.418628 Z-1.000000 I-0.105161 J2.875643
G02 X92.408969 Y92.511406 Z-1.000000 I1.083820 J-4.643320
G02 X92.472446 Y92.488008 Z-1.000000 I0.008658 J-0.074314
G02 X92.495191 Y92.421889 Z-1.000000 I-0.063321 J-0.058754
G02 X92.413146 Y91.804975 Z-1.000000 I-6.620885 J0.566612
G03 X92.349832 Y91.174759 Z-1.000000 I4.017614 J-0.721915
G03 X92.297426 Y86.656951 Z-1.000000 I207.832250 J-4.670028
G02 X92.257881 Y82.136306 Z-1.000000 I-284.420255 J0.227542
G02 X92.203926 Y81.079960 Z-1.000000 I-15.402891 J0.257176
G03 X92.136098 Y80.033366 Z-1.000000 I25.398972 J-2.171556
G03 X92.155526 Y79.983477 Z-1.000000 I0.066253 J-0.002927
G03 X92.204533 Y79.967568 Z-1.000000 I0.040080 J0.040028
G03 X92.850626 Y80.094430 Z-1.000000 I-1.456190 J9.124843
G02 X93.509207 Y80.200534 Z-1.000000 I1.088346 J-4.658374
G02 X94.463603 Y80.239925 Z-1.000000 I0.881237 J-9.769603
G02 X96.380828 Y79.879400 Z-1.000000 I-0.041001 J-5.496081
G02 X100.199600 Y78.052741 Z-1.000000 I-9.220411 J-24.181030
G03 X103.496398 Y76.357723 Z-1.000000 I17.579648 J30.138655
G03 X104.808000 Y75.985083 Z-1.000000 I1.932354 J4.306839
G02 X105.174007 Y75.708238 Z-1.000000 I-0.061186 J-0.461256
G02 X105.128920 Y75.241656 Z-1.000000 I-0.445700 J-0.192400
G03 X104.314892 Y73.692898 Z-1.000000 I6.223784 J-4.259532
G03 X103.168770 Y70.152669 Z-1.000000 I31.834847 J-12.261921
G02 X102.024982 Y66.715810 Z-1.000000 I-27.924292 J7.384458
G02 X101.225790 Y65.344196 Z-1.000000 I-5.143805 J2.078480
G02 X100.207377 Y64.279196 Z-1.000000 I-6.287734 J4.993253
G02 X99.251956 Y63.627419 Z-1.000000 I-3.245779 J3.731742
G03 X98.821292 Y63.381681 Z-1.000000 I3.099376 J-5.932010
G01 X98.802779 Y63.348574 Z-1.000000
G01 X98.819065 Y63.311955 Z-1.000000
G03 X99.449256 Y62.765730 Z-1.000000 I14.185249 J15.729162
G02 X100.073881 Y62.202994 Z-1.000000 I-6.921863 J-8.311157
G02 X103.475350 Y58.844569 Z-1.000000 I-243.994275 J-250.523185
G03 X106.886124 Y55.499951 Z-1.000000 I164.691959 J164.538104
G03 X107.334560 Y55.137119 Z-1.000000 I2.351442 J2.447691
G02 X107.789756 Y54.799198 Z-1.000000 I-3.664276 J-5.411514
G02 X107.814350 Y54.747550 Z-1.000000 I-0.041936 J-0.051648
G02 X107.790342 Y54.694921 Z-1.000000 I-0.069688 J0.000000
G02 X107.292840 Y54.294903 Z-1.000000 I-5.562503 J6.408689
G03 X106.799195 Y53.874792 Z-1.000000 I2.954310 J-3.971498
G03 X103.517070 Y50.629112 Z-1.000000 I174.876448 J-180.122425
G02 X100.248542 Y47.366202 Z-1.000000 I-366.547977 J363.910508
G02 X99.553563 Y46.707642 Z-1.000000 I-15.611115 J15.778450
G03 X98.935974 Y46.080675 Z-1.000000 I5.282773 J-5.821416
G01 X98.950046 Y46.022115 Z-1.000000
G02 X99.460674 Y45.733207 Z-1.000000 I-0.787253 J-1.987128
G02 X100.499640 Y44.837841 Z-1.000000 I-7.094297 J-9.282573
G02 X101.804811 Y43.004524 Z-1.000000 I-4.325840 J-4.460887
G02 X103.269230 Y38.902484 Z-1.000000 I-21.093495 J-9.842749
G03 X104.252962 Y35.845061 Z-1.000000 I25.078836 J6.382196
G03 X105.097090 Y34.236781 Z-1.000000 I7.706051 J3.018961
G02 X105.359122 Y33.780060 Z-1.000000 I-3.016604 J-2.034229
G02 X105.363060 Y33.683987 Z-1.000000 I-0.109316 J-0.052597
G02 X105.295187 Y33.620276 Z-1.000000 I-0.099777 J0.038286
G02 X104.851490 Y33.523977 Z-1.000000 I-0.758858 J2.426121
G03 X103.401047 Y33.119817 Z-1.000000 I0.635280 J-5.084623
G03 X100.054210 Y31.386193 Z-1.000000 I13.069768 J-29.329183
G02 X95.485679 Y29.480834 Z-1.000000 I-8.970378 J15.078793
G02 X92.692686 Y29.478283 Z-1.000000 I-1.401436 J5.407323
G03 X92.097948 Y29.610573 Z-1.000000 I-2.307318 J-8.970038
G01 X92.056916 Y29.597893 Z-1.000000
G03 X92.040699 Y29.556043 Z-1.000000 I0.039293 J-0.039293
G03 X92.116916 Y28.287453 Z-1.000000 I45.401623 J2.091145
G02 X92.176726 Y27.010628 Z-1.000000 I-23.210271 J-1.727048
G02 X92.214216 Y23.257033 Z-1.000000 I-200.532521 J-3.879850
G03 X92.288920 Y19.239085 Z-1.000000 I111.629404 J0.065822
G03 X92.426636 Y17.450873 Z-1.000000 I22.259726 J0.814879
G01 X92.481436 Y16.985023 Z-1.000000
G01 X91.866246 Y17.108013 Z-1.000000
G03 X91.245726 Y17.176019 Z-1.000000 I-0.695043 J-3.476945
G03 X86.870326 Y17.213033 Z-1.000000 I-3.661124 J-174.154220
G02 X82.491367 Y17.237073 Z-1.000000 I-0.937279 J228.099863
G02 X81.340056 Y17.296433 Z-1.000000 I0.238832 J15.827105
G03 X80.199172 Y17.373836 Z-1.000000 I-2.492873 J-28.297018
G03 X80.146056 Y17.353333 Z-1.000000 I-0.003353 J-0.070368
G03 X80.129495 Y17.301551 Z-1.000000 I0.041707 J-0.041878
G03 X80.236656 Y16.820123 Z-1.000000 I4.802758 J0.816403
G02 X80.336469 Y16.325670 Z-1.000000 I-3.451964 J-0.954135
G02 X80.418726 Y15.413503 Z-1.000000 I-11.715758 J-1.516289
G02 X80.148383 Y13.270574 Z-1.000000 I-6.137122 J-0.314283
G02 X78.728166 Y9.989750 Z-1.000000 I-16.072437 J5.009698
G03 X76.789215 Y6.169525 Z-1.000000 I41.227771 J-23.327276
G03 X76.297376 Y4.610720 Z-1.000000 I6.284020 J-2.839750
G02 X76.130170 Y3.886487 Z-1.000000 I-9.119264 J1.723976
G01 X76.091156 Y3.856710 Z-1.000000
G02 X76.032415 Y3.873092 Z-1.000000 I0.000000 J0.113506
G02 X75.284026 Y4.344890 Z-1.000000 I12.346433 J20.413969
G03 X74.522318 Y4.798733 Z-1.000000 I-5.573924 J-8.488874
G03 X73.803226 Y5.141720 Z-1.000000 I-3.884208 J-7.218165
G03 X73.016935 Y5.425555 Z-1.000000 I-3.227450 J-7.709774
G03 X69.931496 Y6.324110 Z-1.000000 I-36.081761 J-118.150205
G02 X66.958149 Y7.483396 Z-1.000000 I4.210850 J15.192701
G02 X65.216046 Y8.738110 Z-1.000000 I3.251335 J6.351069
G02 X64.576093 Y9.437119 Z-1.000000 I6.113221 J6.239198
G02 X64.257686 Y9.906310 Z-1.000000 I2.417105 J1.982952
G03 X63.974247 Y10.402792 Z-1.000000 I-18.831669 J-10.421727
G03 X63.904966 Y10.505513 Z-1.000000 I-0.870642 J-0.512494
G03 X63.826318 Y10.511891 Z-1.000000 I-0.042208 J-0.032378
G03 X62.973186 Y9.629370 Z-1.000000 I8.810518 J-9.370741
G02 X62.099089 Y8.671273 Z-1.000000 I-25.841001 J22.697643
G02 X59.370086 Y5.826570 Z-1.000000 I-230.610844 J218.500067
G03 X56.190908 Y2.434695 Z-1.000000 I93.626691 J-90.941433
G03 X55.608636 Y1.667420 Z-1.000000 I4.155144 J-3.757840
G02 X55.405238 Y1.362857 Z-1.000000 I-6.018113 J3.798914
G01 X55.387066 Y1.353440 Z-1.000000
G01 X55.368392 Y1.362576 Z-1.000000
G02 X54.884436 Y2.000120 Z-1.000000 I27.463866 J21.350111
G01 X54.884206 Y2.000060 Z-1.000000
G00 Z5.000000

(End cutting path id: path66418)


(Start cutting path id: path66418)
(Change tool to Default tool)

G00 Z5.000000
G00 X55.829506 Y2.376880

G00 Z4.000000 (Fast pre-penetrate)
G01 Z-1.000000 F100.0(Penetrate)
G02 X56.422398 Y3.095016 Z-1.000000 I5.996480 J-4.346872 F400.000000
G02 X59.836736 Y6.651980 Z-1.000000 I151.467281 J-141.976594
G03 X61.785264 Y8.673143 Z-1.000000 I-103.041516 J101.288359
G03 X62.702226 Y9.682660 Z-1.000000 I-24.780460 J23.429715
G03 X64.463925 Y11.830575 Z-1.000000 I-34.357518 J29.976133
G03 X64.971656 Y12.628203 Z-1.000000 I-4.185175 J3.224488
G01 X65.095896 Y12.868453 Z-1.000000
G01 X64.786326 Y12.868453 Z-1.000000
G02 X64.076212 Y13.047926 Z-1.000000 I0.000000 J1.494581
G02 X63.531336 Y13.546103 Z-1.000000 I0.721502 J1.336199
G03 X63.313010 Y13.862063 Z-1.000000 I-8.000177 J-5.294651
G01 X63.297966 Y13.869763 Z-1.000000
G01 X63.282724 Y13.862168 Z-1.000000
G03 X62.621376 Y12.972763 Z-1.000000 I64.022790 J-48.296906
G02 X61.343211 Y11.380480 Z-1.000000 I-18.747353 J13.739807
G02 X58.600736 Y8.391700 Z-1.000000 I-68.943796 J60.509540
G02 X55.578221 Y5.363306 Z-1.000000 I-77.731784 J74.558355
G02 X55.365126 Y5.276100 Z-1.000000 I-0.216332 J0.224664
G02 X54.724623 Y5.539433 Z-1.000000 I-0.012453 J0.880322
G02 X49.502236 Y11.241333 Z-1.000000 I78.853145 J77.464377
G02 X48.666912 Y12.257709 Z-1.000000 I26.867367 J22.932785
G02 X48.099446 Y13.014483 Z-1.000000 I14.320448 J11.329325
G03 X47.537329 Y13.759198 Z-1.000000 I-13.084282 J-9.291625
G03 X47.480826 Y13.786323 Z-1.000000 I-0.056503 J-0.045286
G03 X47.422235 Y13.762184 Z-1.000000 I0.000000 J-0.083176
G03 X47.190756 Y13.498473 Z-1.000000 I1.798206 J-1.811871
G02 X46.566036 Y12.994995 Z-1.000000 I-1.337227 J1.019925
G02 X45.894126 Y12.892023 Z-1.000000 I-0.511422 J1.093466
G03 X45.607559 Y12.888470 Z-1.000000 I-0.131180 J-0.977968
G01 X45.565726 Y12.839623 Z-1.000000
G03 X45.664967 Y12.525170 Z-1.000000 I0.541533 J-0.001979
G03 X47.137056 Y10.615483 Z-1.000000 I23.649385 J16.707986
G03 X48.297399 Y9.308343 Z-1.000000 I24.235536 J20.345206
G03 X52.219596 Y5.198940 Z-1.000000 I243.791844 J228.759308
G02 X54.968144 Y2.323139 Z-1.000000 I-182.586738 J-177.258716
G02 X55.137216 Y2.098070 Z-1.000000 I-0.927959 J-0.873122
G03 X55.298466 Y1.884928 Z-1.000000 I1.010611 J0.597002
G03 X55.367696 Y1.856430 Z-1.000000 I0.066650 J0.063573
G03 X55.438014 Y1.888964 Z-1.000000 I-0.002035 J0.096657
G03 X55.829506 Y2.376850 Z-1.000000 I-4.783662 J4.239546
G01 X55.829506 Y2.376880 Z-1.000000
G00 Z5.000000

(End cutting path id: path66418)


(Start cutting path id: path66418)
(Change tool to Default tool)

G00 Z5.000000
G00 X56.743716 Y6.881260

G00 Z4.000000 (Fast pre-penetrate)
G01 Z-1.000000 F100.0(Penetrate)
G01 X57.842246 Y7.944960 Z-1.000000 F400.000000
G01 X57.799546 Y8.508390 Z-1.000000
G02 X57.763361 Y9.072213 Z-1.000000 I24.288600 J1.841886
G02 X57.700946 Y10.386041 Z-1.000000 I130.743991 J6.869501
G03 X57.614171 Y11.667996 Z-1.000000 I-25.534848 J-1.084530
G01 X57.578766 Y11.700261 Z-1.000000
G03 X57.522331 Y11.677116 Z-1.000000 I-0.000000 J-0.080378
G03 X56.504126 Y10.640681 Z-1.000000 I32.101275 J-32.554982
G01 X55.495766 Y9.581100 Z-1.000000
G01 X55.495766 Y7.671510 Z-1.000000
G03 X55.532623 Y5.814927 Z-1.000000 I46.779212 J0.000000
G01 X55.570466 Y5.789740 Z-1.000000
G03 X55.636887 Y5.830723 Z-1.000000 I-0.069741 J0.187345
G03 X56.743726 Y6.881260 Z-1.000000 I-52.023445 J55.919924
G01 X56.743716 Y6.881260 Z-1.000000
G00 Z5.000000

(End cutting path id: path66418)


(Start cutting path id: path66418)
(Change tool to Default tool)

G00 Z5.000000
G00 X55.245406 Y7.703600

G00 Z4.000000 (Fast pre-penetrate)
G01 Z-1.000000 F100.0(Penetrate)
G01 X55.245406 Y9.631370 Z-1.000000 F400.000000
G01 X54.223236 Y10.691931 Z-1.000000
G03 X53.194232 Y11.713054 Z-1.000000 I-23.427286 J-22.579050
G01 X53.138486 Y11.721441 Z-1.000000
G03 X53.105224 Y11.672208 Z-1.000000 I0.026834 J-0.053981
G03 X53.075886 Y10.928381 Z-1.000000 I9.414700 J-0.743827
G02 X53.054668 Y10.167439 Z-1.000000 I-13.655379 J0.000000
G02 X52.981086 Y9.231760 Z-1.000000 I-20.620262 J1.150847
G03 X52.919348 Y8.299440 Z-1.000000 I13.325329 J-1.350601
G03 X52.944486 Y8.058660 Z-1.000000 I0.897201 J-0.028033
G03 X53.053885 Y7.849597 Z-1.000000 I0.476339 J0.116105
G03 X54.061406 Y6.798260 Z-1.000000 I13.974560 J12.383717
G03 X55.128668 Y5.797189 Z-1.000000 I35.623526 J36.909535
G03 X55.182786 Y5.776090 Z-1.000000 I0.054470 J0.059757
G01 X55.214563 Y5.806851 Z-1.000000
G03 X55.245386 Y7.703600 Z-1.000000 I-58.345361 J1.896749
G01 X55.245406 Y7.703600 Z-1.000000
G00 Z5.000000

(End cutting path id: path66418)


(Start cutting path id: path66418)
(Change tool to Default tool)

G00 Z5.000000
G00 X52.773496 Y9.921010

G00 Z4.000000 (Fast pre-penetrate)
G01 Z-1.000000 F100.0(Penetrate)
G02 X52.841531 Y11.353047 Z-1.000000 I71.145921 J-2.662441 F400.000000
G02 X52.877036 Y11.718611 Z-1.000000 I4.668780 J-0.268947
G03 X52.831313 Y12.054897 Z-1.000000 I-0.626980 J0.086005
G03 X52.509676 Y12.571941 Z-1.000000 I-1.872560 J-0.806300
G02 X52.115666 Y13.077933 Z-1.000000 I5.445097 J4.646431
G02 X51.609916 Y13.840851 Z-1.000000 I11.892303 J8.432687
G03 X51.116392 Y14.600888 Z-1.000000 I-17.597789 J-10.886719
G01 X51.078856 Y14.620741 Z-1.000000
G01 X51.051657 Y14.596971 Z-1.000000
G03 X50.839306 Y12.847591 Z-1.000000 I64.572601 J-8.725832
G02 X50.643961 Y11.074977 Z-1.000000 I-356.803657 J38.423264
G02 X50.599236 Y10.717781 Z-1.000000 I-14.518287 J1.636460
G01 X50.550136 Y10.361121 Z-1.000000
G01 X51.579896 Y9.319500 Z-1.000000
G03 X52.595969 Y8.369747 Z-1.000000 I12.540047 J12.397312
G01 X52.664786 Y8.382800 Z-1.000000
G03 X52.696397 Y8.493967 Z-1.000000 I-0.249519 J0.131030
G03 X52.773516 Y9.921010 Z-1.000000 I-43.080262 J3.043713
G01 X52.773496 Y9.921010 Z-1.000000
G00 Z5.000000

(End cutting path id: path66418)


(Start cutting path id: path66418)
(Change tool to Default tool)

G00 Z5.000000
G00 X55.245406 Y11.995241

G00 Z4.000000 (Fast pre-penetrate)
G01 Z-1.000000 F100.0(Penetrate)
G01 X55.245406 Y13.875641 Z-1.000000 F400.000000
G01 X55.057656 Y13.775171 Z-1.000000
G03 X53.107338 Y12.601319 Z-1.000000 I10.640680 J-19.886279
G03 X52.992456 Y12.385551 Z-1.000000 I0.145184 J-0.215768
G03 X53.643238 Y10.765977 Z-1.000000 I2.340674 J-0.000000
G03 X55.169146 Y10.114851 Z-1.000000 I1.525908 J1.462413
G01 X55.208055 Y10.152213 Z-1.000000
G03 X55.245446 Y11.995241 Z-1.000000 I-45.403772 J1.843028
G01 X55.245406 Y11.995241 Z-1.000000
G00 Z5.000000

(End cutting path id: path66418)


(Start cutting path id: path66418)
(Change tool to Default tool)

G00 Z5.000000
G00 X53.985286 Y13.372751

G00 Z4.000000 (Fast pre-penetrate)
G01 Z-1.000000 F100.0(Penetrate)
G03 X55.089082 Y14.268087 Z-1.000000 I-3.493497 J5.434949 F400.000000
G03 X55.245406 Y14.648881 Z-1.000000 I-0.385633 J0.380794
G03 X55.182551 Y15.001452 Z-1.000000 I-1.020259 J-0.000000
G03 X54.775696 Y15.924361 Z-1.000000 I-7.593281 J-2.796286
G03 X54.296505 Y16.825373 Z-1.000000 I-40.393229 J-20.904657
G03 X54.240426 Y16.904131 Z-1.000000 I-0.358088 J-0.195629
G03 X54.137724 Y16.920458 Z-1.000000 I-0.061540 J-0.055929
G03 X52.709952 Y16.067511 Z-1.000000 I19.904454 J-34.940104
G03 X51.313650 Y15.153906 Z-1.000000 I21.901727 J-34.997173
G03 X51.245096 Y15.029621 Z-1.000000 I0.088933 J-0.130104
G03 X51.314848 Y14.758683 Z-1.000000 I0.488187 J-0.018766
G03 X52.471196 Y12.994381 Z-1.000000 I23.902259 J14.404781
G03 X52.815702 Y12.867077 Z-1.000000 I0.265523 J0.188753
G03 X53.985286 Y13.372751 Z-1.000000 I-0.950682 J3.804268
G01 X53.985286 Y13.372751 Z-1.000000
G00 Z5.000000

(End cutting path id: path66418)


(Start cutting path id: path66418)
(Change tool to Default tool)

G00 Z5.000000
G00 X52.306776 Y16.076701

G00 Z4.000000 (Fast pre-penetrate)
G01 Z-1.000000 F100.0(Penetrate)
G03 X53.385444 Y16.759246 Z-1.000000 I-17.816299 J29.349808 F400.000000
G03 X53.714716 Y17.004701 Z-1.000000 I-1.955355 J2.966646
G01 X54.030126 Y17.269501 Z-1.000000
G01 X53.539306 Y18.575961 Z-1.000000
G03 X53.031857 Y19.843698 Z-1.000000 I-29.898842 J-11.232454
G01 X52.993546 Y19.859191 Z-1.000000
G03 X52.940665 Y19.831999 Z-1.000000 I0.156785 J-0.369915
G03 X51.591656 Y19.001521 Z-1.000000 I147.591974 J-241.255945
G03 X50.308880 Y18.130629 Z-1.000000 I9.768138 J-15.768100
G03 X50.241836 Y18.000211 Z-1.000000 I0.098853 J-0.133259
G03 X50.618548 Y15.627056 Z-1.000000 I6.957250 J-0.112089
G03 X51.142436 Y15.385241 Z-1.000000 I0.377646 J0.129759
G03 X51.211485 Y15.419018 Z-1.000000 I-0.173502 J0.442150
G03 X52.306776 Y16.076701 Z-1.000000 I-67.867472 J114.265877
G01 X52.306776 Y16.076701 Z-1.000000
G00 Z5.000000

(End cutting path id: path66418)


(Start cutting path id: path66418)
(Change tool to Default tool)

G00 Z5.000000
G00 X49.566046 Y15.000221

G00 Z4.000000 (Fast pre-penetrate)
G01 Z-1.000000 F100.0(Penetrate)
G03 X49.832253 Y15.378997 Z-1.000000 I-1.292333 J1.191198 F400.000000
G03 X49.993476 Y15.820191 Z-1.000000 I-1.604487 J0.836372
G03 X50.068859 Y16.281949 Z-1.000000 I-3.917427 J0.876561
G03 X50.047576 Y16.341851 Z-1.000000 I-0.073461 J0.007632
G03 X49.991961 Y16.354720 Z-1.000000 I-0.038075 J-0.037940
G03 X49.743886 Y16.237041 Z-1.000000 I0.406158 J-1.176527
G02 X49.491279 Y16.081199 Z-1.000000 I-124.154254 J200.962010
G02 X48.692556 Y15.589351 Z-1.000000 I-1252.276825 J2032.703944
G03 X47.965420 Y15.073409 Z-1.000000 I3.578381 J-5.813504
G03 X47.939826 Y14.977571 Z-1.000000 I0.053289 J-0.065568
G02 X47.980543 Y14.856451 Z-1.000000 I-1.401470 J-0.538538
G02 X47.985926 Y14.818491 Z-1.000000 I-0.131153 J-0.037960
G01 X48.002434 Y14.790273 Z-1.000000
G03 X48.327066 Y14.626781 Z-1.000000 I1.955048 J3.477921
G03 X48.909889 Y14.589374 Z-1.000000 I0.341581 J0.762974
G03 X49.566056 Y15.000221 Z-1.000000 I-0.423917 J1.406449
G01 X49.566046 Y15.000221 Z-1.000000
G00 Z5.000000

(End cutting path id: path66418)


(Start cutting path id: path66418)
(Change tool to Default tool)

G00 Z5.000000
G00 X48.350976 Y13.546471

G00 Z4.000000 (Fast pre-penetrate)
G01 Z-1.000000 F100.0(Penetrate)
G03 X48.329455 Y14.160087 Z-1.000000 I-1.306774 J0.261355 F400.000000
G03 X48.091706 Y14.492621 Z-1.000000 I-0.569896 J-0.156197
G03 X47.776200 Y14.690916 Z-1.000000 I-2.930369 J-4.312343
G03 X47.726646 Y14.704241 Z-1.000000 I-0.049554 J-0.085481
G01 X47.692020 Y14.681048 Z-1.000000
G03 X47.622266 Y14.450501 Z-1.000000 I1.154381 J-0.475093
G03 X47.639543 Y14.210177 Z-1.000000 I0.444185 J-0.088850
G03 X47.873976 Y13.741241 Z-1.000000 I2.019636 J0.716600
G03 X48.188983 Y13.309122 Z-1.000000 I5.091279 J3.380570
G03 X48.237626 Y13.285711 Z-1.000000 I0.048643 J0.038830
G01 X48.277471 Y13.311839 Z-1.000000
G03 X48.350976 Y13.546471 Z-1.000000 I-1.061426 J0.461350
G01 X48.350976 Y13.546471 Z-1.000000
G00 Z5.000000

(End cutting path id: path66418)


(Start cutting path id: path66418)
(Change tool to Default tool)

G00 Z5.000000
G00 X46.761266 Y13.393951

G00 Z4.000000 (Fast pre-penetrate)
G01 Z-1.000000 F100.0(Penetrate)
G03 X47.245596 Y13.959857 Z-1.000000 I-1.076885 J1.411861 F400.000000
G03 X47.401816 Y14.576071 Z-1.000000 I-1.137227 J0.616214
G03 X47.297892 Y14.653580 Z-1.000000 I-0.080866 J0.000000
G03 X46.025016 Y14.166501 Z-1.000000 I2.547998 J-8.565373
G01 X45.023706 Y13.692911 Z-1.000000
G01 X45.345996 Y13.396141 Z-1.000000
G03 X45.696900 Y13.184535 Z-1.000000 I0.693274 J0.752895
G03 X46.072596 Y13.138221 Z-1.000000 I0.292166 J0.823067
G03 X46.457503 Y13.226602 Z-1.000000 I-0.146090 J1.518579
G03 X46.761266 Y13.393951 Z-1.000000 I-0.409166 J1.102057
G01 X46.761266 Y13.393951 Z-1.000000
G00 Z5.000000

(End cutting path id: path66418)


(Start cutting path id: path66418)
(Change tool to Default tool)

G00 Z5.000000
G00 X43.757786 Y11.980961

G00 Z4.000000 (Fast pre-penetrate)
G01 Z-1.000000 F100.0(Penetrate)
G03 X44.210409 Y12.312067 Z-1.000000 I-0.462795 J1.107564 F400.000000
G03 X44.606206 Y12.981241 Z-1.000000 I-1.759199 J1.492154
G03 X44.449443 Y13.242673 Z-1.000000 I-0.181059 J0.069148
G03 X43.459166 Y13.126171 Z-1.000000 I-0.259949 J-2.057372
G03 X42.286124 Y12.623082 Z-1.000000 I4.969729 J-13.206950
G03 X42.228386 Y12.531031 Z-1.000000 I0.044510 J-0.092051
G03 X42.352000 Y12.224963 Z-1.000000 I0.440720 J0.000000
G03 X42.812486 Y11.925861 Z-1.000000 I0.877520 J0.846974
G03 X43.245048 Y11.862517 Z-1.000000 I0.369751 J1.016335
G03 X43.757786 Y11.980961 Z-1.000000 I-0.090902 J1.562536
G01 X43.757786 Y11.980961 Z-1.000000
G00 Z5.000000

(End cutting path id: path66418)


(Start cutting path id: path66418)
(Change tool to Default tool)

G00 Z5.000000
G00 X40.749966 Y10.894911

G00 Z4.000000 (Fast pre-penetrate)
G01 Z-1.000000 F100.0(Penetrate)
G03 X41.441439 Y11.408709 Z-1.000000 I-0.694086 J1.656301 F400.000000
G03 X41.844066 Y12.221771 Z-1.000000 I-1.536883 J1.267282
G03 X41.826015 Y12.394330 Z-1.000000 I-0.257592 J0.060278
G03 X41.736486 Y12.451241 Z-1.000000 I-0.089529 J-0.041965
G03 X41.228163 Y12.358419 Z-1.000000 I-0.000000 J-1.438283
G03 X39.651516 Y11.663531 Z-1.000000 I5.651880 J-14.959764
G03 X39.356431 Y11.410730 Z-1.000000 I0.370446 J-0.731031
G03 X39.352926 Y11.248001 Z-1.000000 I0.116784 J-0.083917
G03 X39.934006 Y10.833902 Z-1.000000 I0.821851 J0.538507
G03 X40.749966 Y10.894911 Z-1.000000 I0.316601 J1.252628
G01 X40.749966 Y10.894911 Z-1.000000
G00 Z5.000000

(End cutting path id: path66418)


(Start cutting path id: path66418)
(Change tool to Default tool)

G00 Z5.000000
G00 X37.861686 Y10.958931

G00 Z4.000000 (Fast pre-penetrate)
G01 Z-1.000000 F100.0(Penetrate)
G02 X38.920286 Y11.552818 Z-1.000000 I3.770265 J-5.480060 F400.000000
G02 X42.520436 Y13.038781 Z-1.000000 I27.915996 J-62.529936
G03 X46.210319 Y14.498306 Z-1.000000 I-51.571612 J135.774264
G03 X47.504706 Y15.089471 Z-1.000000 I-7.107092 J17.274002
G03 X49.922275 Y16.566804 Z-1.000000 I-7.777935 J15.444910
G03 X50.155106 Y17.024101 Z-1.000000 I-0.334470 J0.458215
G03 X50.040159 Y18.082198 Z-1.000000 I-4.850478 J0.008358
G03 X49.833576 Y18.474931 Z-1.000000 I-0.823745 J-0.182602
G01 X49.775772 Y18.483438 Z-1.000000
G03 X49.279276 Y18.151911 Z-1.000000 I2.456297 J-4.216105
G02 X45.986848 Y16.096160 Z-1.000000 I-12.810477 J16.852467
G02 X41.519126 Y14.245591 Z-1.000000 I-14.773661 J29.348829
G02 X39.212902 Y13.584390 Z-1.000000 I-9.449950 J28.608186
G02 X38.671026 Y13.550451 Z-1.000000 I-0.365895 J1.499150
G02 X38.388082 Y13.728653 Z-1.000000 I0.044048 J0.383663
G02 X36.976126 Y16.247871 Z-1.000000 I24.391662 J15.326186
G02 X34.993939 Y21.031267 Z-1.000000 I34.203565 J16.975976
G02 X34.284276 Y24.236861 Z-1.000000 I14.549414 J4.902341
G03 X34.151188 Y25.097305 Z-1.000000 I-10.133795 J-1.126912
G01 X34.105886 Y25.134491 Z-1.000000
G03 X34.033359 Y25.114566 Z-1.000000 I-0.000000 J-0.141959
G03 X33.368806 Y24.696411 Z-1.000000 I7.897230 J-13.287836
G01 X32.710306 Y24.258341 Z-1.000000
G01 X32.762306 Y23.715971 Z-1.000000
G03 X33.199706 Y21.733142 Z-1.000000 I8.339830 J0.800055
G03 X35.509766 Y15.914101 Z-1.000000 I75.133453 J26.458659
G02 X37.039379 Y12.229888 Z-1.000000 I-76.984053 J-34.121917
G02 X37.314276 Y11.259381 Z-1.000000 I-5.019811 J-1.946050
G03 X37.430641 Y10.714688 Z-1.000000 I9.701057 J1.787691
G01 X37.450666 Y10.698951 Z-1.000000
G03 X37.481025 Y10.707747 Z-1.000000 I0.000000 J0.056792
G03 X37.861656 Y10.958931 Z-1.000000 I-6.308878 J9.974107
G01 X37.861686 Y10.958931 Z-1.000000
G00 Z5.000000

(End cutting path id: path66418)


(Start cutting path id: path66418)
(Change tool to Default tool)

G00 Z5.000000
G00 X38.025926 Y9.264160

G00 Z4.000000 (Fast pre-penetrate)
G01 Z-1.000000 F100.0(Penetrate)
G03 X38.468127 Y9.624710 Z-1.000000 I-0.703125 J1.313803 F400.000000
G03 X38.849146 Y10.253291 Z-1.000000 I-1.900448 J1.581741
G03 X38.940679 Y10.559106 Z-1.000000 I-1.408394 J0.588151
G03 X38.974136 Y10.917711 Z-1.000000 I-1.905113 J0.358605
G03 X38.773966 Y11.064661 Z-1.000000 I-0.154025 J0.000000
G03 X37.639996 Y10.498771 Z-1.000000 I1.201929 J-3.827617
G02 X37.304878 Y10.288685 Z-1.000000 I-1.873437 J2.616080
G01 X37.264686 Y10.294491 Z-1.000000
G02 X37.240085 Y10.339049 Z-1.000000 I0.064904 J0.064904
G02 X37.059236 Y11.198081 Z-1.000000 I26.706934 J6.071077
G03 X36.865625 Y12.050417 Z-1.000000 I-13.429307 J-2.602349
G03 X36.812726 Y12.142731 Z-1.000000 I-0.196504 J-0.051290
G03 X36.610890 Y12.138453 Z-1.000000 I-0.098868 J-0.098876
G03 X36.119766 Y11.388451 Z-1.000000 I2.030518 J-1.865447
G03 X36.089678 Y9.904166 Z-1.000000 I1.759040 J-0.778105
G03 X37.011076 Y9.130600 Z-1.000000 I1.174693 J0.463659
G03 X37.550870 Y9.111390 Z-1.000000 I0.327110 J1.598074
G03 X38.025926 Y9.264160 Z-1.000000 I-0.181333 J1.378884
G01 X38.025926 Y9.264160 Z-1.000000
G00 Z5.000000

(End cutting path id: path66418)


(Start cutting path id: path66418)
(Change tool to Default tool)

G00 Z5.000000
G00 X36.607636 Y12.576571

G00 Z4.000000 (Fast pre-penetrate)
G01 Z-1.000000 F100.0(Penetrate)
G03 X36.609094 Y12.728868 Z-1.000000 I-0.203728 J0.078105 F400.000000
G03 X36.011706 Y14.224391 Z-1.000000 I-22.898531 J-8.279760
G03 X35.597859 Y15.089747 Z-1.000000 I-13.311300 J-5.834351
G03 X35.545746 Y15.121401 Z-1.000000 I-0.052113 J-0.027070
G03 X35.288256 Y14.940856 Z-1.000000 I0.000000 J-0.273886
G03 X35.107156 Y13.911481 Z-1.000000 I2.844049 J-1.030977
G03 X35.260484 Y13.157471 Z-1.000000 I1.925152 J-0.001114
G03 X35.614316 Y12.717891 Z-1.000000 I0.953136 J0.405013
G03 X36.349623 Y12.424864 Z-1.000000 I0.971840 J1.369601
G03 X36.607636 Y12.576571 Z-1.000000 I0.033821 J0.237737
G01 X36.607636 Y12.576571 Z-1.000000
G00 Z5.000000

(End cutting path id: path66418)


(Start cutting path id: path66418)
(Change tool to Default tool)

G00 Z5.000000
G00 X35.344836 Y15.455931

G00 Z4.000000 (Fast pre-penetrate)
G01 Z-1.000000 F100.0(Penetrate)
G03 X35.449663 Y16.997365 Z-1.000000 I-1.407773 J0.870018 F400.000000
G03 X34.257996 Y17.904541 Z-1.000000 I-1.421466 J-0.630963
G03 X34.195730 Y17.879144 Z-1.000000 I-0.010025 J-0.064449
G03 X33.988456 Y17.544461 Z-1.000000 I1.805716 J-1.349829
G03 X33.805928 Y16.272073 Z-1.000000 I1.799502 J-0.907430
G03 X34.364406 Y15.502701 Z-1.000000 I1.084222 J0.199642
G03 X35.063117 Y15.307542 Z-1.000000 I0.776225 J1.430705
G03 X35.344836 Y15.455901 Z-1.000000 I0.014936 J0.313295
G01 X35.344836 Y15.455931 Z-1.000000
G00 Z5.000000

(End cutting path id: path66418)


(Start cutting path id: path66418)
(Change tool to Default tool)

G00 Z5.000000
G00 X33.715096 Y19.474791

G00 Z4.000000 (Fast pre-penetrate)
G01 Z-1.000000 F100.0(Penetrate)
G03 X33.286966 Y20.649744 Z-1.000000 I-52.782490 J-18.567439 F400.000000
G03 X33.251036 Y20.705431 Z-1.000000 I-0.147080 J-0.055463
G03 X32.959200 Y20.653271 Z-1.000000 I-0.127747 J-0.127747
G03 X32.715956 Y19.543851 Z-1.000000 I2.408381 J-1.109420
G03 X33.050370 Y18.626622 Z-1.000000 I1.425091 J0.000000
G03 X33.768546 Y18.292211 Z-1.000000 I0.718176 J0.603966
G01 X34.131096 Y18.292211 Z-1.000000
G01 X33.715096 Y19.474791 Z-1.000000
G00 Z5.000000

(End cutting path id: path66418)


(Start cutting path id: path66418)
(Change tool to Default tool)

G00 Z5.000000
G00 X32.340466 Y20.375861

G00 Z4.000000 (Fast pre-penetrate)
G01 Z-1.000000 F100.0(Penetrate)
G03 X32.841560 Y20.619994 Z-1.000000 I-0.280875 J1.212831 F400.000000
G03 X32.966286 Y20.880971 Z-1.000000 I-0.210670 J0.260977
G01 X32.936337 Y20.924038 Z-1.000000
G03 X32.537226 Y21.040271 Z-1.000000 I-1.003939 J-2.703909
G03 X32.150868 Y20.976127 Z-1.000000 I-0.111891 J-0.521693
G03 X31.685596 Y20.529411 Z-1.000000 I0.744445 J-1.241026
G01 X31.531376 Y20.294551 Z-1.000000
G01 X31.769036 Y20.296551 Z-1.000000
G03 X32.004884 Y20.313787 Z-1.000000 I-0.013862 J1.811965
G03 X32.340466 Y20.375851 Z-1.000000 I-0.527048 J3.788015
G01 X32.340466 Y20.375861 Z-1.000000
G00 Z5.000000

(End cutting path id: path66418)


(Start cutting path id: path66418)
(Change tool to Default tool)

G00 Z5.000000
G00 X33.010826 Y21.300401

G00 Z4.000000 (Fast pre-penetrate)
G01 Z-1.000000 F100.0(Penetrate)
G03 X33.029192 Y21.394416 Z-1.000000 I-0.115528 J0.071369 F400.000000
G03 X32.790106 Y22.605151 Z-1.000000 I-22.193365 J-3.753583
G01 X32.514986 Y23.821901 Z-1.000000
G01 X32.291086 Y23.553711 Z-1.000000
G03 X31.838981 Y22.568862 Z-1.000000 I1.586602 J-1.324543
G03 X31.980176 Y21.687711 Z-1.000000 I1.382504 J-0.230356
G03 X32.583516 Y21.154572 Z-1.000000 I1.000884 J0.524714
G03 X33.010826 Y21.300401 Z-1.000000 I0.125013 J0.332655
G01 X33.010826 Y21.300401 Z-1.000000
G00 Z5.000000

(End cutting path id: path66418)


(Start cutting path id: path66418)
(Change tool to Default tool)

G00 Z5.000000
G00 X30.437016 Y20.116101

G00 Z4.000000 (Fast pre-penetrate)
G01 Z-1.000000 F100.0(Penetrate)
G03 X31.111878 Y20.189685 Z-1.000000 I-1.104537 J13.261500 F400.000000
G03 X31.154976 Y20.212901 Z-1.000000 I-0.009291 J0.068858
G03 X31.187920 Y20.254139 Z-1.000000 I-0.460965 J0.402029
G03 X31.570336 Y20.781401 Z-1.000000 I-77.455843 J56.580019
G01 X31.950986 Y21.310001 Z-1.000000
G01 X31.771626 Y21.613991 Z-1.000000
G02 X31.586269 Y22.355228 Z-1.000000 I1.158419 J0.683473
G02 X31.844026 Y23.298451 Z-1.000000 I2.200869 J-0.094606
G03 X32.087369 Y23.758264 Z-1.000000 I-59.457292 J31.760337
G03 X32.117456 Y23.819961 Z-1.000000 I-1.042500 J0.546574
G01 X32.066823 Y23.883695 Z-1.000000
G03 X31.445816 Y23.686461 Z-1.000000 I0.572112 J-2.877600
G03 X31.045981 Y23.440711 Z-1.000000 I0.723712 J-1.625620
G03 X30.729706 Y23.103361 Z-1.000000 I1.090581 J-1.339382
G02 X30.446583 Y22.721949 Z-1.000000 I-9.843092 J7.010764
G02 X29.415496 Y21.403741 Z-1.000000 I-118.755487 J91.826802
G03 X28.399936 Y20.083153 Z-1.000000 I47.297795 J-37.423778
G03 X28.376936 Y20.013951 Z-1.000000 I0.092606 J-0.069202
G01 X28.413407 Y19.976620 Z-1.000000
G03 X29.065336 Y19.997951 Z-1.000000 I0.135790 J5.822878
G02 X29.753822 Y20.058211 Z-1.000000 I20.825433 J-233.974034
G02 X30.436996 Y20.116071 Z-1.000000 I21.938714 J-254.974703
G01 X30.437016 Y20.116101 Z-1.000000
G00 Z5.000000

(End cutting path id: path66418)


(Start cutting path id: path66418)
(Change tool to Default tool)

G00 Z5.000000
G00 X28.063576 Y20.106801

G00 Z4.000000 (Fast pre-penetrate)
G01 Z-1.000000 F100.0(Penetrate)
G03 X30.527814 Y22.981669 Z-1.000000 I-26.236565 J24.982641 F400.000000
G03 X30.508486 Y23.280811 Z-1.000000 I-0.179897 J0.138572
G01 X30.468153 Y23.293515 Z-1.000000
G03 X29.738526 Y23.144531 Z-1.000000 I2.466229 J-13.939076
G02 X28.999671 Y22.990952 Z-1.000000 I-3.732625 J16.103212
G02 X28.308866 Y22.881191 Z-1.000000 I-2.580963 J14.015166
G03 X27.617840 Y22.777038 Z-1.000000 I2.811231 J-20.996212
G03 X27.505976 Y22.746531 Z-1.000000 I0.095866 J-0.571870
G03 X25.610603 Y21.426823 Z-1.000000 I1.730128 J-4.505747
G03 X25.039996 Y19.939911 Z-1.000000 I1.723001 J-1.514149
G01 X25.070193 Y19.907947 Z-1.000000
G03 X26.442166 Y19.877311 Z-1.000000 I1.371973 J30.705561
G01 X27.845076 Y19.877311 Z-1.000000
G01 X28.063576 Y20.106801 Z-1.000000
G00 Z5.000000

(End cutting path id: path66418)


(Start cutting path id: path66418)
(Change tool to Default tool)

G00 Z5.000000
G00 X25.154286 Y20.524011

G00 Z4.000000 (Fast pre-penetrate)
G01 Z-1.000000 F100.0(Penetrate)
G03 X26.955895 Y22.522569 Z-1.000000 I-32.209000 J30.846262 F400.000000
G03 X27.040666 Y22.747991 Z-1.000000 I-0.272483 J0.231119
G01 X27.004518 Y22.785135 Z-1.000000
G03 X25.609886 Y22.765191 Z-1.000000 I-0.318261 J-26.516665
G03 X24.211473 Y22.617229 Z-1.000000 I0.440663 J-10.847064
G03 X23.878456 Y22.467511 Z-1.000000 I0.123902 J-0.720819
G03 X21.525961 Y20.312696 Z-1.000000 I14.916362 J-18.646332
G03 X21.489636 Y19.966131 Z-1.000000 I0.206060 J-0.196785
G03 X21.567990 Y19.919474 Z-1.000000 I0.084006 J0.051955
G03 X23.039746 Y19.877331 Z-1.000000 I1.471756 J25.678213
G01 X24.534966 Y19.877331 Z-1.000000
G01 X25.154286 Y20.524011 Z-1.000000
G00 Z5.000000

(End cutting path id: path66418)


(Start cutting path id: path66418)
(Change tool to Default tool)

G00 Z5.000000
G00 X27.588556 Y23.066121

G00 Z4.000000 (Fast pre-penetrate)
G01 Z-1.000000 F100.0(Penetrate)
G03 X28.115319 Y24.839521 Z-1.000000 I-1.378133 J1.374289 F400.000000
G03 X27.033436 Y25.718221 Z-1.000000 I-1.081883 J-0.226675
G03 X26.982217 Y25.697141 Z-1.000000 I-0.000000 J-0.072765
G03 X25.707326 Y24.404011 Z-1.000000 I54.972513 J-55.472169
G03 X24.636773 Y23.147078 Z-1.000000 I9.723361 J-9.365933
G03 X24.677756 Y23.033551 Z-1.000000 I0.057685 J-0.043337
G03 X26.917937 Y22.783457 Z-1.000000 I2.136339 J8.977863
G03 X27.588556 Y23.066151 Z-1.000000 I-0.010831 J0.962477
G01 X27.588556 Y23.066121 Z-1.000000
G00 Z5.000000

(End cutting path id: path66418)


(Start cutting path id: path66418)
(Change tool to Default tool)

G00 Z5.000000
G00 X28.919326 Y23.219571

G00 Z4.000000 (Fast pre-penetrate)
G01 Z-1.000000 F100.0(Penetrate)
G03 X30.479629 Y23.549085 Z-1.000000 I-3.128611 J18.673392 F400.000000
G03 X30.700396 Y23.674861 Z-1.000000 I-0.118982 J0.465480
G03 X31.059408 Y24.898437 Z-1.000000 I-0.938024 J0.939684
G03 X29.954646 Y27.085341 Z-1.000000 I-4.794012 J-1.049299
G03 X29.876014 Y27.112124 Z-1.000000 I-0.062580 J-0.054908
G03 X28.903976 Y26.878951 Z-1.000000 I2.327803 J-11.846676
G03 X27.957113 Y26.531328 Z-1.000000 I1.839398 J-6.473552
G03 X27.595356 Y26.283751 Z-1.000000 I0.526266 J-1.157060
G03 X27.343400 Y25.949515 Z-1.000000 I0.969661 J-0.993039
G03 X27.324166 Y25.780881 Z-1.000000 I0.200865 J-0.108324
G02 X27.370680 Y25.591869 Z-1.000000 I-3.596576 J-0.985316
G02 X27.627326 Y24.393851 Z-1.000000 I-143.893676 J-31.452167
G03 X27.891974 Y23.199820 Z-1.000000 I53.175456 J11.159614
G03 X27.924486 Y23.121041 Z-1.000000 I0.257225 J0.060057
G03 X27.984499 Y23.081021 Z-1.000000 I0.073679 J0.045481
G03 X28.152596 Y23.084541 Z-1.000000 I0.074346 J0.465152
G02 X28.335678 Y23.119254 Z-1.000000 I1.428480 J-7.033863
G02 X28.919326 Y23.219531 Z-1.000000 I12.092662 J-68.635003
G01 X28.919326 Y23.219571 Z-1.000000
G00 Z5.000000

(End cutting path id: path66418)


(Start cutting path id: path66418)
(Change tool to Default tool)

G00 Z5.000000
G00 X32.232606 Y24.320591

G00 Z4.000000 (Fast pre-penetrate)
G01 Z-1.000000 F100.0(Penetrate)
G03 X33.027545 Y24.763202 Z-1.000000 I-7.035145 J13.570433 F400.000000
G03 X33.307626 Y24.961771 Z-1.000000 I-1.115461 J1.870169
G01 X33.572626 Y25.183001 Z-1.000000
G01 X33.273366 Y26.431051 Z-1.000000
G02 X32.984819 Y27.681230 Z-1.000000 I73.260088 J17.567138
G02 X32.917806 Y28.033731 Z-1.000000 I5.752756 J1.276264
G03 X32.841378 Y28.365201 Z-1.000000 I-2.436427 J-0.387230
G01 X32.809596 Y28.389101 Z-1.000000
G03 X32.760034 Y28.379103 Z-1.000000 I-0.001756 J-0.119142
G03 X31.526906 Y27.827251 Z-1.000000 I34.086584 J-77.820997
G03 X30.381959 Y27.209615 Z-1.000000 I4.102433 J-8.974952
G03 X30.296446 Y27.054671 Z-1.000000 I0.097110 J-0.154664
G03 X30.400439 Y26.129259 Z-1.000000 I4.226105 J0.006359
G03 X30.971786 Y24.066991 Z-1.000000 I21.767708 J4.920419
G03 X31.175369 Y23.948515 Z-1.000000 I0.168583 J0.055532
G03 X32.232606 Y24.320591 Z-1.000000 I-0.792450 J3.939792
G01 X32.232606 Y24.320591 Z-1.000000
G00 Z5.000000

(End cutting path id: path66418)


(Start cutting path id: path66418)
(Change tool to Default tool)

G00 Z5.000000
G00 X34.559816 Y25.914211

G00 Z4.000000 (Fast pre-penetrate)
G01 Z-1.000000 F100.0(Penetrate)
G03 X35.968561 Y27.235172 Z-1.000000 I-14.186369 J16.540790 F400.000000
G03 X36.053416 Y27.444641 Z-1.000000 I-0.213582 J0.208442
G03 X35.818763 Y29.748926 Z-1.000000 I-11.851980 J-0.042838
G03 X35.447566 Y30.440781 Z-1.000000 I-1.331905 J-0.269093
G01 X35.403132 Y30.443495 Z-1.000000
G03 X34.998396 Y30.089721 Z-1.000000 I3.014599 J-3.857259
G02 X33.550202 Y28.837476 Z-1.000000 I-11.097248 J11.370203
G02 X33.209386 Y28.722131 Z-1.000000 I-0.340816 J0.445840
G03 X33.136061 Y28.640465 Z-1.000000 I0.000000 J-0.073751
G03 X33.375996 Y27.178451 Z-1.000000 I13.362678 J1.442291
G03 X33.811551 Y25.432373 Z-1.000000 I32.976385 J7.298526
G03 X33.874636 Y25.384431 Z-1.000000 I0.063085 J0.017534
G03 X33.934524 Y25.404883 Z-1.000000 I0.000000 J0.097911
G03 X34.559816 Y25.914211 Z-1.000000 I-9.715569 J12.566096
G01 X34.559816 Y25.914211 Z-1.000000
G00 Z5.000000

(End cutting path id: path66418)


(Start cutting path id: path66418)
(Change tool to Default tool)

G00 Z5.000000
G00 X36.499586 Y27.873391

G00 Z4.000000 (Fast pre-penetrate)
G01 Z-1.000000 F100.0(Penetrate)
G03 X36.555246 Y28.044739 Z-1.000000 I-0.163256 J0.147746 F400.000000
G03 X36.393886 Y28.853841 Z-1.000000 I-4.591266 J-0.495000
G02 X36.163392 Y29.685143 Z-1.000000 I26.121453 J7.690272
G02 X36.010126 Y30.328231 Z-1.000000 I15.477263 J4.028472
G03 X35.823523 Y30.700221 Z-1.000000 I-0.816678 J-0.176877
G03 X35.719886 Y30.661411 Z-1.000000 I-0.044552 J-0.038810
G03 X35.985328 Y27.986390 Z-1.000000 I13.611647 J0.000000
G03 X36.309346 Y27.720871 Z-1.000000 I0.324018 J0.064944
G03 X36.354489 Y27.736727 Z-1.000000 I0.000000 J0.072192
G03 X36.499586 Y27.873391 Z-1.000000 I-0.780555 J0.974074
G01 X36.499586 Y27.873391 Z-1.000000
G00 Z5.000000

(End cutting path id: path66418)


(Start cutting path id: path66418)
(Change tool to Default tool)

G00 Z5.000000
G00 X38.306596 Y24.376721

G00 Z4.000000 (Fast pre-penetrate)
G01 Z-1.000000 F100.0(Penetrate)
G03 X37.985693 Y25.525383 Z-1.000000 I-2.216251 J0.000000 F400.000000
G03 X37.512286 Y25.687411 Z-1.000000 I-0.333635 J-0.202197
G03 X36.545560 Y25.162238 Z-1.000000 I1.503267 J-3.919527
G03 X36.389646 Y24.870671 Z-1.000000 I0.223314 J-0.306887
G01 X36.413216 Y24.832870 Z-1.000000
G03 X37.075826 Y24.562181 Z-1.000000 I4.219410 J9.382207
G03 X38.189779 Y24.276188 Z-1.000000 I1.957505 J5.312104
G03 X38.306596 Y24.376721 Z-1.000000 I0.015149 J0.100533
G01 X38.306596 Y24.376721 Z-1.000000
G00 Z5.000000

(End cutting path id: path66418)


(Start cutting path id: path66418)
(Change tool to Default tool)

G00 Z5.000000
G00 X38.045116 Y20.590131

G00 Z4.000000 (Fast pre-penetrate)
G01 Z-1.000000 F100.0(Penetrate)
G03 X38.647212 Y20.734039 Z-1.000000 I-1.259273 J6.600152 F400.000000
G03 X38.770426 Y20.799241 Z-1.000000 I-0.094390 J0.327395
G03 X38.853114 Y20.910237 Z-1.000000 I-0.187208 J0.225762
G03 X39.139936 Y21.668051 Z-1.000000 I-9.269096 J3.941405
G01 X39.398786 Y22.445031 Z-1.000000
G01 X38.918786 Y23.300971 Z-1.000000
G01 X38.438796 Y24.156921 Z-1.000000
G01 X38.073906 Y23.753881 Z-1.000000
G03 X36.231939 Y21.344348 Z-1.000000 I13.546236 J-12.264230
G03 X35.971386 Y20.470791 Z-1.000000 I1.390180 J-0.890279
G03 X36.024252 Y20.413048 Z-1.000000 I0.057331 J-0.000583
G03 X36.700326 Y20.413891 Z-1.000000 I0.332726 J4.258703
G03 X37.428003 Y20.490875 Z-1.000000 I-1.182106 J14.651179
G03 X38.045116 Y20.590091 Z-1.000000 I-1.394908 J10.645015
G01 X38.045116 Y20.590131 Z-1.000000
G00 Z5.000000

(End cutting path id: path66418)


(Start cutting path id: path66418)
(Change tool to Default tool)

G00 Z5.000000
G00 X41.186516 Y19.461991

G00 Z4.000000 (Fast pre-penetrate)
G01 Z-1.000000 F100.0(Penetrate)
G02 X41.515077 Y19.733220 Z-1.000000 I0.563950 J-0.348536 F400.000000
G02 X44.928096 Y20.883061 Z-1.000000 I16.820460 J-44.287127
G03 X48.303527 Y21.980258 Z-1.000000 I-18.365172 J62.239566
G03 X49.988536 Y22.682411 Z-1.000000 I-5.751308 J16.174740
G03 X51.979915 Y23.767200 Z-1.000000 I-9.678020 J20.136440
G03 X52.567656 Y24.262161 Z-1.000000 I-1.339802 J2.187383
G03 X52.675756 Y24.693916 Z-1.000000 I-0.365507 J0.320924
G03 X52.404256 Y24.960411 Z-1.000000 I-0.346023 J-0.080974
G03 X51.751567 Y24.962765 Z-1.000000 I-0.331931 J-1.547781
G03 X51.040736 Y24.678271 Z-1.000000 I0.441395 J-2.133140
G02 X48.825400 Y23.551417 Z-1.000000 I-7.582789 J12.166318
G02 X44.981986 Y22.231921 Z-1.000000 I-14.346155 J35.530061
G02 X41.983724 Y21.491243 Z-1.000000 I-11.935766 J41.877119
G02 X41.769166 Y21.558151 Z-1.000000 I-0.047331 J0.225693
G02 X41.021740 Y22.570240 Z-1.000000 I3.705305 J3.518394
G02 X38.840436 Y26.761331 Z-1.000000 I62.800335 J35.348377
G02 X38.049275 Y28.652309 Z-1.000000 I18.185169 J8.719434
G02 X37.553946 Y30.336491 Z-1.000000 I13.918685 J5.008510
G03 X37.273323 Y31.098049 Z-1.000000 I-3.137305 J-0.723570
G03 X36.980246 Y31.440031 Z-1.000000 I-0.879736 J-0.457356
G03 X36.491918 Y31.625690 Z-1.000000 I-0.579823 J-0.790033
G03 X36.248726 Y31.508631 Z-1.000000 I-0.024420 J-0.260413
G03 X36.171965 Y31.277424 Z-1.000000 I0.397134 J-0.260195
G03 X36.201526 Y30.736791 Z-1.000000 I2.340362 J-0.143157
G03 X36.980683 Y28.032020 Z-1.000000 I12.610401 J2.168039
G03 X39.358376 Y23.071941 Z-1.000000 I45.179870 J18.607757
G02 X40.560023 Y20.721279 Z-1.000000 I-37.604721 J-20.705822
G02 X40.811666 Y19.999391 Z-1.000000 I-3.253954 J-1.539099
G03 X40.910960 Y19.586047 Z-1.000000 I30.920732 J7.209181
G03 X40.939876 Y19.481001 Z-1.000000 I2.020675 J0.499738
G03 X41.050004 Y19.392611 Z-1.000000 I0.119735 J0.036381
G03 X41.186556 Y19.462001 Z-1.000000 I0.011304 J0.146809
G01 X41.186516 Y19.461991 Z-1.000000
G00 Z5.000000

(End cutting path id: path66418)


(Start cutting path id: path66418)
(Change tool to Default tool)

G00 Z5.000000
G00 X40.006606 Y17.316681

G00 Z4.000000 (Fast pre-penetrate)
G01 Z-1.000000 F100.0(Penetrate)
G03 X40.442936 Y19.375666 Z-1.000000 I-5.557156 J2.253370 F400.000000
G03 X40.123926 Y20.933921 Z-1.000000 I-3.422996 J0.111017
G03 X39.587736 Y22.020269 Z-1.000000 I-24.730774 J-11.530903
G03 X39.543366 Y22.047171 Z-1.000000 I-0.044370 J-0.023138
G03 X39.446420 Y21.974793 Z-1.000000 I0.000000 J-0.101116
G03 X39.011526 Y20.253161 Z-1.000000 I20.895376 J-6.194034
G03 X38.832383 Y18.625883 Z-1.000000 I8.269545 J-1.733871
G03 X38.968326 Y16.832021 Z-1.000000 I10.204716 J-0.128748
G03 X39.226614 Y15.691976 Z-1.000000 I9.800772 J1.621178
G01 X39.303396 Y15.674071 Z-1.000000
G03 X39.356176 Y15.756124 Z-1.000000 I-0.216892 J0.197517
G03 X40.006586 Y17.316681 Z-1.000000 I-80.456661 J34.448583
G01 X40.006606 Y17.316681 Z-1.000000
G00 Z5.000000

(End cutting path id: path66418)


(Start cutting path id: path66418)
(Change tool to Default tool)

G00 Z5.000000
G00 X40.559236 Y16.127091

G00 Z4.000000 (Fast pre-penetrate)
G01 Z-1.000000 F100.0(Penetrate)
G03 X41.859340 Y17.221160 Z-1.000000 I-4.855940 J7.089916 F400.000000
G03 X43.001486 Y18.634601 Z-1.000000 I-7.040764 J6.857544
G03 X43.826836 Y20.072015 Z-1.000000 I-10.489746 J6.978780
G03 X43.796026 Y20.257011 Z-1.000000 I-0.144853 J0.070939
G03 X43.562942 Y20.307959 Z-1.000000 I-0.156267 J-0.156267
G03 X41.699476 Y19.479781 Z-1.000000 I5.610706 J-15.135096
G03 X41.156990 Y19.150630 Z-1.000000 I2.298427 J-4.399747
G03 X41.007926 Y18.997141 Z-1.000000 I0.323011 J-0.462826
G03 X40.405737 Y17.873183 Z-1.000000 I6.057016 J-3.968497
G03 X39.594416 Y15.688101 Z-1.000000 I22.255460 J-9.506618
G03 X39.667084 Y15.623640 Z-1.000000 I0.050657 J-0.016084
G03 X40.559236 Y16.127091 Z-1.000000 I-2.447230 J5.378874
G01 X40.559236 Y16.127091 Z-1.000000
G00 Z5.000000

(End cutting path id: path66418)


(Start cutting path id: path66418)
(Change tool to Default tool)

G00 Z5.000000
G00 X40.619626 Y14.247721

G00 Z4.000000 (Fast pre-penetrate)
G01 Z-1.000000 F100.0(Penetrate)
G03 X44.802514 Y15.763536 Z-1.000000 I-11.329042 J37.791704 F400.000000
G03 X47.360096 Y17.130021 Z-1.000000 I-6.589202 J15.409377
G03 X49.054994 Y18.289765 Z-1.000000 I-24.634919 J37.820871
G03 X49.693826 Y18.806111 Z-1.000000 I-4.210756 J5.862975
G03 X50.417987 Y20.433073 Z-1.000000 I-1.480438 J1.633587
G03 X49.704126 Y22.192021 Z-1.000000 I-2.505395 J0.007529
G03 X49.279349 Y22.279850 Z-1.000000 I-0.277720 J-0.272052
G03 X48.125026 Y21.546611 Z-1.000000 I1.460858 J-3.575029
G03 X48.094913 Y21.469559 Z-1.000000 I0.063955 J-0.069405
G03 X48.187626 Y20.777971 Z-1.000000 I6.671026 J0.542302
G02 X48.275503 Y19.733359 Z-1.000000 I-5.094006 J-0.954533
G02 X48.167626 Y19.627341 Z-1.000000 I-0.107877 J0.001875
G02 X48.022167 Y19.655778 Z-1.000000 I0.000000 J0.386245
G02 X47.244056 Y20.002831 Z-1.000000 I4.801611 J11.811258
G03 X46.468957 Y20.362666 Z-1.000000 I-10.201236 J-20.959163
G03 X46.394836 Y20.378321 Z-1.000000 I-0.074121 J-0.167640
G01 X46.350271 Y20.345098 Z-1.000000
G03 X46.317136 Y20.117841 Z-1.000000 I0.762757 J-0.227257
G02 X46.038908 Y17.706909 Z-1.000000 I-10.584850 J-0.000000
G02 X45.402136 Y16.206201 Z-1.000000 I-4.650626 J1.087877
G02 X45.134215 Y16.179039 Z-1.000000 I-0.144805 J0.093385
G02 X43.813856 Y17.828321 Z-1.000000 I7.578102 J7.419930
G03 X43.344347 Y18.518026 Z-1.000000 I-15.646865 J-10.146764
G03 X43.306216 Y18.539301 Z-1.000000 I-0.041554 J-0.029669
G01 X43.267305 Y18.522410 Z-1.000000
G03 X42.952486 Y18.099721 Z-1.000000 I5.547819 J-4.460609
G02 X42.273355 Y17.268146 Z-1.000000 I-5.416692 J3.730602
G02 X41.185426 Y16.264731 Z-1.000000 I-9.002236 J8.668974
G02 X39.645338 Y15.152499 Z-1.000000 I-9.980451 J12.197367
G02 X39.251026 Y15.038011 Z-1.000000 I-0.394312 J0.621790
G02 X39.117795 Y15.136841 Z-1.000000 I0.000000 J0.139219
G02 X38.772006 Y16.618191 Z-1.000000 I11.203262 J3.396189
G02 X38.608402 Y18.170943 Z-1.000000 I12.987218 J2.153377
G02 X38.644056 Y19.419541 Z-1.000000 I8.417515 J0.384446
G03 X38.719160 Y20.377608 Z-1.000000 I-19.535113 J2.013361
G03 X38.698556 Y20.431461 Z-1.000000 I-0.070732 J0.003806
G03 X38.645196 Y20.449628 Z-1.000000 I-0.045142 J-0.045142
G03 X38.000226 Y20.340961 Z-1.000000 I1.112727 J-8.572712
G02 X36.122350 Y20.085746 Z-1.000000 I-2.766760 J13.321544
G02 X35.736746 Y20.192771 Z-1.000000 I-0.039634 J0.605366
G02 X35.693536 Y20.287751 Z-1.000000 I0.058208 J0.083800
G02 X35.790346 Y20.678961 Z-1.000000 I1.512642 J-0.166740
G02 X36.398835 Y21.915195 Z-1.000000 I7.831279 J-3.086776
G02 X37.339896 Y23.267931 Z-1.000000 I10.331562 J-6.183682
G01 X37.951346 Y24.029791 Z-1.000000
G01 X37.607486 Y24.131551 Z-1.000000
G02 X36.071526 Y24.691684 Z-1.000000 I3.745374 J12.656294
G02 X35.970276 Y24.846371 Z-1.000000 I0.067538 J0.154687
G02 X36.014277 Y24.939848 Z-1.000000 I0.121293 J0.000000
G02 X36.727696 Y25.472601 Z-1.000000 I5.736168 J-6.937354
G03 X37.423690 Y25.999702 Z-1.000000 I-4.335309 J6.447474
G03 X37.442086 Y26.079721 Z-1.000000 I-0.044491 J0.052353
G02 X37.400178 Y26.178037 Z-1.000000 I4.073208 J1.794331
G02 X37.087026 Y26.941061 Z-1.000000 I257.124293 J105.971897
G03 X36.750426 Y27.641837 Z-1.000000 I-6.018596 J-2.459654
G03 X36.685546 Y27.662861 Z-1.000000 I-0.043728 J-0.024322
G03 X36.607374 Y27.606166 Z-1.000000 I0.108168 J-0.231385
G03 X36.024736 Y26.957891 Z-1.000000 I15.128430 J-14.182646
G02 X35.430380 Y26.318419 Z-1.000000 I-8.761297 J7.547219
G02 X34.966626 Y25.902321 Z-1.000000 I-4.160819 J4.170882
G01 X34.479866 Y25.510001 Z-1.000000
G01 X34.474866 Y25.009341 Z-1.000000
G03 X34.688955 Y23.084630 Z-1.000000 I7.970241 J-0.087719
G03 X35.816606 Y19.343031 Z-1.000000 I31.620074 J7.489000
G03 X36.353435 Y18.060268 Z-1.000000 I15.019833 J5.532005
G03 X37.395336 Y15.987861 Z-1.000000 I40.297050 J18.961195
G03 X38.646723 Y13.748088 Z-1.000000 I64.183170 J34.390401
G03 X38.725326 Y13.702891 Z-1.000000 I0.078603 J0.045752
G03 X38.801211 Y13.713584 Z-1.000000 I-0.000000 J0.274605
G03 X40.620126 Y14.247691 Z-1.000000 I-46.555055 J161.908754
G01 X40.619626 Y14.247721 Z-1.000000
G00 Z5.000000

(End cutting path id: path66418)


(Start cutting path id: path66418)
(Change tool to Default tool)

G00 Z5.000000
G00 X45.512506 Y17.186651

G00 Z4.000000 (Fast pre-penetrate)
G01 Z-1.000000 F100.0(Penetrate)
G03 X45.943721 Y18.962514 Z-1.000000 I-12.945297 J4.083661 F400.000000
G03 X46.066746 Y20.399211 Z-1.000000 I-8.327417 J1.436697
G01 X46.066746 Y20.899831 Z-1.000000
G01 X45.795556 Y20.845931 Z-1.000000
G03 X45.526766 Y20.782499 Z-1.000000 I0.749845 J-3.778612
G03 X44.848036 Y20.586181 Z-1.000000 I6.695151 J-24.418646
G01 X44.171706 Y20.380281 Z-1.000000
G01 X43.867586 Y19.714981 Z-1.000000
G03 X43.600614 Y19.041621 Z-1.000000 I6.427316 J-2.937891
G03 X43.563826 Y18.816971 Z-1.000000 I0.660876 J-0.223560
G03 X44.129039 Y17.102602 Z-1.000000 I2.895069 J0.004122
G03 X45.243236 Y16.539931 Z-1.000000 I1.114197 J0.821827
G01 X45.287075 Y16.569166 Z-1.000000
G03 X45.512506 Y17.186611 Z-1.000000 I-6.826654 J2.842301
G01 X45.512506 Y17.186651 Z-1.000000
G00 Z5.000000

(End cutting path id: path66418)


(Start cutting path id: path66418)
(Change tool to Default tool)

G00 Z5.000000
G00 X48.069356 Y20.035301

G00 Z4.000000 (Fast pre-penetrate)
G01 Z-1.000000 F100.0(Penetrate)
G03 X47.966219 Y21.069456 Z-1.000000 I-5.236319 J-0.000000 F400.000000
G03 X47.786816 Y21.437051 Z-1.000000 I-0.794105 J-0.159984
G03 X47.299422 Y21.582223 Z-1.000000 I-0.356128 J-0.304887
G03 X46.343206 Y21.016041 Z-1.000000 I0.626864 J-2.149261
G03 X46.351150 Y20.862349 Z-1.000000 I0.073259 J-0.073264
G03 X47.169056 Y20.345381 Z-1.000000 I2.581753 J3.179147
G03 X48.017333 Y19.998197 Z-1.000000 I3.477573 J7.286881
G01 X48.069356 Y20.035301 Z-1.000000
G01 X48.069356 Y20.035301 Z-1.000000
G00 Z5.000000

(End cutting path id: path66418)


(Start cutting path id: path66418)
(Change tool to Default tool)

G00 Z5.000000
G00 X51.845126 Y19.480791

G00 Z4.000000 (Fast pre-penetrate)
G01 Z-1.000000 F100.0(Penetrate)
G03 X52.987388 Y20.231305 Z-1.000000 I-100.585723 J154.333185 F400.000000
G01 X52.992456 Y20.240741 Z-1.000000
G03 X52.991178 Y20.253325 Z-1.000000 I-0.062588 J0.000000
G03 X52.870546 Y20.835611 Z-1.000000 I-158.006969 J-32.430580
G02 X52.774072 Y21.421743 Z-1.000000 I6.769316 J1.415203
G02 X52.691786 Y22.316691 Z-1.000000 I15.663492 J1.891428
G03 X52.602776 Y23.180843 Z-1.000000 I-11.010983 J-0.697504
G01 X52.563306 Y23.215071 Z-1.000000
G03 X51.258759 Y22.799425 Z-1.000000 I-0.000000 J-2.255047
G03 X50.059366 Y21.439221 Z-1.000000 I2.288639 J-3.226962
G03 X49.842166 Y20.530184 Z-1.000000 I1.621992 J-0.868016
G03 X50.121766 Y18.649141 Z-1.000000 I7.609055 J0.169715
G03 X50.217218 Y18.563858 Z-1.000000 I0.114386 J0.031967
G03 X50.435686 Y18.598441 Z-1.000000 I0.056543 J0.350149
G03 X50.691523 Y18.743826 Z-1.000000 I-1.579587 J3.077420
G03 X51.845146 Y19.480751 Z-1.000000 I-39.714272 J63.442369
G01 X51.845126 Y19.480791 Z-1.000000
G00 Z5.000000

(End cutting path id: path66418)


(Start cutting path id: path66418)
(Change tool to Default tool)

G00 Z5.000000
G00 X51.464806 Y22.814731

G00 Z4.000000 (Fast pre-penetrate)
G01 Z-1.000000 F100.0(Penetrate)
G03 X52.633279 Y23.721527 Z-1.000000 I-6.656505 J9.783621 F400.000000
G03 X52.637266 Y23.848281 Z-1.000000 I-0.057518 J0.065249
G01 X52.591898 Y23.855313 Z-1.000000
G03 X52.188886 Y23.616081 Z-1.000000 I1.863146 J-3.597744
G02 X51.775212 Y23.353790 Z-1.000000 I-4.792980 J7.101924
G02 X50.948126 Y22.878231 Z-1.000000 I-16.616821 J27.942744
G03 X50.188754 Y22.364414 Z-1.000000 I2.540979 J-4.573368
G03 X50.086186 Y22.177481 Z-1.000000 I0.178477 J-0.219533
G03 X50.197242 Y22.097082 Z-1.000000 I0.078071 J-0.009060
G03 X51.464806 Y22.814731 Z-1.000000 I-3.728173 J8.063232
G01 X51.464806 Y22.814731 Z-1.000000
G00 Z5.000000

(End cutting path id: path66418)


(Start cutting path id: path66418)
(Change tool to Default tool)

G00 Z5.000000
G00 X53.088456 Y26.004741

G00 Z4.000000 (Fast pre-penetrate)
G01 Z-1.000000 F100.0(Penetrate)
G02 X53.690394 Y27.413021 Z-1.000000 I8.149493 J-2.650537 F400.000000
G02 X54.546996 Y28.716961 Z-1.000000 I7.832118 J-4.211847
G01 X55.062566 Y29.368961 Z-1.000000
G01 X54.590746 Y29.824011 Z-1.000000
G03 X54.106198 Y30.264473 Z-1.000000 I-7.695584 J-7.979079
G03 X53.367956 Y30.871281 Z-1.000000 I-15.354079 J-17.927287
G02 X52.635454 Y31.484151 Z-1.000000 I10.210554 J12.947830
G02 X52.035116 Y32.053715 Z-1.000000 I8.216679 J9.261802
G03 X51.446499 Y32.627802 Z-1.000000 I-14.931359 J-14.720462
G03 X51.405736 Y32.643925 Z-1.000000 I-0.040763 J-0.043468
G01 X51.374601 Y32.622663 Z-1.000000
G03 X51.255086 Y32.258300 Z-1.000000 I3.218946 J-1.257635
G02 X50.580575 Y30.879677 Z-1.000000 I-3.851671 J1.030168
G02 X49.470246 Y29.904121 Z-1.000000 I-2.946487 J2.233904
G02 X49.012585 Y29.689936 Z-1.000000 I-1.533004 J2.679611
G02 X47.860756 Y29.306021 Z-1.000000 I-6.209552 J16.710178
G03 X45.498635 Y28.538604 Z-1.000000 I13.315773 J-45.005175
G03 X45.275266 Y28.389721 Z-1.000000 I0.183146 J-0.516775
G03 X45.219084 Y28.218045 Z-1.000000 I0.164502 J-0.148865
G03 X45.338166 Y27.781191 Z-1.000000 I1.386670 J0.143333
G03 X46.817382 Y26.402311 Z-1.000000 I2.411347 J1.103945
G03 X48.759096 Y26.496861 Z-1.000000 I0.861430 J2.294505
G03 X49.475714 Y27.054019 Z-1.000000 I-0.985519 J2.007012
G03 X49.948656 Y27.893401 Z-1.000000 I-1.917603 J1.633385
G02 X50.151170 Y27.996546 Z-1.000000 I0.153490 J-0.050983
G02 X50.307166 Y27.779371 Z-1.000000 I-0.067864 J-0.213359
G03 X50.417849 Y26.955089 Z-1.000000 I2.771854 J-0.047374
G03 X50.757396 Y26.237021 Z-1.000000 I2.428219 J0.708900
G03 X51.625194 Y25.448183 Z-1.000000 I2.091170 J1.428739
G03 X52.564556 Y25.240081 Z-1.000000 I0.823377 J1.492517
G03 X52.769580 Y25.357240 Z-1.000000 I-0.018448 J0.270255
G03 X53.088406 Y26.004741 Z-1.000000 I-2.087580 J1.430159
G01 X53.088456 Y26.004741 Z-1.000000
G00 Z5.000000

(End cutting path id: path66418)


(Start cutting path id: path66418)
(Change tool to Default tool)

G00 Z5.000000
G00 X55.204706 Y28.957961

G00 Z4.000000 (Fast pre-penetrate)
G01 Z-1.000000 F100.0(Penetrate)
G03 X54.891767 Y28.927369 Z-1.000000 I-0.143898 J-0.143898 F400.000000
G03 X53.683746 Y26.688841 Z-1.000000 I11.063216 J-7.415481
G03 X52.987360 Y23.871813 Z-1.000000 I8.556755 J-3.609871
G03 X53.168056 Y20.670371 Z-1.000000 I11.298575 J-0.968104
G03 X53.869444 Y18.249435 Z-1.000000 I14.769116 J2.966804
G03 X54.887486 Y16.180811 Z-1.000000 I11.771234 J4.508216
G01 X55.203686 Y15.663821 Z-1.000000
G01 X55.225086 Y22.290041 Z-1.000000
G03 X55.226018 Y28.907384 Z-1.000000 I-1068.361491 J3.459179
G03 X55.204686 Y28.957961 Z-1.000000 I-0.071121 J-0.000210
G01 X55.204706 Y28.957961 Z-1.000000
G00 Z5.000000

(End cutting path id: path66418)


(Start cutting path id: path66418)
(Change tool to Default tool)

G00 Z5.000000
G00 X57.498346 Y31.344253

G00 Z4.000000 (Fast pre-penetrate)
G01 Z-1.000000 F100.0(Penetrate)
G03 X58.878622 Y33.039204 Z-1.000000 I-3.527433 J4.282036 F400.000000
G03 X59.228766 Y34.626859 Z-1.000000 I-2.715013 J1.431212
G01 X59.184366 Y35.497445 Z-1.000000
G01 X59.446986 Y35.449065 Z-1.000000
G03 X60.471473 Y35.353342 Z-1.000000 I1.048456 J5.690998
G03 X60.874066 Y35.443165 Z-1.000000 I0.003852 J0.929870
G03 X61.498293 Y35.929998 Z-1.000000 I-0.779978 J1.643718
G03 X61.670506 Y36.409860 Z-1.000000 I-0.582448 J0.479862
G03 X61.596581 Y36.513322 Z-1.000000 I-0.109362 J0.000000
G03 X60.710916 Y36.738550 Z-1.000000 I-1.830585 J-5.344441
G02 X57.839849 Y37.745514 Z-1.000000 I1.510334 J8.902775
G02 X56.034266 Y39.333629 Z-1.000000 I2.736789 J4.932022
G02 X55.682513 Y39.844951 Z-1.000000 I7.807325 J5.747532
G02 X55.662646 Y39.912691 Z-1.000000 I0.105552 J0.067740
G03 X55.639665 Y39.963942 Z-1.000000 I-0.068638 J-0.000000
G03 X55.579246 Y39.986951 Z-1.000000 I-0.060419 J-0.067821
G01 X55.537224 Y39.945593 Z-1.000000
G03 X55.495846 Y34.753177 Z-1.000000 I325.771049 J-5.192416
G01 X55.495846 Y29.519403 Z-1.000000
G01 X56.059086 Y30.070973 Z-1.000000
G02 X56.635675 Y30.607691 Z-1.000000 I10.874717 J-11.104493
G02 X57.498466 Y31.344293 Z-1.000000 I21.363378 J-24.149590
G01 X57.498346 Y31.344253 Z-1.000000
G00 Z5.000000

(End cutting path id: path66418)


(Start cutting path id: path66418)
(Change tool to Default tool)

G00 Z5.000000
G00 X55.245406 Y34.730038

G00 Z4.000000 (Fast pre-penetrate)
G01 Z-1.000000 F100.0(Penetrate)
G03 X55.214262 Y39.871242 Z-1.000000 I-424.364422 J0.000000 F400.000000
G01 X55.182806 Y39.901223 Z-1.000000
G03 X55.133418 Y39.876381 Z-1.000000 I0.002306 J-0.066099
G03 X54.912966 Y39.563125 Z-1.000000 I2.482433 J-1.981195
G02 X54.176954 Y38.647648 Z-1.000000 I-4.032889 J2.488702
G02 X53.143686 Y37.849629 Z-1.000000 I-4.072320 J4.204859
G02 X51.094540 Y36.916426 Z-1.000000 I-4.941956 J8.135264
G02 X49.380936 Y36.649321 Z-1.000000 I-1.716232 J5.380094
G03 X49.177927 Y36.606948 Z-1.000000 I0.000239 J-0.508644
G03 X49.102276 Y36.527844 Z-1.000000 I0.056607 J-0.129863
G03 X49.151167 Y36.112266 Z-1.000000 I0.420005 J-0.161254
G03 X49.803466 Y35.504523 Z-1.000000 I1.685328 J1.154955
G03 X50.277276 Y35.365855 Z-1.000000 I0.513774 J0.876691
G03 X51.297396 Y35.445723 Z-1.000000 I0.171683 J4.361902
G01 X51.563236 Y35.498393 Z-1.000000
G01 X51.517736 Y34.592700 Z-1.000000
G03 X51.538061 Y33.697380 Z-1.000000 I6.132062 J-0.308683
G03 X51.649396 Y33.220161 Z-1.000000 I1.832274 J0.175871
G03 X52.131847 Y32.435137 Z-1.000000 I2.301221 J0.873496
G03 X53.697216 Y30.974483 Z-1.000000 I9.819353 J8.954186
G02 X54.594178 Y30.217870 Z-1.000000 I-11.930503 J-15.053555
G02 X54.894736 Y29.900033 Z-1.000000 I-1.782046 J-1.986192
G03 X55.176476 Y29.570380 Z-1.000000 I5.325746 J4.266461
G01 X55.207646 Y29.556613 Z-1.000000
G01 X55.226624 Y29.575453 Z-1.000000
G03 X55.245446 Y34.730038 Z-1.000000 I-705.808702 J5.154585
G01 X55.245406 Y34.730038 Z-1.000000
G00 Z5.000000

(End cutting path id: path66418)


(Start cutting path id: path66418)
(Change tool to Default tool)

G00 Z5.000000
G00 X51.810016 Y37.590501

G00 Z4.000000 (Fast pre-penetrate)
G01 Z-1.000000 F100.0(Penetrate)
G03 X53.281660 Y38.299324 Z-1.000000 I-3.226043 J8.579950 F400.000000
G03 X54.207196 Y39.021197 Z-1.000000 I-2.425690 J4.064322
G03 X55.002478 Y40.044416 Z-1.000000 I-3.728185 J3.718347
G03 X55.161966 Y40.623692 Z-1.000000 I-0.972249 J0.579276
G03 X55.109836 Y40.788944 Z-1.000000 I-0.287989 J0.000000
G03 X54.720356 Y41.253986 Z-1.000000 I-2.890354 J-2.025099
G02 X54.303775 Y41.718388 Z-1.000000 I4.247484 J4.229149
G02 X53.756186 Y42.448483 Z-1.000000 I9.979532 J8.055293
G03 X53.225789 Y43.173046 Z-1.000000 I-15.367820 J-10.693181
G01 X53.191456 Y43.182356 Z-1.000000
G03 X53.156459 Y43.155957 Z-1.000000 I0.031862 J-0.078638
G03 X52.539466 Y42.347932 Z-1.000000 I36.017798 J-28.142069
G02 X51.916227 Y41.541618 Z-1.000000 I-24.008960 J17.913667
G02 X51.527256 Y41.083429 Z-1.000000 I-8.137334 J6.513836
G02 X49.411823 Y38.993073 Z-1.000000 I-18.858911 J16.969570
G02 X48.949216 Y38.818738 Z-1.000000 I-0.462607 J0.526608
G02 X48.855884 Y38.896776 Z-1.000000 I0.000000 J0.094830
G02 X48.653856 Y40.460451 Z-1.000000 I15.674579 J2.820061
G02 X48.622217 Y42.281252 Z-1.000000 I14.742271 J1.166841
G02 X48.824586 Y44.316763 Z-1.000000 I18.635163 J-0.824877
G03 X48.896017 Y44.915533 Z-1.000000 I-8.490542 J1.316533
G03 X48.878586 Y44.963010 Z-1.000000 I-0.059733 J0.005007
G03 X48.830993 Y44.980052 Z-1.000000 I-0.041813 J-0.041794
G03 X47.963436 Y44.873090 Z-1.000000 I1.727595 J-17.584202
G02 X47.086256 Y44.771151 Z-1.000000 I-2.044923 J13.771399
G02 X46.419686 Y44.743147 Z-1.000000 I-0.666570 J7.919169
G01 X45.751056 Y44.743147 Z-1.000000
G01 X45.624116 Y44.425885 Z-1.000000
G03 X45.405245 Y43.637899 Z-1.000000 I3.468082 J-1.387686
G03 X45.315726 Y42.529946 Z-1.000000 I6.811690 J-1.107953
G03 X45.602001 Y40.990011 Z-1.000000 I4.284954 J0.000000
G03 X46.935076 Y38.325064 Z-1.000000 I14.471586 J5.573165
G02 X47.546689 Y37.321334 Z-1.000000 I-38.892706 J-24.387079
G02 X47.767796 Y36.918261 Z-1.000000 I-6.045953 J-3.578713
G01 X47.975806 Y36.507776 Z-1.000000
G01 X49.531136 Y36.913117 Z-1.000000
G03 X51.078199 Y37.344507 Z-1.000000 I-11.918630 J45.732686
G03 X51.809976 Y37.590499 Z-1.000000 I-3.111035 J10.466146
G01 X51.810016 Y37.590501 Z-1.000000
G00 Z5.000000

(End cutting path id: path66418)


(Start cutting path id: path66418)
(Change tool to Default tool)

G00 Z5.000000
G00 X49.715206 Y39.723812

G00 Z4.000000 (Fast pre-penetrate)
G01 Z-1.000000 F100.0(Penetrate)
G03 X51.003666 Y40.955634 Z-1.000000 I-11.348713 J13.160278 F400.000000
G03 X52.277076 Y42.437879 Z-1.000000 I-15.188483 J14.336684
G03 X53.637036 Y44.352394 Z-1.000000 I-20.425995 J15.949715
G03 X53.743446 Y44.714049 Z-1.000000 I-0.561374 J0.361655
G03 X53.712990 Y44.815322 Z-1.000000 I-0.183609 J-0.000000
G03 X53.330626 Y45.338360 Z-1.000000 I-5.749624 J-3.801957
G02 X52.948867 Y45.870507 Z-1.000000 I4.557966 J3.672870
G02 X52.614136 Y46.465252 Z-1.000000 I5.364270 J3.410653
G03 X52.285998 Y47.039903 Z-1.000000 I-4.953546 J-2.447567
G03 X52.213386 Y47.078592 Z-1.000000 I-0.071509 J-0.046723
G03 X52.118244 Y47.065152 Z-1.000000 I0.004706 J-0.376790
G03 X51.448776 Y46.868525 Z-1.000000 I5.285308 J-19.233222
G02 X50.774428 Y46.694203 Z-1.000000 I-2.071975 J6.623759
G02 X50.178696 Y46.607411 Z-1.000000 I-1.044027 J5.078164
G01 X49.576166 Y46.555111 Z-1.000000
G01 X49.453776 Y46.129079 Z-1.000000
G03 X49.068286 Y44.191329 Z-1.000000 I11.403830 J-3.275863
G03 X48.903786 Y41.283402 Z-1.000000 I25.620025 J-2.907927
G03 X48.988060 Y39.320505 Z-1.000000 I22.901892 J0.000000
G03 X49.079866 Y39.236258 Z-1.000000 I0.091806 J0.007898
G03 X49.142021 Y39.257359 Z-1.000000 I0.000000 J0.102091
G03 X49.715206 Y39.723812 Z-1.000000 I-7.887600 J10.277815
G01 X49.715206 Y39.723812 Z-1.000000
G00 Z5.000000

(End cutting path id: path66418)


(Start cutting path id: path66418)
(Change tool to Default tool)

G00 Z5.000000
G00 X47.564056 Y45.079728

G00 Z4.000000 (Fast pre-penetrate)
G01 Z-1.000000 F100.0(Penetrate)
G03 X48.769840 Y45.529192 Z-1.000000 I-0.213806 J2.415701 F400.000000
G03 X49.265306 Y46.308000 Z-1.000000 I-0.730426 J1.011695
G01 X49.316806 Y46.579190 Z-1.000000
G01 X48.588766 Y46.587490 Z-1.000000
G02 X47.741321 Y46.910087 Z-1.000000 I0.015009 J1.313825
G02 X47.367576 Y47.650036 Z-1.000000 I0.720820 J0.828445
G03 X47.234430 Y48.498227 Z-1.000000 I-5.706812 J-0.461291
G03 X47.158976 Y48.538014 Z-1.000000 I-0.055035 J-0.012930
G02 X47.024064 Y48.493790 Z-1.000000 I-0.487486 J1.259251
G02 X46.624556 Y48.393473 Z-1.000000 I-2.962835 J10.953689
G03 X46.251842 Y48.262402 Z-1.000000 I0.405449 J-1.748398
G03 X46.150626 Y48.165446 Z-1.000000 I0.097935 J-0.203547
G03 X45.939785 Y47.509984 Z-1.000000 I1.694018 J-0.906551
G03 X45.816396 Y45.629734 Z-1.000000 I14.264267 J-1.880250
G01 X45.816396 Y44.993764 Z-1.000000
G01 X46.212746 Y44.994515 Z-1.000000
G03 X46.608548 Y45.007359 Z-1.000000 I-0.012442 J6.488462
G03 X47.564046 Y45.079745 Z-1.000000 I-2.382493 J37.791389
G01 X47.564056 Y45.079728 Z-1.000000
G00 Z5.000000

(End cutting path id: path66418)


(Start cutting path id: path66418)
(Change tool to Default tool)

G00 Z5.000000
G00 X44.838036 Y44.660279

G00 Z4.000000 (Fast pre-penetrate)
G01 Z-1.000000 F100.0(Penetrate)
G03 X45.361017 Y44.854052 Z-1.000000 I-1.489530 J4.822784 F400.000000
G03 X45.461816 Y44.931467 Z-1.000000 I-0.104534 J0.240440
G03 X45.510073 Y45.048328 Z-1.000000 I-0.179756 J0.142624
G03 X45.591346 Y46.078536 Z-1.000000 I-15.200935 J1.717507
G02 X45.665123 Y47.118176 Z-1.000000 I20.101281 J-0.904033
G02 X45.739256 Y47.603348 Z-1.000000 I4.453163 J-0.432180
G03 X45.813071 Y48.077061 Z-1.000000 I-4.492359 J0.942619
G03 X45.793656 Y48.131743 Z-1.000000 I-0.067259 J0.006907
G03 X45.738379 Y48.151783 Z-1.000000 I-0.049012 J-0.048936
G03 X44.926456 Y48.052893 Z-1.000000 I1.208430 J-13.304182
G02 X43.110423 Y47.879586 Z-1.000000 I-2.438130 J15.946955
G02 X41.268816 Y47.911743 Z-1.000000 I-0.634149 J16.432577
G02 X39.804033 Y48.098698 Z-1.000000 I1.014658 J13.781547
G02 X39.725136 Y48.193286 Z-1.000000 I0.017251 J0.094588
G02 X39.800346 Y48.408564 Z-1.000000 I0.345707 J0.000000
G02 X41.272166 Y50.137129 Z-1.000000 I26.811704 J-21.338456
G02 X42.087455 Y50.932127 Z-1.000000 I7.079384 J-6.444528
G02 X43.844026 Y52.362456 Z-1.000000 I24.785877 J-28.645476
G01 X44.082846 Y52.545320 Z-1.000000
G01 X43.480216 Y52.956819 Z-1.000000
G02 X42.897156 Y53.392659 Z-1.000000 I4.799534 J7.028674
G02 X42.229876 Y53.977646 Z-1.000000 I7.996602 J9.794583
G01 X41.582156 Y54.586975 Z-1.000000
G01 X41.091716 Y54.340347 Z-1.000000
G03 X39.892593 Y53.468319 Z-1.000000 I2.054687 J-4.085864
G03 X38.927566 Y52.149275 Z-1.000000 I3.953605 J-3.905035
G03 X38.520931 Y51.185635 Z-1.000000 I5.470016 J-2.875841
G03 X37.929656 Y49.082460 Z-1.000000 I25.640066 J-8.343012
G02 X37.558309 Y47.539876 Z-1.000000 I-286.674748 J68.195356
G02 X37.512296 Y47.369037 Z-1.000000 I-3.557200 J0.866465
G03 X37.555178 Y47.234878 Z-1.000000 I0.120150 J-0.035528
G03 X38.719736 Y46.423089 Z-1.000000 I7.851875 J10.022753
G03 X40.946943 Y45.182322 Z-1.000000 I14.980418 J24.270876
G03 X42.144966 Y44.710825 Z-1.000000 I3.252212 J6.505756
G03 X43.606202 Y44.486174 Z-1.000000 I1.565237 J5.316434
G03 X44.838056 Y44.660275 Z-1.000000 I0.073649 J3.923954
G01 X44.838036 Y44.660279 Z-1.000000
G00 Z5.000000

(End cutting path id: path66418)


(Start cutting path id: path66418)
(Change tool to Default tool)

G00 Z5.000000
G00 X42.585496 Y41.934717

G00 Z4.000000 (Fast pre-penetrate)
G01 Z-1.000000 F100.0(Penetrate)
G01 X45.017156 Y44.424879 Z-1.000000 F400.000000
G01 X44.603226 Y44.354549 Z-1.000000
G02 X44.187245 Y44.308514 Z-1.000000 I-0.603917 J3.554646
G02 X43.271416 Y44.285029 Z-1.000000 I-0.900767 J17.257886
G02 X42.364448 Y44.351115 Z-1.000000 I0.005398 J6.330747
G02 X41.678056 Y44.517052 Z-1.000000 I0.550412 J3.779350
G02 X40.594027 Y44.991002 Z-1.000000 I2.327769 J6.800804
G02 X38.911176 Y46.009116 Z-1.000000 I9.428862 J17.484923
G03 X38.302029 Y46.375082 Z-1.000000 I-3.779047 J-5.600237
G03 X38.226976 Y46.372637 Z-1.000000 I-0.035396 J-0.066620
G03 X38.175191 Y46.308470 Z-1.000000 I0.065206 J-0.105603
G03 X38.049376 Y45.871403 Z-1.000000 I3.568075 J-1.263756
G03 X38.011018 Y45.421693 Z-1.000000 I1.635920 J-0.366027
G03 X38.090876 Y45.042290 Z-1.000000 I1.234289 J0.061692
G03 X38.412408 Y44.538593 Z-1.000000 I1.382346 J0.527940
G03 X39.050286 Y44.055757 Z-1.000000 I1.901175 J1.848886
G01 X39.317936 Y43.910742 Z-1.000000
G01 X38.655786 Y43.263054 Z-1.000000
G03 X37.823253 Y41.873538 Z-1.000000 I2.231144 J-2.280962
G03 X37.605406 Y39.653160 Z-1.000000 I5.811871 J-1.691094
G02 X37.700256 Y38.358960 Z-1.000000 I-45.076456 J-3.954147
G02 X37.720736 Y37.693342 Z-1.000000 I-11.847897 J-0.697673
G01 X37.722736 Y37.026883 Z-1.000000
G01 X38.938406 Y38.235718 Z-1.000000
G03 X40.148068 Y39.450496 Z-1.000000 I-122.786500 J123.479051
G03 X42.585726 Y41.934715 Z-1.000000 I-510.553883 J503.422835
G01 X42.585496 Y41.934717 Z-1.000000
G00 Z5.000000

(End cutting path id: path66418)


(Start cutting path id: path66418)
(Change tool to Default tool)

G00 Z5.000000
G00 X42.994126 Y36.840992

G00 Z4.000000 (Fast pre-penetrate)
G01 Z-1.000000 F100.0(Penetrate)
G03 X43.585327 Y37.238463 Z-1.000000 I-1.147126 J2.344656 F400.000000
G03 X44.507806 Y38.192316 Z-1.000000 I-6.031071 J6.755693
G01 X44.716176 Y38.442039 Z-1.000000
G01 X44.869946 Y38.159128 Z-1.000000
G03 X45.365145 Y37.474633 Z-1.000000 I2.897506 J1.574830
G03 X45.791566 Y37.179181 Z-1.000000 I0.905819 J0.851906
G03 X46.432194 Y37.055161 Z-1.000000 I0.619235 J1.482069
G03 X46.991476 Y37.195161 Z-1.000000 I-0.016701 J1.253849
G03 X47.074932 Y37.378180 Z-1.000000 I-0.074798 J0.144645
G03 X46.810236 Y37.942588 Z-1.000000 I-1.520017 J-0.368585
G02 X46.089422 Y39.089243 Z-1.000000 I6.980103 J5.187740
G02 X45.381206 Y40.665829 Z-1.000000 I12.540373 J6.580607
G02 X45.195234 Y41.378090 Z-1.000000 I3.262783 J1.232324
G02 X45.112386 Y42.448479 Z-1.000000 I7.335425 J1.106163
G02 X45.134293 Y43.530470 Z-1.000000 I21.413049 J0.107673
G02 X45.176486 Y43.861957 Z-1.000000 I2.060624 J-0.093857
G03 X45.162533 Y44.053488 Z-1.000000 I-0.339426 J0.071546
G01 X45.099586 Y44.070563 Z-1.000000
G03 X44.960169 Y43.943066 Z-1.000000 I1.134369 J-1.380403
G03 X41.493336 Y40.404140 Z-1.000000 I871.268371 J-856.986816
G01 X38.033346 Y36.857837 Z-1.000000
G01 X39.567646 Y36.719955 Z-1.000000
G03 X42.222177 Y36.647844 Z-1.000000 I1.903712 J21.183904
G03 X42.994146 Y36.840988 Z-1.000000 I-0.067423 J1.908776
G01 X42.994126 Y36.840992 Z-1.000000
G00 Z5.000000

(End cutting path id: path66418)


(Start cutting path id: path66418)
(Change tool to Default tool)

G00 Z5.000000
G00 X45.944696 Y31.934715

G00 Z4.000000 (Fast pre-penetrate)
G01 Z-1.000000 F100.0(Penetrate)
G03 X47.628517 Y36.333301 Z-1.000000 I-117.732159 J47.590571 F400.000000
G03 X47.632146 Y36.600124 Z-1.000000 I-0.383336 J0.138650
G03 X47.383034 Y36.970930 Z-1.000000 I-0.790076 J-0.261702
G03 X47.171796 Y36.993849 Z-1.000000 I-0.122388 J-0.143099
G02 X46.999726 Y36.921286 Z-1.000000 I-0.477647 J0.892351
G02 X46.613886 Y36.817165 Z-1.000000 I-1.399515 J4.419222
G02 X45.865590 Y36.863407 Z-1.000000 I-0.294397 J1.313661
G02 X45.086176 Y37.364296 Z-1.000000 I0.693118 J1.935387
G01 X44.647996 Y37.814091 Z-1.000000
G01 X44.116236 Y37.282328 Z-1.000000
G02 X43.566720 Y36.779747 Z-1.000000 I-5.907915 J5.907935
G02 X43.416156 Y36.697143 Z-1.000000 I-0.285007 J0.340968
G03 X43.289418 Y36.607103 Z-1.000000 I0.077028 J-0.242639
G03 X43.206376 Y36.416999 Z-1.000000 I0.362704 J-0.271628
G02 X43.145008 Y36.196435 Z-1.000000 I-1.245648 J0.227760
G02 X42.867836 Y35.522738 Z-1.000000 I-11.987512 J4.538029
G03 X42.467583 Y33.891310 Z-1.000000 I4.330446 J-1.927242
G03 X42.684706 Y32.594153 Z-1.000000 I2.899989 J-0.181338
G03 X42.833862 Y32.275100 Z-1.000000 I3.769573 J1.567867
G03 X43.410536 Y31.201521 Z-1.000000 I43.331018 J22.583636
G02 X44.044665 Y29.940084 Z-1.000000 I-15.606240 J-8.635425
G02 X44.513296 Y28.772821 Z-1.000000 I-12.890306 J-5.852882
G03 X44.575818 Y28.649363 Z-1.000000 I0.498961 J0.175124
G01 X44.598996 Y28.647661 Z-1.000000
G03 X44.622512 Y28.684611 Z-1.000000 I-0.090830 J0.083765
G03 X45.944726 Y31.934715 Z-1.000000 I-729.604688 J298.713241
G01 X45.944696 Y31.934715 Z-1.000000
G00 Z5.000000

(End cutting path id: path66418)


(Start cutting path id: path66418)
(Change tool to Default tool)

G00 Z5.000000
G00 X45.578286 Y28.843491

G00 Z4.000000 (Fast pre-penetrate)
G01 Z-1.000000 F100.0(Penetrate)
G02 X46.205109 Y29.095816 Z-1.000000 I2.548189 J-5.425450 F400.000000
G02 X47.419756 Y29.466641 Z-1.000000 I6.786414 J-20.054351
G03 X49.231792 Y30.136387 Z-1.000000 I-2.901311 J10.635822
G03 X50.022976 Y30.697811 Z-1.000000 I-1.188609 J2.513239
G03 X50.631638 Y31.520655 Z-1.000000 I-2.585856 J2.549306
G03 X51.074766 Y32.643975 Z-1.000000 I-4.446735 J2.403216
G02 X51.186830 Y33.012931 Z-1.000000 I4.823509 J-1.263567
G02 X51.233876 Y33.102908 Z-1.000000 I0.324837 J-0.112556
G03 X51.265225 Y33.195354 Z-1.000000 I-0.131843 J0.096246
G03 X51.257876 Y34.133503 Z-1.000000 I-15.073841 J0.351030
G01 X51.221076 Y35.080656 Z-1.000000
G01 X50.792516 Y35.028676 Z-1.000000
G02 X49.745483 Y35.224541 Z-1.000000 I-0.213120 J1.757214
G02 X49.008216 Y35.981668 Z-1.000000 I0.820800 J1.536797
G03 X48.777371 Y36.439955 Z-1.000000 I-86.961553 J-43.516434
G03 X48.758116 Y36.474954 Z-1.000000 I-0.528653 J-0.268041
G03 X48.477421 Y36.556942 Z-1.000000 I-0.184376 J-0.109742
G03 X47.965476 Y36.076756 Z-1.000000 I0.554928 J-1.104626
G03 X47.851717 Y35.849057 Z-1.000000 I1.660410 J-0.971810
G03 X46.858196 Y33.436674 Z-1.000000 I186.323152 J-78.146527
G02 X45.872206 Y31.020014 Z-1.000000 I-382.395158 J154.606587
G02 X45.389156 Y29.868371 Z-1.000000 I-87.349593 J35.961162
G03 X44.898534 Y28.601755 Z-1.000000 I18.259490 J-7.801112
G01 X44.931546 Y28.555291 Z-1.000000
G03 X44.963136 Y28.562012 Z-1.000000 I0.000000 J0.077601
G03 X45.578226 Y28.843491 Z-1.000000 I-13.881720 J31.147219
G01 X45.578286 Y28.843491 Z-1.000000
G00 Z5.000000

(End cutting path id: path66418)


(Start cutting path id: path66418)
(Change tool to Default tool)

G00 Z5.000000
G00 X43.642046 Y28.396811

G00 Z4.000000 (Fast pre-penetrate)
G01 Z-1.000000 F100.0(Penetrate)
G03 X43.937574 Y28.510435 Z-1.000000 I-0.597844 J1.996088 F400.000000
G03 X44.140216 Y28.633191 Z-1.000000 I-0.500980 J1.055636
G01 X44.331826 Y28.777731 Z-1.000000
G01 X43.723196 Y29.939011 Z-1.000000
G02 X42.398614 Y32.922903 Z-1.000000 I22.270366 J11.672000
G02 X42.186666 Y34.111892 Z-1.000000 I3.229027 J1.188989
G02 X42.273768 Y34.933172 Z-1.000000 I3.915455 J-0.000000
G02 X42.499956 Y35.572134 Z-1.000000 I2.577777 J-0.552999
G03 X42.799610 Y36.193492 Z-1.000000 I-15.604805 J7.908453
G03 X42.812866 Y36.255077 Z-1.000000 I-0.132625 J0.060766
G01 X42.781579 Y36.288163 Z-1.000000
G03 X41.998926 Y36.304507 Z-1.000000 I-0.596745 J-9.828235
G02 X41.186858 Y36.321231 Z-1.000000 I-0.194906 J10.260304
G02 X39.956956 Y36.427453 Z-1.000000 I1.429154 J23.720911
G03 X38.727668 Y36.549861 Z-1.000000 I-5.369214 J-47.686974
G03 X38.359616 Y36.565766 Z-1.000000 I-0.368052 J-4.250396
G03 X38.043202 Y36.411945 Z-1.000000 I-0.000000 J-0.402346
G03 X37.889386 Y35.967091 Z-1.000000 I0.566375 J-0.444854
G02 X37.625535 Y34.122224 Z-1.000000 I-6.581652 J-0.000000
G02 X36.845516 Y32.392310 Z-1.000000 I-6.550543 J1.912830
G03 X36.719459 Y32.052490 Z-1.000000 I0.742519 J-0.468730
G03 X36.770216 Y31.884912 Z-1.000000 I0.202693 J-0.030083
G03 X37.344325 Y31.483671 Z-1.000000 I1.162559 J1.052080
G03 X38.347666 Y31.246191 Z-1.000000 I1.275218 J3.149463
G03 X39.252997 Y31.374539 Z-1.000000 I0.166853 J2.080214
G03 X40.116626 Y31.915527 Z-1.000000 I-0.917013 J2.423751
G02 X40.555795 Y32.272542 Z-1.000000 I2.596843 J-2.745786
G02 X40.633026 Y32.274629 Z-1.000000 I0.040206 J-0.057817
G02 X40.660468 Y32.206837 Z-1.000000 I-0.032559 J-0.052630
G02 X40.500536 Y31.753541 Z-1.000000 I-2.545498 J0.643241
G03 X40.524954 Y29.765865 Z-1.000000 I2.114430 J-0.968013
G03 X42.144936 Y28.383001 Z-1.000000 I2.399539 J1.170674
G03 X42.863942 Y28.279078 Z-1.000000 I0.696685 J2.280889
G03 X43.642036 Y28.396801 Z-1.000000 I-0.026241 J2.803736
G01 X43.642046 Y28.396811 Z-1.000000
G00 Z5.000000

(End cutting path id: path66418)


(Start cutting path id: path66418)
(Change tool to Default tool)

G00 Z5.000000
G00 X44.105846 Y22.299301

G00 Z4.000000 (Fast pre-penetrate)
G01 Z-1.000000 F100.0(Penetrate)
G03 X49.294022 Y24.012130 Z-1.000000 I-12.127706 J45.448881 F400.000000
G03 X51.225956 Y25.118281 Z-1.000000 I-2.874817 J7.261147
G01 X51.420346 Y25.270091 Z-1.000000
G01 X51.092536 Y25.487021 Z-1.000000
G02 X50.509406 Y26.056601 Z-1.000000 I1.196911 J1.808677
G02 X50.132876 Y26.865611 Z-1.000000 I2.133325 J1.485021
G03 X50.021818 Y27.197404 Z-1.000000 I-2.814588 J-0.757618
G01 X49.992086 Y27.215141 Z-1.000000
G03 X49.955290 Y27.195295 Z-1.000000 I0.006831 J-0.056700
G03 X49.694016 Y26.861951 Z-1.000000 I4.414019 J-3.728763
G02 X49.404100 Y26.557248 Z-1.000000 I-1.288805 J0.935985
G02 X48.948936 Y26.262091 Z-1.000000 I-1.661554 J2.063764
G02 X48.438886 Y26.084063 Z-1.000000 I-0.900995 J1.761694
G02 X47.699766 Y26.010321 Z-1.000000 I-0.739120 J3.667230
G02 X46.957653 Y26.076587 Z-1.000000 I0.000000 J4.188573
G02 X46.470986 Y26.231561 Z-1.000000 I0.348574 J1.936264
G02 X45.572439 Y26.928949 Z-1.000000 I1.098219 J2.342553
G02 X44.947446 Y28.080701 Z-1.000000 I2.650314 J2.183633
G03 X44.869702 Y28.143223 Z-1.000000 I-0.085754 J-0.027035
G03 X44.713726 Y28.101601 Z-1.000000 I-0.020971 J-0.234477
G02 X44.491510 Y28.060245 Z-1.000000 I-0.156553 J0.223507
G02 X44.397896 Y28.179901 Z-1.000000 I0.029664 J0.119656
G03 X44.292193 Y28.290594 Z-1.000000 I-0.110810 J0.000000
G03 X43.845266 Y28.205401 Z-1.000000 I-0.045130 J-0.978145
G02 X42.791628 Y27.986936 Z-1.000000 I-1.019132 J2.265154
G02 X41.713116 Y28.235001 Z-1.000000 I0.036501 J2.627252
G02 X40.842235 Y28.816211 Z-1.000000 I1.484849 J3.167951
G02 X40.326886 Y29.497441 Z-1.000000 I1.567913 J1.721668
G02 X40.031035 Y30.370062 Z-1.000000 I3.033229 J1.514842
G02 X40.021696 Y31.079481 Z-1.000000 I1.973708 J0.380753
G03 X40.052054 Y31.374199 Z-1.000000 I-2.379149 J0.393990
G01 X40.034596 Y31.392391 Z-1.000000
G03 X39.997333 Y31.384820 Z-1.000000 I-0.000000 J-0.095488
G03 X39.508636 Y31.169441 Z-1.000000 I7.328650 J-17.290882
G02 X39.008085 Y31.010361 Z-1.000000 I-0.901098 J1.968300
G02 X38.362286 Y30.953611 Z-1.000000 I-0.610179 J3.240769
G01 X37.702926 Y30.960611 Z-1.000000
G01 X37.757326 Y30.550331 Z-1.000000
G03 X38.421696 Y28.254080 Z-1.000000 I7.941423 J1.053442
G03 X41.404966 Y22.626011 Z-1.000000 I51.672266 J23.785206
G01 X41.916876 Y21.778621 Z-1.000000
G01 X42.218646 Y21.827421 Z-1.000000
G03 X42.517718 Y21.888839 Z-1.000000 I-0.573221 J3.550121
G03 X44.105826 Y22.299241 Z-1.000000 I-25.250090 J100.986743
G01 X44.105846 Y22.299301 Z-1.000000
G00 Z5.000000

(End cutting path id: path66418)


(Start cutting path id: path66418)
(Change tool to Default tool)

G00 Z5.000000
G00 X50.602066 Y12.868451

G00 Z4.000000 (Fast pre-penetrate)
G01 Z-1.000000 F100.0(Penetrate)
G03 X50.813821 Y14.913412 Z-1.000000 I-175.263941 J19.181939 F400.000000
G03 X50.824386 Y15.145031 Z-1.000000 I-2.229796 J0.217762
G03 X50.787562 Y15.368699 Z-1.000000 I-0.723487 J-0.004248
G03 X50.603976 Y15.809421 Z-1.000000 I-3.055343 J-1.014126
G01 X50.384986 Y16.241571 Z-1.000000
G01 X50.236096 Y15.760331 Z-1.000000
G02 X49.803478 Y14.943159 Z-1.000000 I-2.377739 J0.735695
G02 X49.185876 Y14.444831 Z-1.000000 I-1.432799 J1.143860
G03 X48.770660 Y14.123731 Z-1.000000 I0.594747 J-1.198081
G03 X48.626906 Y13.801091 Z-1.000000 I0.457324 J-0.397108
G02 X48.572242 Y13.411888 Z-1.000000 I-12.010061 J1.488388
G02 X48.526226 Y13.160081 Z-1.000000 I-5.063914 J0.795286
G03 X48.561958 Y12.930690 Z-1.000000 I0.322321 J-0.067271
G03 X49.116236 Y12.117051 Z-1.000000 I5.154773 J2.915990
G03 X50.264441 Y10.775922 Z-1.000000 I25.596667 J20.752463
G01 X50.329456 Y10.774521 Z-1.000000
G03 X50.358308 Y10.833684 Z-1.000000 I-0.073574 J0.072496
G03 X50.602066 Y12.868451 Z-1.000000 I-99.468688 J12.947993
G01 X50.602066 Y12.868451 Z-1.000000
G00 Z5.000000

(End cutting path id: path66418)


(Start cutting path id: path66418)
(Change tool to Default tool)

G00 Z5.000000
G00 X56.026656 Y16.519111

G00 Z4.000000 (Fast pre-penetrate)
G01 Z-1.000000 F100.0(Penetrate)
G03 X56.926782 Y18.532990 Z-1.000000 I-22.599323 J11.309124 F400.000000
G03 X57.449216 Y20.115471 Z-1.000000 I-13.413900 J5.305890
G03 X57.841603 Y23.262452 Z-1.000000 I-11.214733 J2.996282
G03 X57.372716 Y26.010681 Z-1.000000 I-8.971051 J-0.116475
G03 X56.037435 Y28.882996 Z-1.000000 I-13.653521 J-4.600713
G03 X55.598006 Y28.936081 Z-1.000000 I-0.240550 J-0.145933
G03 X55.562304 Y28.851143 Z-1.000000 I0.086208 J-0.086208
G03 X55.511172 Y22.252541 Z-1.000000 I1239.362165 J-12.903204
G03 X55.495285 Y15.657113 Z-1.000000 I1231.470082 J-6.264197
G01 X55.530306 Y15.622101 Z-1.000000
G01 X55.565222 Y15.642685 Z-1.000000
G03 X56.026746 Y16.519111 Z-1.000000 I-20.908452 J11.570077
G01 X56.026656 Y16.519111 Z-1.000000
G00 Z5.000000

(End cutting path id: path66418)


(Start cutting path id: path66418)
(Change tool to Default tool)

G00 Z5.000000
G00 X59.920696 Y15.893291

G00 Z4.000000 (Fast pre-penetrate)
G01 Z-1.000000 F100.0(Penetrate)
G03 X60.340164 Y17.138230 Z-1.000000 I-22.547502 J8.290258 F400.000000
G03 X60.497166 Y17.772541 Z-1.000000 I-5.681476 J1.742842
G01 X60.564866 Y18.128951 Z-1.000000
G01 X59.149626 Y19.010061 Z-1.000000
G03 X57.739547 Y19.868992 Z-1.000000 I-44.783924 J-71.933369
G01 X57.717266 Y19.863561 Z-1.000000
G03 X57.407715 Y19.235634 Z-1.000000 I3.062869 J-1.900175
G03 X56.773986 Y17.363261 Z-1.000000 I26.901198 J-10.148495
G03 X56.792171 Y17.246104 Z-1.000000 I0.131717 J-0.039546
G03 X57.013236 Y17.013241 Z-1.000000 I0.833042 J0.569475
G03 X59.209554 Y15.502704 Z-1.000000 I16.455835 J21.574759
G03 X59.670676 Y15.371771 Z-1.000000 I0.461122 J0.746529
G01 X59.711221 Y15.397299 Z-1.000000
G03 X59.920716 Y15.893291 Z-1.000000 I-5.132902 J2.460254
G01 X59.920696 Y15.893291 Z-1.000000
G00 Z5.000000

(End cutting path id: path66418)


(Start cutting path id: path66418)
(Change tool to Default tool)

G00 Z5.000000
G00 X58.610426 Y13.452551

G00 Z4.000000 (Fast pre-penetrate)
G01 Z-1.000000 F100.0(Penetrate)
G03 X59.078527 Y14.172609 Z-1.000000 I-14.435520 J9.896528 F400.000000
G03 X59.338116 Y14.634421 Z-1.000000 I-5.668068 J3.489947
G01 X59.579546 Y15.107011 Z-1.000000
G01 X58.076816 Y16.042771 Z-1.000000
G03 X56.577723 Y16.951830 Z-1.000000 I-39.144386 J-62.860859
G01 X56.545126 Y16.946981 Z-1.000000
G03 X56.520606 Y16.912277 Z-1.000000 I0.125537 J-0.114714
G03 X56.005946 Y15.935591 Z-1.000000 I99.687721 J-53.153844
G03 X55.509485 Y14.592447 Z-1.000000 I5.051830 J-2.630611
G03 X55.600036 Y14.186351 Z-1.000000 I0.468421 J-0.108696
G03 X55.720939 Y14.072377 Z-1.000000 I0.442971 J0.348786
G03 X56.455316 Y13.591131 Z-1.000000 I8.984541 J12.909386
G02 X57.201062 Y13.120598 Z-1.000000 I-21.642963 J-35.128141
G02 X57.498346 Y12.917321 Z-1.000000 I-3.729348 J-5.773012
G03 X57.801217 Y12.747279 Z-1.000000 I0.891961 J1.233965
G03 X57.957286 Y12.724751 Z-1.000000 I0.121438 J0.289428
G03 X58.093324 Y12.794720 Z-1.000000 I-0.023710 J0.213331
G03 X58.610426 Y13.452551 Z-1.000000 I-4.779010 J4.288795
G01 X58.610426 Y13.452551 Z-1.000000
G00 Z5.000000

(End cutting path id: path66418)


(Start cutting path id: path66418)
(Change tool to Default tool)

G00 Z5.000000
G00 X57.651916 Y12.520701

G00 Z4.000000 (Fast pre-penetrate)
G01 Z-1.000000 F100.0(Penetrate)
G03 X55.832446 Y13.785786 Z-1.000000 I-17.587723 J-23.354067 F400.000000
G03 X55.545636 Y13.869761 Z-1.000000 I-0.286810 J-0.447800
G01 X55.520345 Y13.845083 Z-1.000000
G03 X55.498036 Y11.929731 Z-1.000000 I74.422436 J-1.824652
G01 X55.500036 Y9.989690 Z-1.000000
G01 X56.673496 Y11.181661 Z-1.000000
G01 X57.846956 Y12.373631 Z-1.000000
G01 X57.651666 Y12.520701 Z-1.000000
G01 X57.651916 Y12.520701 Z-1.000000
G00 Z5.000000

(End cutting path id: path66418)


(Start cutting path id: path66418)
(Change tool to Default tool)

G00 Z5.000000
G00 X59.193586 Y9.337760

G00 Z4.000000 (Fast pre-penetrate)
G01 Z-1.000000 F100.0(Penetrate)
G03 X60.146780 Y10.363736 Z-1.000000 I-32.248406 J30.916518 F400.000000
G03 X60.170166 Y10.422511 Z-1.000000 I-0.067756 J0.060999
G03 X59.979877 Y14.335076 Z-1.000000 I-26.865220 J0.654312
G03 X59.657196 Y14.620741 Z-1.000000 I-0.322681 J-0.039414
G03 X59.609559 Y14.595239 Z-1.000000 I0.000000 J-0.057243
G03 X59.337596 Y14.140951 Z-1.000000 I4.560322 J-3.038624
G02 X59.058046 Y13.675820 Z-1.000000 I-4.781554 J2.557205
G02 X58.486206 Y12.872721 Z-1.000000 I-14.864299 J9.978869
G01 X57.891426 Y12.084281 Z-1.000000
G01 X57.947326 Y10.578051 Z-1.000000
G03 X58.094108 Y8.337102 Z-1.000000 I39.647976 J1.471654
G01 X58.161686 Y8.296740 Z-1.000000
G03 X58.211799 Y8.330620 Z-1.000000 I-0.060536 J0.143545
G03 X59.193536 Y9.337760 Z-1.000000 I-60.165959 J59.630430
G01 X59.193586 Y9.337760 Z-1.000000
G00 Z5.000000

(End cutting path id: path66418)


(Start cutting path id: path66418)
(Change tool to Default tool)

G00 Z5.000000
G00 X61.336706 Y11.745701

G00 Z4.000000 (Fast pre-penetrate)
G01 Z-1.000000 F100.0(Penetrate)
G03 X62.113016 Y12.712273 Z-1.000000 I-30.895946 J25.609367 F400.000000
G03 X62.197066 Y12.851501 Z-1.000000 I-0.544718 J0.423821
G03 X62.225711 Y13.005809 Z-1.000000 I-0.298480 J0.135221
G03 X62.152866 Y13.610841 Z-1.000000 I-4.945986 J-0.288588
G03 X61.951762 Y14.143889 Z-1.000000 I-1.569914 J-0.287825
G03 X61.721166 Y14.330691 Z-1.000000 I-0.371378 J-0.222715
G02 X61.066278 Y14.783601 Z-1.000000 I0.478463 J1.391762
G02 X60.530456 Y15.768081 Z-1.000000 I2.245756 J1.860351
G03 X60.400247 Y16.104508 Z-1.000000 I-2.677793 J-0.842989
G03 X60.356656 Y16.143571 Z-1.000000 I-0.067161 J-0.031092
G01 X60.312262 Y16.126146 Z-1.000000
G03 X60.096976 Y15.666531 Z-1.000000 I3.697550 J-2.012176
G01 X59.899416 Y15.168631 Z-1.000000
G01 X60.122786 Y13.121531 Z-1.000000
G03 X60.425609 Y10.835263 Z-1.000000 I49.846553 J5.439131
G03 X60.486986 Y10.785891 Z-1.000000 I0.057795 J0.009012
G03 X60.534022 Y10.808900 Z-1.000000 I-0.004379 J0.068534
G03 X61.336646 Y11.745701 Z-1.000000 I-28.350456 J25.102075
G01 X61.336706 Y11.745701 Z-1.000000
G00 Z5.000000

(End cutting path id: path66418)


(Start cutting path id: path66418)
(Change tool to Default tool)

G00 Z5.000000
G00 X62.887456 Y13.738781

G00 Z4.000000 (Fast pre-penetrate)
G01 Z-1.000000 F100.0(Penetrate)
G03 X63.117913 Y14.205014 Z-1.000000 I-1.709851 J1.135245 F400.000000
G03 X63.132006 Y14.448041 Z-1.000000 I-0.425103 J0.146574
G03 X63.056040 Y14.679696 Z-1.000000 I-1.180837 J-0.258944
G01 X63.018286 Y14.704241 Z-1.000000
G03 X62.965205 Y14.690035 Z-1.000000 I0.000000 J-0.106270
G03 X62.639006 Y14.485531 Z-1.000000 I2.601298 J-4.511680
G03 X62.419082 Y14.220335 Z-1.000000 I0.348367 J-0.512685
G03 X62.365606 Y13.857731 Z-1.000000 I0.643167 J-0.280098
G03 X62.479420 Y13.337552 Z-1.000000 I2.713630 J0.321197
G03 X62.550686 Y13.285711 Z-1.000000 I0.071266 J0.023064
G01 X62.579038 Y13.299965 Z-1.000000
G03 X62.887456 Y13.738781 Z-1.000000 I-8.126176 J6.039200
G01 X62.887456 Y13.738781 Z-1.000000
G00 Z5.000000

(End cutting path id: path66418)


(Start cutting path id: path66418)
(Change tool to Default tool)

G00 Z5.000000
G00 X62.618806 Y14.710291

G00 Z4.000000 (Fast pre-penetrate)
G01 Z-1.000000 F100.0(Penetrate)
G03 X62.806664 Y14.898780 Z-1.000000 I-0.683497 J0.869069 F400.000000
G03 X62.838666 Y14.991741 Z-1.000000 I-0.119019 J0.092961
G03 X62.505617 Y15.607306 Z-1.000000 I-0.735391 J0.000000
G03 X60.827136 Y16.306521 Z-1.000000 I-2.715721 J-4.154927
G03 X60.764368 Y16.270892 Z-1.000000 I-0.011362 J-0.053086
G03 X60.736436 Y16.039311 Z-1.000000 I0.536469 J-0.182181
G03 X60.981714 Y15.212801 Z-1.000000 I2.147985 J0.187794
G03 X61.444126 Y14.711891 Z-1.000000 I1.189285 J0.633989
G03 X62.081783 Y14.524676 Z-1.000000 I0.639401 J0.998268
G03 X62.618846 Y14.709891 Z-1.000000 I0.001276 J0.867562
G01 X62.618806 Y14.710291 Z-1.000000
G00 Z5.000000

(End cutting path id: path66418)


(Start cutting path id: path66418)
(Change tool to Default tool)

G00 Z5.000000
G00 X65.429446 Y13.372951

G00 Z4.000000 (Fast pre-penetrate)
G01 Z-1.000000 F100.0(Penetrate)
G03 X65.630514 Y13.628287 Z-1.000000 I-0.730772 J0.782289 F400.000000
G03 X65.619516 Y13.709061 Z-1.000000 I-0.058627 J0.033153
G03 X63.852004 Y14.912245 Z-1.000000 I-4.050614 J-4.050614
G03 X63.351736 Y14.694621 Z-1.000000 I-0.148657 J-0.342085
G03 X63.347079 Y14.353049 Z-1.000000 I0.502261 J-0.177665
G03 X63.664196 Y13.728441 Z-1.000000 I2.130569 J0.688896
G03 X64.588287 Y13.134425 Z-1.000000 I1.221992 J0.885216
G03 X65.429446 Y13.372951 Z-1.000000 I0.188699 J0.936987
G01 X65.429446 Y13.372951 Z-1.000000
G00 Z5.000000

(End cutting path id: path66418)


(Start cutting path id: path66418)
(Change tool to Default tool)

G00 Z5.000000
G00 X68.266326 Y12.162931

G00 Z4.000000 (Fast pre-penetrate)
G01 Z-1.000000 F100.0(Penetrate)
G03 X68.268511 Y12.503990 Z-1.000000 I-0.164395 J0.171590 F400.000000
G03 X67.297836 Y13.114911 Z-1.000000 I-1.883721 J-1.916390
G03 X66.090884 Y13.518154 Z-1.000000 I-8.920149 J-24.691149
G03 X66.032836 Y13.503721 Z-1.000000 I-0.017037 J-0.055429
G03 X65.984846 Y13.282803 Z-1.000000 I0.147773 J-0.147773
G03 X66.415176 Y12.480371 Z-1.000000 I3.176404 J1.186847
G03 X66.967412 Y12.016721 Z-1.000000 I1.201490 J0.870351
G03 X67.619646 Y11.894161 Z-1.000000 I0.549970 J1.130004
G03 X67.993830 Y11.984816 Z-1.000000 I-0.100550 J1.232592
G03 X68.266326 Y12.162931 Z-1.000000 I-0.339794 J0.817348
G01 X68.266326 Y12.162931 Z-1.000000
G00 Z5.000000

(End cutting path id: path66418)


(Start cutting path id: path66418)
(Change tool to Default tool)

G00 Z5.000000
G00 X71.150446 Y11.004741

G00 Z4.000000 (Fast pre-penetrate)
G01 Z-1.000000 F100.0(Penetrate)
G03 X71.337744 Y11.157040 Z-1.000000 I-0.646262 J0.986094 F400.000000
G03 X71.438336 Y11.292581 Z-1.000000 I-0.407156 J0.407270
G03 X71.423674 Y11.414886 Z-1.000000 I-0.094678 J0.050681
G03 X71.122046 Y11.645981 Z-1.000000 I-0.761764 J-0.681873
G03 X69.501637 Y12.357008 Z-1.000000 I-7.477617 J-14.839327
G03 X68.984116 Y12.451241 Z-1.000000 I-0.517521 J-1.373971
G03 X68.801929 Y12.186702 Z-1.000000 I0.000000 J-0.195005
G03 X69.456496 Y11.213361 Z-1.000000 I2.430148 J0.927495
G03 X70.318133 Y10.810956 Z-1.000000 I1.049596 J1.123736
G03 X71.150446 Y11.004741 Z-1.000000 I0.151781 J1.232393
G01 X71.150446 Y11.004741 Z-1.000000
G00 Z5.000000

(End cutting path id: path66418)


(Start cutting path id: path66418)
(Change tool to Default tool)

G00 Z5.000000
G00 X73.398586 Y11.011861

G00 Z4.000000 (Fast pre-penetrate)
G01 Z-1.000000 F100.0(Penetrate)
G02 X73.718736 Y12.191544 Z-1.000000 I6.355295 J-1.091459 F400.000000
G02 X75.227696 Y15.872381 Z-1.000000 I63.921248 J-24.054808
G03 X76.889290 Y19.783323 Z-1.000000 I-118.161753 J52.510387
G03 X77.357816 Y21.124231 Z-1.000000 I-13.390266 J5.430991
G03 X77.937849 Y23.385651 Z-1.000000 I-31.192092 J9.205580
G03 X78.024836 Y24.176181 Z-1.000000 I-3.686238 J0.805669
G03 X77.487814 Y25.194681 Z-1.000000 I-1.224736 J0.005063
G03 X76.642226 Y25.114421 Z-1.000000 I-0.374255 J-0.551514
G03 X76.615714 Y25.064034 Z-1.000000 I0.067889 J-0.067889
G03 X76.435146 Y23.997681 Z-1.000000 I34.133751 J-6.328416
G02 X75.543745 Y20.434559 Z-1.000000 I-19.551827 J2.998299
G02 X73.548766 Y15.788941 Z-1.000000 I-35.357417 J12.432455
G02 X72.822333 Y14.424972 Z-1.000000 I-42.312439 J21.659673
G02 X72.532426 Y13.953201 Z-1.000000 I-5.338841 J2.955792
G02 X72.085035 Y13.667463 Z-1.000000 I-0.556038 J0.377493
G02 X71.057746 Y13.711631 Z-1.000000 I-0.407613 J2.488256
G02 X64.858150 Y15.914913 Z-1.000000 I8.690804 J34.278049
G02 X61.413486 Y18.188881 Z-1.000000 I5.860184 J12.623168
G03 X61.002401 Y18.507418 Z-1.000000 I-2.380876 J-2.648086
G03 X60.932016 Y18.508561 Z-1.000000 I-0.036084 J-0.054344
G03 X60.883855 Y18.444174 Z-1.000000 I0.057963 J-0.093562
G03 X60.708086 Y17.693691 Z-1.000000 I9.724045 J-2.673268
G01 X60.558766 Y16.924951 Z-1.000000
G01 X60.899626 Y16.622461 Z-1.000000
G03 X62.203424 Y15.698421 Z-1.000000 I4.863698 J5.480723
G03 X65.425376 Y14.106951 Z-1.000000 I18.002148 J32.388416
G03 X66.308269 Y13.742524 Z-1.000000 I10.123626 J23.274680
G03 X68.804796 Y12.785901 Z-1.000000 I72.419329 J185.258924
G02 X71.903566 Y11.515046 Z-1.000000 I-19.628242 J-52.273584
G02 X72.810036 Y11.001161 Z-1.000000 I-2.200013 J-4.937150
G03 X73.231997 Y10.721366 Z-1.000000 I5.433356 J7.736026
G03 X73.286046 Y10.703551 Z-1.000000 I0.063372 J0.101365
G01 X73.322787 Y10.727566 Z-1.000000
G03 X73.398586 Y11.011861 Z-1.000000 I-1.527265 J0.559452
G01 X73.398586 Y11.011861 Z-1.000000
G00 Z5.000000

(End cutting path id: path66418)


(Start cutting path id: path66418)
(Change tool to Default tool)

G00 Z5.000000
G00 X74.144436 Y9.279960

G00 Z4.000000 (Fast pre-penetrate)
G01 Z-1.000000 F100.0(Penetrate)
G03 X74.723187 Y10.027851 Z-1.000000 I-0.708209 J1.145919 F400.000000
G03 X74.729636 Y11.172071 Z-1.000000 I-1.884223 J0.582748
G03 X74.226070 Y12.144501 Z-1.000000 I-2.791601 J-0.829011
G03 X73.952476 Y12.159141 Z-1.000000 I-0.143223 J-0.112764
G03 X73.730711 Y11.749133 Z-1.000000 I0.607159 J-0.593378
G03 X73.602736 Y10.578131 Z-1.000000 I5.293499 J-1.171002
G02 X73.566652 Y10.317790 Z-1.000000 I-0.957204 J0.000000
G01 X73.518936 Y10.281691 Z-1.000000
G02 X73.441988 Y10.303646 Z-1.000000 I-0.000000 J0.145823
G02 X72.712956 Y10.782341 Z-1.000000 I9.151627 J14.732020
G03 X71.989167 Y11.024501 Z-1.000000 I-0.777797 J-1.122009
G03 X71.798566 Y10.818541 Z-1.000000 I-0.007301 J-0.184417
G03 X72.737915 Y9.298862 Z-1.000000 I2.097817 J0.246553
G03 X74.144386 Y9.279920 Z-1.000000 I0.718108 J1.094848
G01 X74.144436 Y9.279960 Z-1.000000
G00 Z5.000000

(End cutting path id: path66418)


(Start cutting path id: path66418)
(Change tool to Default tool)

G00 Z5.000000
G00 X74.991286 Y6.247390

G00 Z4.000000 (Fast pre-penetrate)
G01 Z-1.000000 F100.0(Penetrate)
G03 X74.280531 Y7.986262 Z-1.000000 I-785.950000 J-320.238364 F400.000000
G03 X74.098346 Y8.425140 Z-1.000000 I-50.659156 J-20.772134
G01 X73.914256 Y8.863220 Z-1.000000
G01 X73.468136 Y8.863220 Z-1.000000
G02 X72.669583 Y9.042652 Z-1.000000 I0.000000 J1.866679
G02 X72.030906 Y9.543450 Z-1.000000 I0.785203 J1.659040
G02 X71.746757 Y9.991174 Z-1.000000 I1.755981 J1.428469
G02 X71.591866 Y10.456723 Z-1.000000 I1.746642 J0.839658
G01 X71.494966 Y10.949453 Z-1.000000
G01 X71.195876 Y10.764593 Z-1.000000
G02 X70.882200 Y10.631621 Z-1.000000 I-0.589184 J0.953403
G02 X70.476626 Y10.582203 Z-1.000000 I-0.396118 J1.561960
G02 X69.523065 Y10.897714 Z-1.000000 I0.008796 J1.625300
G02 X68.806296 Y11.809053 Z-1.000000 I1.283748 J1.747209
G03 X68.663712 Y12.096874 Z-1.000000 I-2.314901 J-0.967556
G01 X68.628016 Y12.117473 Z-1.000000
G03 X68.583664 Y12.103493 Z-1.000000 I0.000000 J-0.077346
G03 X68.334626 Y11.912193 Z-1.000000 I2.031318 J-2.902151
G02 X67.149014 Y11.699986 Z-1.000000 I-0.777091 J0.923504
G02 X65.991836 Y12.754903 Z-1.000000 I0.690466 J1.919532
G03 X65.726447 Y13.224956 Z-1.000000 I-3.207400 J-1.500934
G01 X65.674156 Y13.229093 Z-1.000000
G03 X64.887520 Y12.252487 Z-1.000000 I6.553862 J-6.084110
G03 X64.098416 Y10.964363 Z-1.000000 I10.646413 J-7.407754
G03 X64.089083 Y10.802773 Z-1.000000 I0.169936 J-0.090880
